; generated by PrusaSlicer 2.9.0 on 2025-02-10 at 15:40:57 UTC

; 

; external perimeters extrusion width = 1.12mm
; perimeters extrusion width = 1.12mm
; infill extrusion width = 1.12mm
; solid infill extrusion width = 1.12mm
; top infill extrusion width = 1.00mm
; first layer extrusion width = 1.05mm

M190 S25 ; set bed temperature and wait for it to be reached
;TYPE:Custom
G28 H ; home all axes
G92 E0 ; zero extruder
M6
M220 S100
M221 S100
M104 S200 T0
M104 S160 T1

M109 S200 T0
M109 S160 T1
G21 ; set units to millimeters
G90 ; use absolute coordinates
M82 ; use absolute distances for extrusion
G92 E0
M107
;LAYER_CHANGE
;Z:0.5
;HEIGHT:0.5
G1 E0.00000 F2400
G92 E0
G1 Z.5 F7800
G1 X0 Y-25.471
G1 E0.89802 F2400
;TYPE:Skirt/Brim
;WIDTH:1.05
G1 F1500
G1 X60 Y-25.471 E1.79584
G1 X62.045 Y-25.075 E2.69375
G1 X63.793 Y-23.943 E3.68130
G1 X64.992 Y-22.24 E20.92616
G1 X65.471 Y-20 E21.82418
G1 X65.471 Y20 E22.72200
G1 X65.075 Y22.045 E23.61991
G1 X63.943 Y23.793 E24.60746
G1 X62.24 Y24.992 E76.34205
G1 X60 Y25.471 E77.24007
G1 X-60 Y25.471 E78.13789
G1 X-62.045 Y25.075 E79.03580
G1 X-63.793 Y23.943 E80.02335
G1 X-64.992 Y22.24 E97.26821
G1 X-65.471 Y20 E98.16623
G1 X-65.471 Y-20 E99.06405
G1 X-65.075 Y-22.045 E99.96196
G1 X-63.943 Y-23.793 E100.94951
G1 X-62.24 Y-24.992 E126.75214
G1 X-60 Y-25.471 E-173.24774
G1 X-.15 Y-25.471 E-172.85110
G1 E-172.30500 F2400
G92 E0
G1 X-.15 Y-25.471 F7800
G92 E0
G1 X-47.573 Y-19.44
G1 E-171.70550 F2400
;TYPE:Internal infill
G1 F1500
G1 X-41.497 Y-19.44 E-169.72458
G1 X-41.673 Y-19.015 E-168.53744
G1 X-41.999 Y-18.472 E-167.50178
G1 X-42.432 Y-17.928 E-166.54070
G1 X-44.052 Y-16.299 E-165.60306
G1 X-44.897 Y-15.212 E-164.64898
G1 X-45.408 Y-14.125 E-164.14138
G1 X-45.659 Y-13.039 E-163.59528
G1 X-45.69 Y-11.952 E-162.99644
G1 X-45.478 Y-10.866 E-161.01430
G1 X-45.253 Y-10.322 E-159.82768
G1 X-44.927 Y-9.779 E-158.79280
G1 X-44.494 Y-9.236 E-157.83088
G1 X-42.873 Y-7.606 E-156.89408
G1 X-42.029 Y-6.519 E-155.93900
G1 X-41.518 Y-5.433 E-155.43220
G1 X-41.267 Y-4.346 E-154.88610
G1 X-41.235 Y-3.26 E-154.28660
G1 X-41.448 Y-2.173 E-152.30508
G1 X-41.673 Y-1.63 E-151.11862
G1 X-41.999 Y-1.087 E-150.08296
G1 X-42.432 Y-.543 E-149.12188
G1 X-44.052 Y1.087 E-148.18424
G1 X-44.897 Y2.173 E-147.23016
G1 X-45.408 Y3.26 E-146.72256
G1 X-45.659 Y4.346 E-146.17646
G1 X-45.69 Y5.433 E-145.57762
G1 X-45.478 Y6.519 E-143.59548
G1 X-45.253 Y7.063 E-142.40886
G1 X-44.927 Y7.606 E-141.37398
G1 X-44.494 Y8.149 E-140.41206
G1 X-42.873 Y9.779 E-139.47526
G1 X-42.029 Y10.866 E-138.52018
G1 X-41.518 Y11.952 E-138.01338
G1 X-41.267 Y13.039 E-137.46654
G1 X-41.235 Y14.125 E-136.86770
G1 X-41.448 Y15.212 E-134.88618
G1 X-41.673 Y15.755 E-133.82396
G1 X-41.999 Y16.299 E-126.85876
G1 X-42.432 Y16.842 E-126.46212
G1 X-44.052 Y18.472 E-125.91602
G1 X-44.814 Y19.44 E-125.31652
G1 X-36.736 Y19.44 E-123.33560
G1 X-36.56 Y19.015 E-122.71798
G1 X-36.234 Y18.472 E-122.14750
G1 X-35.801 Y17.928 E-121.11148
G1 X-34.181 Y16.299 E-120.15040
G1 X-33.715 Y15.755 E-119.21276
G1 X-33.337 Y15.212 E-118.25868
G1 X-32.825 Y14.125 E-117.75076
G1 X-32.574 Y13.039 E-117.20466
G1 X-32.543 Y11.952 E-116.60582
G1 X-32.755 Y10.866 E-114.62430
G1 X-32.981 Y10.322 E-113.43768
G1 X-33.307 Y9.779 E-112.40244
G1 X-33.74 Y9.236 E-111.44072
G1 X-35.36 Y7.606 E-110.50392
G1 X-36.204 Y6.519 E-109.54900
G1 X-36.716 Y5.433 E-109.04186
G1 X-36.966 Y4.346 E-108.49576
G1 X-36.998 Y3.26 E-107.89626
G1 X-36.786 Y2.173 E-105.91474
G1 X-36.56 Y1.63 E-104.72880
G1 X-36.234 Y1.087 E-103.69278
G1 X-35.801 Y.543 E-102.73170
G1 X-34.181 Y-1.087 E-101.79406
G1 X-33.337 Y-2.173 E-100.83998
G1 X-32.825 Y-3.26 E-100.33206
G1 X-32.574 Y-4.346 E-99.78596
G1 X-32.543 Y-5.433 E-99.18712
G1 X-32.755 Y-6.519 E-97.20560
G1 X-32.981 Y-7.063 E-96.01898
G1 X-33.307 Y-7.606 E-94.98374
G1 X-33.74 Y-8.149 E-94.02202
G1 X-35.36 Y-9.779 E-93.08522
G1 X-36.204 Y-10.866 E-92.13030
G1 X-36.716 Y-11.952 E-91.62316
G1 X-36.966 Y-13.039 E-91.07632
G1 X-36.998 Y-14.125 E-90.47748
G1 X-36.786 Y-15.212 E-88.49596
G1 X-36.56 Y-15.755 E-87.43374
G1 X-36.234 Y-16.299 E-79.40884
G1 X-35.801 Y-16.842 E-79.01220
G1 X-34.181 Y-18.472 E-78.46610
G1 X-33.419 Y-19.44 E-77.86660
G1 X-24.112 Y-19.44 E-75.88568
G1 X-24.288 Y-19.015 E-74.69906
G1 X-24.614 Y-18.472 E-73.66304
G1 X-25.047 Y-17.928 E-72.70196
G1 X-26.667 Y-16.299 E-71.76432
G1 X-27.511 Y-15.212 E-70.81024
G1 X-28.023 Y-14.125 E-70.30232
G1 X-28.274 Y-13.039 E-69.75622
G1 X-28.305 Y-11.952 E-69.15738
G1 X-28.093 Y-10.866 E-67.17586
G1 X-27.867 Y-10.322 E-65.98924
G1 X-27.541 Y-9.779 E-64.95400
G1 X-27.108 Y-9.236 E-63.99228
G1 X-25.488 Y-7.606 E-63.05548
G1 X-24.644 Y-6.519 E-62.10040
G1 X-24.132 Y-5.433 E-61.59360
G1 X-23.882 Y-4.346 E-61.04750
G1 X-23.85 Y-3.26 E-60.44800
G1 X-24.063 Y-2.173 E-58.46648
G1 X-24.288 Y-1.63 E-57.28054
G1 X-24.614 Y-1.087 E-56.24452
G1 X-25.047 Y-.543 E-55.28344
G1 X-26.667 Y1.087 E-54.34580
G1 X-27.511 Y2.173 E-53.39172
G1 X-28.023 Y3.26 E-52.88380
G1 X-28.274 Y4.346 E-52.33770
G1 X-28.305 Y5.433 E-51.73886
G1 X-28.093 Y6.519 E-49.75734
G1 X-27.867 Y7.063 E-48.57072
G1 X-27.541 Y7.606 E-47.53548
G1 X-27.108 Y8.149 E-46.57376
G1 X-25.488 Y9.779 E-45.63696
G1 X-24.644 Y10.866 E-44.68188
G1 X-24.132 Y11.952 E-44.17508
G1 X-23.882 Y13.039 E-43.62824
G1 X-23.85 Y14.125 E-43.02940
G1 X-24.063 Y15.212 E-41.04788
G1 X-24.288 Y15.755 E-39.98566
G1 X-24.614 Y16.299 E-33.02046
G1 X-25.047 Y16.842 E-32.62382
G1 X-26.667 Y18.472 E-32.07772
G1 X-27.429 Y19.44 E-31.47822
G1 X-19.351 Y19.44 E-29.49730
G1 X-19.175 Y19.015 E-28.87968
G1 X-18.849 Y18.472 E-28.30872
G1 X-18.416 Y17.928 E-27.27306
G1 X-16.796 Y16.299 E-26.31198
G1 X-16.33 Y15.755 E-25.37434
G1 X-15.951 Y15.212 E-24.42026
G1 X-15.44 Y14.125 E-23.91234
G1 X-15.189 Y13.039 E-23.36624
G1 X-15.158 Y11.952 E-22.76740
G1 X-15.37 Y10.866 E-20.78588
G1 X-15.596 Y10.322 E-19.59926
G1 X-15.922 Y9.779 E-18.56438
G1 X-16.355 Y9.236 E-17.60246
G1 X-17.975 Y7.606 E-16.66566
G1 X-18.819 Y6.519 E-15.71058
G1 X-19.33 Y5.433 E-15.20378
G1 X-19.581 Y4.346 E-14.65768
G1 X-19.613 Y3.26 E-14.05818
G1 X-19.4 Y2.173 E-12.07666
G1 X-19.175 Y1.63 E-10.89020
G1 X-18.849 Y1.087 E-9.85454
G1 X-18.416 Y.543 E-8.89346
G1 X-16.796 Y-1.087 E-7.95582
G1 X-15.951 Y-2.173 E-7.00174
G1 X-15.44 Y-3.26 E-6.49382
G1 X-15.189 Y-4.346 E-5.94772
G1 X-15.158 Y-5.433 E-5.34888
G1 X-15.37 Y-6.519 E-3.36736
G1 X-15.596 Y-7.063 E-2.18074
G1 X-15.922 Y-7.606 E-1.14586
G1 X-16.355 Y-8.149 E-0.18394
G1 X-17.975 Y-9.779 E0.75286
G1 X-18.819 Y-10.866 E1.70794
G1 X-19.33 Y-11.952 E2.21474
G1 X-19.581 Y-13.039 E2.76158
G1 X-19.613 Y-14.125 E3.36042
G1 X-19.4 Y-15.212 E5.34194
G1 X-19.175 Y-15.755 E6.40416
G1 X-18.849 Y-16.299 E18.44280
G1 X-18.416 Y-16.842 E19.03824
G1 X-16.796 Y-18.472 E19.85739
G1 X-16.034 Y-19.44 E20.75664
G1 X-6.726 Y-19.44 E23.72802
G1 X-6.903 Y-19.015 E25.50795
G1 X-7.229 Y-18.472 E27.06198
G1 X-7.662 Y-17.928 E28.50330
G1 X-9.282 Y-16.299 E29.90979
G1 X-10.126 Y-15.212 E31.34091
G1 X-10.638 Y-14.125 E32.10279
G1 X-10.888 Y-13.039 E32.92194
G1 X-10.92 Y-11.952 E33.82020
G1 X-10.708 Y-10.866 E36.79248
G1 X-10.482 Y-10.322 E38.57241
G1 X-10.156 Y-9.779 E40.12527
G1 X-9.723 Y-9.236 E41.56785
G1 X-8.103 Y-7.606 E42.97305
G1 X-7.259 Y-6.519 E44.40543
G1 X-6.747 Y-5.433 E45.16614
G1 X-6.497 Y-4.346 E45.98529
G1 X-6.465 Y-3.26 E46.88454
G1 X-6.677 Y-2.173 E49.85682
G1 X-6.903 Y-1.63 E51.63573
G1 X-7.229 Y-1.087 E53.18976
G1 X-7.662 Y-.543 E54.63108
G1 X-9.282 Y1.087 E56.03757
G1 X-10.126 Y2.173 E57.46869
G1 X-10.638 Y3.26 E58.23057
G1 X-10.888 Y4.346 E59.04972
G1 X-10.92 Y5.433 E59.94798
G1 X-10.708 Y6.519 E62.92026
G1 X-10.482 Y7.063 E64.70019
G1 X-10.156 Y7.606 E66.25305
G1 X-9.723 Y8.149 E67.69563
G1 X-8.103 Y9.779 E69.10083
G1 X-7.259 Y10.866 E70.53321
G1 X-6.747 Y11.952 E71.29392
G1 X-6.497 Y13.039 E72.11418
G1 X-6.465 Y14.125 E73.01244
G1 X-6.677 Y15.212 E75.98472
G1 X-6.903 Y15.755 E77.57805
G1 X-7.229 Y16.299 E88.02585
G1 X-7.662 Y16.842 E88.62081
G1 X-9.282 Y18.472 E89.43996
G1 X-10.044 Y19.44 E90.33921
G1 X-1.966 Y19.44 E93.31059
G1 X-1.79 Y19.015 E94.23702
G1 X-1.464 Y18.472 E95.09346
G1 X-1.031 Y17.928 E96.64695
G1 X.589 Y16.299 E98.08857
G1 X1.055 Y15.755 E99.49503
G1 X1.434 Y15.212 E100.92615
G1 X1.945 Y14.125 E101.68755
G1 X2.196 Y13.039 E102.50670
G1 X2.227 Y11.952 E103.40496
G1 X2.015 Y10.866 E106.37724
G1 X1.79 Y10.322 E108.15795
G1 X1.464 Y9.779 E109.71027
G1 X1.031 Y9.236 E111.15315
G1 X-.589 Y7.606 E112.55832
G1 X-1.434 Y6.519 E113.99070
G1 X-1.945 Y5.433 E114.75090
G1 X-2.196 Y4.346 E115.57005
G1 X-2.227 Y3.26 E116.46930
G1 X-2.015 Y2.173 E119.44158
G1 X-1.79 Y1.63 E121.22127
G1 X-1.464 Y1.087 E122.77476
G1 X-1.031 Y.543 E124.21638
G1 X.589 Y-1.087 E125.62284
G1 X1.434 Y-2.173 E127.05396
G1 X1.945 Y-3.26 E127.81536
G1 X2.196 Y-4.346 E128.63451
G1 X2.227 Y-5.433 E129.53277
G1 X2.015 Y-6.519 E132.50505
G1 X1.79 Y-7.063 E134.28576
G1 X1.464 Y-7.606 E135.83808
G1 X1.031 Y-8.149 E137.28096
G1 X-.589 Y-9.779 E138.68613
G1 X-1.434 Y-10.866 E140.11851
G1 X-1.945 Y-11.952 E140.87871
G1 X-2.196 Y-13.039 E141.69897
G1 X-2.227 Y-14.125 E142.59723
G1 X-2.015 Y-15.212 E145.56951
G1 X-1.79 Y-15.755 E147.16284
G1 X-1.464 Y-16.299 E159.20148
G1 X-1.031 Y-16.842 E159.79692
G1 X.589 Y-18.472 E160.61607
G1 X1.351 Y-19.44 E161.51532
G1 X10.659 Y-19.44 E164.48670
G1 X10.482 Y-19.015 E166.26663
G1 X10.156 Y-18.472 E167.82066
G1 X9.723 Y-17.928 E169.26198
G1 X8.103 Y-16.299 E170.66847
G1 X7.259 Y-15.212 E172.09959
G1 X6.747 Y-14.125 E172.86147
G1 X6.497 Y-13.039 E173.68062
G1 X6.465 Y-11.952 E174.57888
G1 X6.677 Y-10.866 E177.55116
G1 X6.903 Y-10.322 E179.33109
G1 X7.229 Y-9.779 E180.88395
G1 X7.662 Y-9.236 E182.32653
G1 X9.282 Y-7.606 E183.73173
G1 X10.126 Y-6.519 E185.16411
G1 X10.638 Y-5.433 E185.92482
G1 X10.888 Y-4.346 E186.74397
G1 X10.92 Y-3.26 E187.64322
G1 X10.708 Y-2.173 E190.61550
G1 X10.482 Y-1.63 E192.39441
G1 X10.156 Y-1.087 E193.94844
G1 X9.723 Y-.543 E195.38976
G1 X8.103 Y1.087 E196.79625
G1 X7.259 Y2.173 E198.22737
G1 X6.747 Y3.26 E198.98925
G1 X6.497 Y4.346 E199.80840
G1 X6.465 Y5.433 E200.70666
G1 X6.677 Y6.519 E203.67894
G1 X6.903 Y7.063 E205.45887
G1 X7.229 Y7.606 E207.01173
G1 X7.662 Y8.149 E208.45431
G1 X9.282 Y9.779 E209.85951
G1 X10.126 Y10.866 E211.29189
G1 X10.638 Y11.952 E212.05260
G1 X10.888 Y13.039 E212.87286
G1 X10.92 Y14.125 E213.77112
G1 X10.708 Y15.212 E216.74340
G1 X10.482 Y15.755 E218.33673
G1 X10.156 Y16.299 E228.78453
G1 X9.723 Y16.842 E229.37997
G1 X8.103 Y18.472 E230.19912
G1 X7.341 Y19.44 E231.09837
G1 X15.419 Y19.44 E234.06975
G1 X15.596 Y19.015 E234.99618
G1 X15.922 Y18.472 E235.85190
G1 X16.355 Y17.928 E237.40539
G1 X17.975 Y16.299 E238.84701
G1 X18.441 Y15.755 E240.25350
G1 X18.819 Y15.212 E241.68486
G1 X19.33 Y14.125 E242.44626
G1 X19.581 Y13.039 E243.26541
G1 X19.613 Y11.952 E244.16367
G1 X19.4 Y10.866 E247.13595
G1 X19.175 Y10.322 E248.91588
G1 X18.849 Y9.779 E250.46874
G1 X18.416 Y9.236 E251.91162
G1 X16.796 Y7.606 E253.31679
G1 X15.952 Y6.519 E254.74917
G1 X15.44 Y5.433 E255.50988
G1 X15.189 Y4.346 E256.32903
G1 X15.158 Y3.26 E257.22828
G1 X15.37 Y2.173 E260.20056
G1 X15.596 Y1.63 E261.97947
G1 X15.922 Y1.087 E263.53296
G1 X16.355 Y.543 E264.97458
G1 X17.975 Y-1.087 E266.38107
G1 X18.819 Y-2.173 E267.81243
G1 X19.33 Y-3.26 E268.57383
G1 X19.581 Y-4.346 E269.39298
G1 X19.613 Y-5.433 E270.29124
G1 X19.4 Y-6.519 E273.26352
G1 X19.175 Y-7.063 E275.04345
G1 X18.849 Y-7.606 E276.59631
G1 X18.416 Y-8.149 E278.03919
G1 X16.796 Y-9.779 E279.44436
G1 X15.952 Y-10.866 E280.87674
G1 X15.44 Y-11.952 E281.63745
G1 X15.189 Y-13.039 E282.45771
G1 X15.158 Y-14.125 E283.35597
G1 X15.37 Y-15.212 E286.32825
G1 X15.596 Y-15.755 E287.92080
G1 X15.922 Y-16.299 E299.95944
G1 X16.355 Y-16.842 E300.55488
G1 X17.975 Y-18.472 E301.37403
G1 X18.736 Y-19.44 E302.27328
G1 X28.044 Y-19.44 E305.24466
G1 X27.867 Y-19.015 E307.02459
G1 X27.541 Y-18.472 E308.57862
G1 X27.108 Y-17.928 E310.01994
G1 X25.488 Y-16.299 E311.42643
G1 X24.644 Y-15.212 E312.85779
G1 X24.132 Y-14.125 E313.61919
G1 X23.882 Y-13.039 E314.43834
G1 X23.85 Y-11.952 E315.33660
G1 X24.063 Y-10.866 E318.30888
G1 X24.288 Y-10.322 E320.08881
G1 X24.614 Y-9.779 E321.64167
G1 X25.047 Y-9.236 E323.08455
G1 X26.667 Y-7.606 E324.48972
G1 X27.511 Y-6.519 E325.92210
G1 X28.023 Y-5.433 E326.68281
G1 X28.274 Y-4.346 E327.50196
G1 X28.305 Y-3.26 E328.40121
G1 X28.093 Y-2.173 E331.37349
G1 X27.867 Y-1.63 E333.15240
G1 X27.541 Y-1.087 E334.70643
G1 X27.108 Y-.543 E336.14775
G1 X25.488 Y1.087 E337.55424
G1 X24.644 Y2.173 E338.98560
G1 X24.132 Y3.26 E339.74700
G1 X23.882 Y4.346 E340.56615
G1 X23.85 Y5.433 E341.46441
G1 X24.063 Y6.519 E344.43669
G1 X24.288 Y7.063 E346.21662
G1 X24.614 Y7.606 E347.76948
G1 X25.047 Y8.149 E349.21236
G1 X26.667 Y9.779 E350.61753
G1 X27.511 Y10.866 E352.04991
G1 X28.023 Y11.952 E352.81062
G1 X28.274 Y13.039 E353.63088
G1 X28.305 Y14.125 E354.52914
G1 X28.093 Y15.212 E357.50142
G1 X27.867 Y15.755 E359.09475
G1 X27.541 Y16.299 E369.54255
G1 X27.108 Y16.842 E370.13799
G1 X25.488 Y18.472 E370.95714
G1 X24.726 Y19.44 E371.85639
G1 X32.804 Y19.44 E372.84685
G1 X32.981 Y19.015 E373.15566
G1 X33.307 Y18.472 E373.44090
G1 X33.74 Y17.928 E373.95891
G1 X35.36 Y16.299 E374.43935
G1 X35.826 Y15.755 E374.90818
G1 X36.204 Y15.212 E375.38522
G1 X36.716 Y14.125 E375.63918
G1 X36.966 Y13.039 E375.91223
G1 X36.998 Y11.952 E376.21165
G1 X36.786 Y10.866 E377.20241
G1 X36.56 Y10.322 E378.98234
G1 X36.234 Y9.779 E380.53520
G1 X35.801 Y9.236 E381.97778
G1 X34.181 Y7.606 E383.38298
G1 X33.337 Y6.519 E384.81536
G1 X32.825 Y5.433 E385.57607
G1 X32.575 Y4.346 E386.39522
G1 X32.543 Y3.26 E387.29447
G1 X32.755 Y2.173 E388.28523
G1 X32.981 Y1.63 E388.87820
G1 X33.307 Y1.087 E389.39621
G1 X33.74 Y.543 E389.87665
G1 X35.36 Y-1.087 E390.34548
G1 X36.204 Y-2.173 E390.82252
G1 X36.716 Y-3.26 E391.07648
G1 X36.966 Y-4.346 E391.34953
G1 X36.998 Y-5.433 E391.64895
G1 X36.786 Y-6.519 E392.63971
G1 X36.56 Y-7.063 E394.41964
G1 X36.234 Y-7.606 E395.97250
G1 X35.801 Y-8.149 E397.41508
G1 X34.181 Y-9.779 E398.82028
G1 X33.337 Y-10.866 E400.25266
G1 X32.825 Y-11.952 E401.01337
G1 X32.575 Y-13.039 E401.83363
G1 X32.543 Y-14.125 E402.73189
G1 X32.755 Y-15.212 E403.72265
G1 X32.981 Y-15.755 E404.25376
G1 X33.307 Y-16.299 E408.26621
G1 X33.74 Y-16.842 E408.46453
G1 X35.36 Y-18.472 E408.73758
G1 X36.122 Y-19.44 E409.03733
G1 X45.429 Y-19.44 E410.02809
G1 X45.253 Y-19.015 E410.62140
G1 X44.927 Y-18.472 E411.13923
G1 X44.494 Y-17.928 E411.61977
G1 X42.873 Y-16.299 E412.08859
G1 X42.029 Y-15.212 E412.56563
G1 X41.518 Y-14.125 E412.81943
G1 X41.267 Y-13.039 E413.09248
G1 X41.236 Y-11.952 E413.39190
G1 X41.448 Y-10.866 E414.38266
G1 X41.673 Y-10.322 E414.97623
G1 X41.999 Y-9.779 E415.49367
G1 X42.432 Y-9.236 E415.97463
G1 X44.052 Y-7.606 E416.44302
G1 X44.897 Y-6.519 E416.92048
G1 X45.408 Y-5.433 E417.17388
G1 X45.659 Y-4.346 E417.44693
G1 X45.69 Y-3.26 E417.74668
G1 X45.478 Y-2.173 E418.73775
G1 X45.253 Y-1.63 E419.33072
G1 X44.927 Y-1.087 E419.84855
G1 X44.494 Y-.543 E420.32909
G1 X42.873 Y1.087 E420.79791
G1 X42.029 Y2.173 E421.27495
G1 X41.518 Y3.26 E421.52875
G1 X41.267 Y4.346 E421.80180
G1 X41.236 Y5.433 E422.10122
G1 X41.448 Y6.519 E423.09198
G1 X41.673 Y7.063 E423.68555
G1 X41.999 Y7.606 E424.20299
G1 X42.432 Y8.149 E424.68395
G1 X44.052 Y9.779 E425.15234
G1 X44.897 Y10.866 E425.62980
G1 X45.408 Y11.952 E425.88320
G1 X45.659 Y13.039 E426.15662
G1 X45.69 Y14.125 E426.45604
G1 X45.478 Y15.212 E427.44711
G1 X45.253 Y15.755 E427.97796
G1 X44.927 Y16.299 E431.46013
G1 X44.494 Y16.842 E431.65861
G1 X42.873 Y18.472 E431.93166
G1 X42.112 Y19.44 E432.23141
G1 X50.189 Y19.44 E433.22187
G1 X50.366 Y19.015 E433.53068
G1 X50.692 Y18.472 E434.08104
G1 X51.125 Y17.928 E434.33386
G1 X52.745 Y16.299 E434.81430
G1 X53.211 Y15.755 E435.28313
G1 X53.882 Y14.669 E435.76017
G1 X54.101 Y14.125 E436.01413
G1 X54.351 Y13.039 E436.28718
G1 X54.383 Y11.952 E436.58660
G1 X54.171 Y10.866 E437.57736
G1 X53.945 Y10.322 E438.17067
G1 X53.619 Y9.779 E438.68829
G1 X53.186 Y9.236 E439.16915
G1 X51.566 Y7.606 E439.63755
G1 X50.722 Y6.519 E440.11501
