; generated by PrusaSlicer 2.9.0 on 2025-02-10 at 15:40:57 UTC

; 

; external perimeters extrusion width = 1.12mm
; perimeters extrusion width = 1.12mm
; infill extrusion width = 1.12mm
; solid infill extrusion width = 1.12mm
; top infill extrusion width = 1.00mm
; first layer extrusion width = 1.05mm

M190 S25 ; set bed temperature and wait for it to be reached
;TYPE:Custom
G28 H ; home all axes
G92 E0 ; zero extruder
M6
M220 S100
M221 S100
M104 S200 T0
M104 S160 T1

M109 S200 T0
M109 S160 T1
G21 ; set units to millimeters
G90 ; use absolute coordinates
M82 ; use absolute distances for extrusion
G92 E0
M107
;LAYER_CHANGE
;Z:0.5
;HEIGHT:0.5
G1 E27.86729 F2400
G92 E0
G1 Z.5 F7800
G1 X0 Y-25.471
G1 E28.76531 F2400
;TYPE:Skirt/Brim
;WIDTH:1.05
G1 F1500
G1 X60 Y-25.471 E29.66313
G1 X62.045 Y-25.075 E30.56104
G1 X63.793 Y-23.943 E31.54859
G1 X64.992 Y-22.24 E48.79345
G1 X65.471 Y-20 E49.69147
G1 X65.471 Y20 E50.58929
G1 X65.075 Y22.045 E51.48720
G1 X63.943 Y23.793 E52.47475
G1 X62.24 Y24.992 E104.20934
G1 X60 Y25.471 E105.10736
G1 X-60 Y25.471 E106.00518
G1 X-62.045 Y25.075 E106.90309
G1 X-63.793 Y23.943 E107.89064
G1 X-64.992 Y22.24 E125.13550
G1 X-65.471 Y20 E126.03352
G1 X-65.471 Y-20 E126.93134
G1 X-65.075 Y-22.045 E127.82925
G1 X-63.943 Y-23.793 E128.81680
G1 X-62.24 Y-24.992 E154.61943
G1 X-60 Y-25.471 E9.23898
G1 X-.15 Y-25.471 E9.63562
G1 E10.18172 F2400
G92 E0
G1 X-.15 Y-25.471 F7800
G92 E0
G1 X-47.573 Y-19.44
G1 E10.78122 F2400
;TYPE:Internal infill
G1 F1500
G1 X-41.497 Y-19.44 E12.76214
G1 X-41.673 Y-19.015 E13.94928
G1 X-41.999 Y-18.472 E14.98494
G1 X-42.432 Y-17.928 E15.94602
G1 X-44.052 Y-16.299 E16.88366
G1 X-44.897 Y-15.212 E17.83774
G1 X-45.408 Y-14.125 E18.34534
G1 X-45.659 Y-13.039 E18.89144
G1 X-45.69 Y-11.952 E19.49028
G1 X-45.478 Y-10.866 E21.47242
G1 X-45.253 Y-10.322 E22.65904
G1 X-44.927 Y-9.779 E23.69392
G1 X-44.494 Y-9.236 E24.65584
G1 X-42.873 Y-7.606 E25.59264
G1 X-42.029 Y-6.519 E26.54772
G1 X-41.518 Y-5.433 E27.05452
G1 X-41.267 Y-4.346 E27.60062
G1 X-41.235 Y-3.26 E28.20012
G1 X-41.448 Y-2.173 E30.18164
G1 X-41.673 Y-1.63 E31.36810
G1 X-41.999 Y-1.087 E32.40376
G1 X-42.432 Y-.543 E33.36484
G1 X-44.052 Y1.087 E34.30248
G1 X-44.897 Y2.173 E35.25656
G1 X-45.408 Y3.26 E35.76416
G1 X-45.659 Y4.346 E36.31026
G1 X-45.69 Y5.433 E36.90910
G1 X-45.478 Y6.519 E38.89124
G1 X-45.253 Y7.063 E40.07786
G1 X-44.927 Y7.606 E41.11274
G1 X-44.494 Y8.149 E42.07466
G1 X-42.873 Y9.779 E43.01146
G1 X-42.029 Y10.866 E43.96654
G1 X-41.518 Y11.952 E44.47334
G1 X-41.267 Y13.039 E45.02018
G1 X-41.235 Y14.125 E45.61902
G1 X-41.448 Y15.212 E47.60054
G1 X-41.673 Y15.755 E48.66276
G1 X-41.999 Y16.299 E55.62796
G1 X-42.432 Y16.842 E56.02460
G1 X-44.052 Y18.472 E56.57070
G1 X-44.814 Y19.44 E57.17020
G1 X-36.736 Y19.44 E59.15112
G1 X-36.56 Y19.015 E59.76874
G1 X-36.234 Y18.472 E60.33922
G1 X-35.801 Y17.928 E61.37524
G1 X-34.181 Y16.299 E62.33632
G1 X-33.715 Y15.755 E63.27396
G1 X-33.337 Y15.212 E64.22804
G1 X-32.825 Y14.125 E64.73596
G1 X-32.574 Y13.039 E65.28206
G1 X-32.543 Y11.952 E65.88090
G1 X-32.755 Y10.866 E67.86242
G1 X-32.981 Y10.322 E69.04904
G1 X-33.307 Y9.779 E70.08428
G1 X-33.74 Y9.236 E71.04600
G1 X-35.36 Y7.606 E71.98280
G1 X-36.204 Y6.519 E72.93772
G1 X-36.716 Y5.433 E73.44486
G1 X-36.966 Y4.346 E73.99096
G1 X-36.998 Y3.26 E74.59046
G1 X-36.786 Y2.173 E76.57198
G1 X-36.56 Y1.63 E77.75792
G1 X-36.234 Y1.087 E78.79394
G1 X-35.801 Y.543 E79.75502
G1 X-34.181 Y-1.087 E80.69266
G1 X-33.337 Y-2.173 E81.64674
G1 X-32.825 Y-3.26 E82.15466
G1 X-32.574 Y-4.346 E82.70076
G1 X-32.543 Y-5.433 E83.29960
G1 X-32.755 Y-6.519 E85.28112
G1 X-32.981 Y-7.063 E86.46774
G1 X-33.307 Y-7.606 E87.50298
G1 X-33.74 Y-8.149 E88.46470
G1 X-35.36 Y-9.779 E89.40150
G1 X-36.204 Y-10.866 E90.35642
G1 X-36.716 Y-11.952 E90.86356
G1 X-36.966 Y-13.039 E91.41040
G1 X-36.998 Y-14.125 E92.00924
G1 X-36.786 Y-15.212 E93.99076
G1 X-36.56 Y-15.755 E95.05298
G1 X-36.234 Y-16.299 E103.07788
G1 X-35.801 Y-16.842 E103.47452
G1 X-34.181 Y-18.472 E104.02062
G1 X-33.419 Y-19.44 E104.62012
G1 X-24.112 Y-19.44 E106.60104
G1 X-24.288 Y-19.015 E107.78766
G1 X-24.614 Y-18.472 E108.82368
G1 X-25.047 Y-17.928 E109.78476
G1 X-26.667 Y-16.299 E110.72240
G1 X-27.511 Y-15.212 E111.67648
G1 X-28.023 Y-14.125 E112.18440
G1 X-28.274 Y-13.039 E112.73050
G1 X-28.305 Y-11.952 E113.32934
G1 X-28.093 Y-10.866 E115.31086
G1 X-27.867 Y-10.322 E116.49748
G1 X-27.541 Y-9.779 E117.53272
G1 X-27.108 Y-9.236 E118.49444
G1 X-25.488 Y-7.606 E119.43124
G1 X-24.644 Y-6.519 E120.38632
G1 X-24.132 Y-5.433 E120.89312
G1 X-23.882 Y-4.346 E121.43922
G1 X-23.85 Y-3.26 E122.03872
G1 X-24.063 Y-2.173 E124.02024
G1 X-24.288 Y-1.63 E125.20618
G1 X-24.614 Y-1.087 E126.24220
G1 X-25.047 Y-.543 E127.20328
G1 X-26.667 Y1.087 E128.14092
G1 X-27.511 Y2.173 E129.09500
G1 X-28.023 Y3.26 E129.60292
G1 X-28.274 Y4.346 E130.14902
G1 X-28.305 Y5.433 E130.74786
G1 X-28.093 Y6.519 E132.72938
G1 X-27.867 Y7.063 E133.91600
G1 X-27.541 Y7.606 E134.95124
G1 X-27.108 Y8.149 E135.91296
G1 X-25.488 Y9.779 E136.84976
G1 X-24.644 Y10.866 E137.80484
G1 X-24.132 Y11.952 E138.31164
G1 X-23.882 Y13.039 E138.85848
G1 X-23.85 Y14.125 E139.45732
G1 X-24.063 Y15.212 E141.43884
G1 X-24.288 Y15.755 E142.50106
G1 X-24.614 Y16.299 E149.46626
G1 X-25.047 Y16.842 E149.86290
G1 X-26.667 Y18.472 E150.40900
G1 X-27.429 Y19.44 E151.00850
G1 X-19.351 Y19.44 E152.98942
G1 X-19.175 Y19.015 E153.60704
G1 X-18.849 Y18.472 E154.17800
G1 X-18.416 Y17.928 E155.21366
G1 X-16.796 Y16.299 E156.17474
G1 X-16.33 Y15.755 E157.11238
G1 X-15.951 Y15.212 E158.06646
G1 X-15.44 Y14.125 E158.57438
G1 X-15.189 Y13.039 E159.12048
G1 X-15.158 Y11.952 E159.71932
G1 X-15.37 Y10.866 E161.70084
G1 X-15.596 Y10.322 E162.88746
G1 X-15.922 Y9.779 E163.92234
G1 X-16.355 Y9.236 E164.88426
G1 X-17.975 Y7.606 E165.82106
G1 X-18.819 Y6.519 E166.77614
G1 X-19.33 Y5.433 E167.28294
G1 X-19.581 Y4.346 E167.82904
G1 X-19.613 Y3.26 E168.42854
G1 X-19.4 Y2.173 E170.41006
G1 X-19.175 Y1.63 E171.59652
G1 X-18.849 Y1.087 E172.63218
G1 X-18.416 Y.543 E173.59326
G1 X-16.796 Y-1.087 E174.53090
G1 X-15.951 Y-2.173 E175.48498
G1 X-15.44 Y-3.26 E175.99290
G1 X-15.189 Y-4.346 E176.53900
G1 X-15.158 Y-5.433 E177.13784
G1 X-15.37 Y-6.519 E179.11936
G1 X-15.596 Y-7.063 E180.30598
G1 X-15.922 Y-7.606 E181.34086
G1 X-16.355 Y-8.149 E182.30278
G1 X-17.975 Y-9.779 E183.23958
G1 X-18.819 Y-10.866 E184.19466
G1 X-19.33 Y-11.952 E184.70146
G1 X-19.581 Y-13.039 E185.24830
G1 X-19.613 Y-14.125 E185.84714
G1 X-19.4 Y-15.212 E187.82866
G1 X-19.175 Y-15.755 E188.89088
G1 X-18.849 Y-16.299 E196.91664
G1 X-18.416 Y-16.842 E197.31360
G1 X-16.796 Y-18.472 E197.85970
G1 X-16.034 Y-19.44 E198.45920
G1 X-6.726 Y-19.44 E200.44012
G1 X-6.903 Y-19.015 E201.62674
G1 X-7.229 Y-18.472 E202.66276
G1 X-7.662 Y-17.928 E203.62364
G1 X-9.282 Y-16.299 E204.56130
G1 X-10.126 Y-15.212 E205.51538
G1 X-10.638 Y-14.125 E206.02330
G1 X-10.888 Y-13.039 E206.56940
G1 X-10.92 Y-11.952 E207.16824
G1 X-10.708 Y-10.866 E209.14976
G1 X-10.482 Y-10.322 E210.33638
G1 X-10.156 Y-9.779 E211.37162
G1 X-9.723 Y-9.236 E212.33334
G1 X-8.103 Y-7.606 E213.27014
G1 X-7.259 Y-6.519 E214.22506
G1 X-6.747 Y-5.433 E214.73220
G1 X-6.497 Y-4.346 E215.27830
G1 X-6.465 Y-3.26 E215.87780
G1 X-6.677 Y-2.173 E217.85932
G1 X-6.903 Y-1.63 E219.04526
G1 X-7.229 Y-1.087 E220.08128
G1 X-7.662 Y-.543 E221.04216
G1 X-9.282 Y1.087 E221.97982
G1 X-10.126 Y2.173 E222.93390
G1 X-10.638 Y3.26 E223.44182
G1 X-10.888 Y4.346 E223.98792
G1 X-10.92 Y5.433 E224.58676
G1 X-10.708 Y6.519 E226.56828
G1 X-10.482 Y7.063 E227.75490
G1 X-10.156 Y7.606 E228.79014
G1 X-9.723 Y8.149 E229.75186
G1 X-8.103 Y9.779 E230.68866
G1 X-7.259 Y10.866 E231.64358
G1 X-6.747 Y11.952 E232.15072
G1 X-6.497 Y13.039 E232.69756
G1 X-6.465 Y14.125 E233.29640
G1 X-6.677 Y15.212 E235.27792
G1 X-6.903 Y15.755 E236.34014
G1 X-7.229 Y16.299 E121.65267
G1 X-7.662 Y16.842 E121.85099
G1 X-9.282 Y18.472 E122.12404
G1 X-10.044 Y19.44 E122.42379
G1 X-1.966 Y19.44 E123.41425
G1 X-1.79 Y19.015 E123.72306
G1 X-1.464 Y18.472 E124.00854
G1 X-1.031 Y17.928 E124.52637
G1 X.589 Y16.299 E125.00691
G1 X1.055 Y15.755 E125.47573
G1 X1.434 Y15.212 E125.95277
G1 X1.945 Y14.125 E126.20657
G1 X2.196 Y13.039 E126.47962
G1 X2.227 Y11.952 E126.77904
G1 X2.015 Y10.866 E127.76980
G1 X1.79 Y10.322 E128.36337
G1 X1.464 Y9.779 E128.88081
G1 X1.031 Y9.236 E129.36177
G1 X-.589 Y7.606 E129.83016
G1 X-1.434 Y6.519 E130.30762
G1 X-1.945 Y5.433 E130.56102
G1 X-2.196 Y4.346 E130.83407
G1 X-2.227 Y3.26 E131.13382
G1 X-2.015 Y2.173 E132.12458
G1 X-1.79 Y1.63 E132.71781
G1 X-1.464 Y1.087 E133.23564
G1 X-1.031 Y.543 E133.71618
G1 X.589 Y-1.087 E134.18500
G1 X1.434 Y-2.173 E134.66204
G1 X1.945 Y-3.26 E134.91584
G1 X2.196 Y-4.346 E135.18889
G1 X2.227 Y-5.433 E135.48831
G1 X2.015 Y-6.519 E136.47907
G1 X1.79 Y-7.063 E137.07264
G1 X1.464 Y-7.606 E137.59008
G1 X1.031 Y-8.149 E138.07104
G1 X-.589 Y-9.779 E138.53943
G1 X-1.434 Y-10.866 E139.01689
G1 X-1.945 Y-11.952 E139.27029
G1 X-2.196 Y-13.039 E139.54371
G1 X-2.227 Y-14.125 E139.84313
G1 X-2.015 Y-15.212 E140.83389
G1 X-1.79 Y-15.755 E141.36500
G1 X-1.464 Y-16.299 E145.37788
G1 X-1.031 Y-16.842 E145.57636
G1 X.589 Y-18.472 E145.84941
G1 X1.351 Y-19.44 E146.14916
G1 X10.659 Y-19.44 E147.13962
G1 X10.482 Y-19.015 E147.73293
G1 X10.156 Y-18.472 E148.25094
G1 X9.723 Y-17.928 E148.73138
G1 X8.103 Y-16.299 E149.20021
G1 X7.259 Y-15.212 E149.67725
G1 X6.747 Y-14.125 E149.93121
G1 X6.497 Y-13.039 E150.20426
G1 X6.465 Y-11.952 E150.50368
G1 X6.677 Y-10.866 E151.49444
G1 X6.903 Y-10.322 E152.08775
G1 X7.229 Y-9.779 E152.60537
G1 X7.662 Y-9.236 E153.08623
G1 X9.282 Y-7.606 E153.55463
G1 X10.126 Y-6.519 E154.03209
G1 X10.638 Y-5.433 E154.28566
G1 X10.888 Y-4.346 E154.55871
G1 X10.92 Y-3.26 E154.85846
G1 X10.708 Y-2.173 E155.84922
G1 X10.482 Y-1.63 E156.44219
G1 X10.156 Y-1.087 E156.96020
G1 X9.723 Y-.543 E157.44064
G1 X8.103 Y1.087 E157.90947
G1 X7.259 Y2.173 E158.38651
G1 X6.747 Y3.26 E158.64047
G1 X6.497 Y4.346 E158.91352
G1 X6.465 Y5.433 E159.21294
G1 X6.677 Y6.519 E160.20370
G1 X6.903 Y7.063 E160.79701
G1 X7.229 Y7.606 E161.31463
G1 X7.662 Y8.149 E161.79549
G1 X9.282 Y9.779 E162.26389
G1 X10.126 Y10.866 E162.74135
G1 X10.638 Y11.952 E162.99492
G1 X10.888 Y13.039 E163.26834
G1 X10.92 Y14.125 E163.56776
G1 X10.708 Y15.212 E164.55852
G1 X10.482 Y15.755 E165.08963
G1 X10.156 Y16.299 E168.57223
G1 X9.723 Y16.842 E168.77071
G1 X8.103 Y18.472 E169.04376
G1 X7.341 Y19.44 E169.34351
G1 X15.419 Y19.44 E170.33397
G1 X15.596 Y19.015 E170.64278
G1 X15.922 Y18.472 E170.92802
G1 X16.355 Y17.928 E171.44585
G1 X17.975 Y16.299 E171.92639
G1 X18.441 Y15.755 E172.39522
G1 X18.819 Y15.212 E172.87234
G1 X19.33 Y14.125 E173.12614
G1 X19.581 Y13.039 E173.39919
G1 X19.613 Y11.952 E173.69861
G1 X19.4 Y10.866 E174.68937
G1 X19.175 Y10.322 E175.28268
G1 X18.849 Y9.779 E175.80030
G1 X18.416 Y9.236 E176.28126
G1 X16.796 Y7.606 E176.74965
G1 X15.952 Y6.519 E177.22711
G1 X15.44 Y5.433 E177.48068
G1 X15.189 Y4.346 E177.75373
G1 X15.158 Y3.26 E178.05348
G1 X15.37 Y2.173 E179.04424
G1 X15.596 Y1.63 E179.63721
G1 X15.922 Y1.087 E180.15504
G1 X16.355 Y.543 E180.63558
G1 X17.975 Y-1.087 E181.10441
G1 X18.819 Y-2.173 E181.58153
G1 X19.33 Y-3.26 E181.83533
G1 X19.581 Y-4.346 E182.10838
G1 X19.613 Y-5.433 E182.40780
G1 X19.4 Y-6.519 E183.39856
G1 X19.175 Y-7.063 E183.99187
G1 X18.849 Y-7.606 E184.50949
G1 X18.416 Y-8.149 E184.99045
G1 X16.796 Y-9.779 E185.45884
G1 X15.952 Y-10.866 E185.93630
G1 X15.44 Y-11.952 E186.18987
G1 X15.189 Y-13.039 E186.46329
G1 X15.158 Y-14.125 E186.76271
G1 X15.37 Y-15.212 E187.75347
G1 X15.596 Y-15.755 E188.28432
G1 X15.922 Y-16.299 E192.29720
G1 X16.355 Y-16.842 E192.49568
G1 X17.975 Y-18.472 E192.76873
G1 X18.736 Y-19.44 E193.06848
G1 X28.044 Y-19.44 E194.05894
G1 X27.867 Y-19.015 E194.65225
G1 X27.541 Y-18.472 E195.17026
G1 X27.108 Y-17.928 E195.65070
G1 X25.488 Y-16.299 E196.11953
G1 X24.644 Y-15.212 E196.59665
G1 X24.132 Y-14.125 E196.85045
G1 X23.882 Y-13.039 E197.12350
G1 X23.85 Y-11.952 E197.42292
G1 X24.063 Y-10.866 E198.41368
G1 X24.288 Y-10.322 E199.00699
G1 X24.614 Y-9.779 E199.52461
G1 X25.047 Y-9.236 E200.00557
G1 X26.667 Y-7.606 E200.47396
G1 X27.511 Y-6.519 E200.95142
G1 X28.023 Y-5.433 E201.20499
G1 X28.274 Y-4.346 E201.47804
G1 X28.305 Y-3.26 E201.77779
G1 X28.093 Y-2.173 E202.76855
G1 X27.867 Y-1.63 E203.36152
G1 X27.541 Y-1.087 E203.87953
G1 X27.108 Y-.543 E204.35997
G1 X25.488 Y1.087 E204.82880
G1 X24.644 Y2.173 E205.30592
G1 X24.132 Y3.26 E205.55972
G1 X23.882 Y4.346 E205.83277
G1 X23.85 Y5.433 E206.13219
G1 X24.063 Y6.519 E207.12295
G1 X24.288 Y7.063 E207.71626
G1 X24.614 Y7.606 E208.23388
G1 X25.047 Y8.149 E208.71484
G1 X26.667 Y9.779 E209.18323
G1 X27.511 Y10.866 E209.66069
G1 X28.023 Y11.952 E209.91426
G1 X28.274 Y13.039 E210.18768
G1 X28.305 Y14.125 E210.48710
G1 X28.093 Y15.212 E211.47786
G1 X27.867 Y15.755 E212.00897
G1 X27.541 Y16.299 E215.49157
G1 X27.108 Y16.842 E215.69005
G1 X25.488 Y18.472 E215.96310
G1 X24.726 Y19.44 E216.26285
G1 X32.804 Y19.44 E217.25331
G1 X32.981 Y19.015 E217.56212
G1 X33.307 Y18.472 E217.84736
G1 X33.74 Y17.928 E218.36537
G1 X35.36 Y16.299 E218.84581
G1 X35.826 Y15.755 E219.31464
G1 X36.204 Y15.212 E219.79168
G1 X36.716 Y14.125 E220.04564
G1 X36.966 Y13.039 E220.31869
G1 X36.998 Y11.952 E220.61811
G1 X36.786 Y10.866 E221.60887
G1 X36.56 Y10.322 E222.20218
G1 X36.234 Y9.779 E222.71980
G1 X35.801 Y9.236 E223.20066
G1 X34.181 Y7.606 E223.66906
G1 X33.337 Y6.519 E224.14652
G1 X32.825 Y5.433 E224.40009
G1 X32.575 Y4.346 E224.67314
G1 X32.543 Y3.26 E224.97289
G1 X32.755 Y2.173 E225.96365
G1 X32.981 Y1.63 E226.55662
G1 X33.307 Y1.087 E227.07463
G1 X33.74 Y.543 E227.55507
G1 X35.36 Y-1.087 E228.02390
G1 X36.204 Y-2.173 E228.50094
G1 X36.716 Y-3.26 E228.75490
G1 X36.966 Y-4.346 E229.02795
G1 X36.998 Y-5.433 E229.32737
G1 X36.786 Y-6.519 E230.31813
G1 X36.56 Y-7.063 E230.91144
G1 X36.234 Y-7.606 E231.42906
G1 X35.801 Y-8.149 E231.90992
G1 X34.181 Y-9.779 E232.37832
G1 X33.337 Y-10.866 E232.85578
G1 X32.825 Y-11.952 E233.10935
G1 X32.575 Y-13.039 E233.38277
G1 X32.543 Y-14.125 E233.68219
G1 X32.755 Y-15.212 E234.67295
G1 X32.981 Y-15.755 E235.20406
G1 X33.307 Y-16.299 E239.21651
G1 X33.74 Y-16.842 E239.41483
G1 X35.36 Y-18.472 E239.68788
G1 X36.122 Y-19.44 E239.98763
G1 X45.429 Y-19.44 E240.97839
G1 X45.253 Y-19.015 E241.57170
G1 X44.927 Y-18.472 E242.08953
G1 X44.494 Y-17.928 E242.57007
G1 X42.873 Y-16.299 E243.03889
G1 X42.029 Y-15.212 E243.51593
G1 X41.518 Y-14.125 E243.76973
G1 X41.267 Y-13.039 E244.04278
G1 X41.236 Y-11.952 E244.34220
G1 X41.448 Y-10.866 E245.33296
G1 X41.673 Y-10.322 E245.92653
G1 X41.999 Y-9.779 E246.44397
G1 X42.432 Y-9.236 E246.92493
G1 X44.052 Y-7.606 E247.39332
G1 X44.897 Y-6.519 E247.87078
G1 X45.408 Y-5.433 E248.12418
G1 X45.659 Y-4.346 E248.39723
G1 X45.69 Y-3.26 E248.69698
G1 X45.478 Y-2.173 E249.68805
G1 X45.253 Y-1.63 E250.28102
G1 X44.927 Y-1.087 E250.79885
G1 X44.494 Y-.543 E251.27939
G1 X42.873 Y1.087 E251.74821
G1 X42.029 Y2.173 E252.22525
G1 X41.518 Y3.26 E252.47905
G1 X41.267 Y4.346 E252.75210
G1 X41.236 Y5.433 E253.05152
G1 X41.448 Y6.519 E254.04228
G1 X41.673 Y7.063 E254.63585
G1 X41.999 Y7.606 E255.15329
G1 X42.432 Y8.149 E255.63425
G1 X44.052 Y9.779 E256.10264
G1 X44.897 Y10.866 E256.58010
G1 X45.408 Y11.952 E256.83350
G1 X45.659 Y13.039 E257.10692
G1 X45.69 Y14.125 E257.40634
G1 X45.478 Y15.212 E258.39741
G1 X45.253 Y15.755 E258.92826
G1 X44.927 Y16.299 E262.41043
G1 X44.494 Y16.842 E262.60891
G1 X42.873 Y18.472 E262.88196
G1 X42.112 Y19.44 E263.18171
G1 X50.189 Y19.44 E264.17217
G1 X50.366 Y19.015 E264.48098
G1 X50.692 Y18.472 E265.03134
G1 X51.125 Y17.928 E265.28416
G1 X52.745 Y16.299 E265.76460
G1 X53.211 Y15.755 E266.23343
G1 X53.882 Y14.669 E266.71047
G1 X54.101 Y14.125 E266.96443
G1 X54.351 Y13.039 E267.23748
G1 X54.383 Y11.952 E267.53690
G1 X54.171 Y10.866 E268.52766
G1 X53.945 Y10.322 E269.12097
G1 X53.619 Y9.779 E269.63859
G1 X53.186 Y9.236 E270.11945
G1 X51.566 Y7.606 E270.58785
G1 X50.722 Y6.519 E271.06531
G1 X50.21 Y5.433 E271.31888
G1 X49.96 Y4.346 E271.59193
G1 X49.928 Y3.26 E271.89168
