; generated by PrusaSlicer 2.9.0 on 2025-02-10 at 15:40:57 UTC

; 

; external perimeters extrusion width = 1.12mm
; perimeters extrusion width = 1.12mm
; infill extrusion width = 1.12mm
; solid infill extrusion width = 1.12mm
; top infill extrusion width = 1.00mm
; first layer extrusion width = 1.05mm

M190 S25 ; set bed temperature and wait for it to be reached
;TYPE:Custom
G28 H ; home all axes
G92 E0 ; zero extruder
M6
M220 S100
M221 S100
M104 S200 T0
M104 S160 T1

M109 S200 T0
M109 S160 T1
G21 ; set units to millimeters
G90 ; use absolute coordinates
M82 ; use absolute distances for extrusion
G92 E0
M107
;LAYER_CHANGE
;Z:0.5
;HEIGHT:0.5
G1 E0.00000 F2400
G92 E0
G1 Z.5 F7800
G1 X0 Y-25.471
G1 E0.89802 F2400
;TYPE:Skirt/Brim
;WIDTH:1.05
G1 F1500
G1 X60 Y-25.471 E1.79584
G1 X62.045 Y-25.075 E2.69375
G1 X63.793 Y-23.943 E3.68130
G1 X64.992 Y-22.24 E20.92616
G1 X65.471 Y-20 E21.82418
G1 X65.471 Y20 E22.72200
G1 X65.075 Y22.045 E23.61991
G1 X63.943 Y23.793 E24.60746
G1 X62.24 Y24.992 E76.34205
G1 X60 Y25.471 E77.24007
G1 X-60 Y25.471 E78.13789
G1 X-62.045 Y25.075 E79.03580
G1 X-63.793 Y23.943 E80.02335
G1 X-64.992 Y22.24 E97.26821
G1 X-65.471 Y20 E98.16623
G1 X-65.471 Y-20 E99.06405
G1 X-65.075 Y-22.045 E99.96196
G1 X-63.943 Y-23.793 E100.94951
G1 X-62.24 Y-24.992 E126.75214
G1 X-60 Y-25.471 E-98.24777
G1 X-.15 Y-25.471 E-97.95029
G1 E-97.54071 F2400
G92 E0
G1 X-.15 Y-25.471 F7800
G92 E0
G1 X-47.573 Y-19.44
G1 E-97.09109 F2400
;TYPE:Internal infill
G1 F1500
G1 X-41.497 Y-19.44 E-95.60540
G1 X-41.673 Y-19.015 E-94.71504
G1 X-41.999 Y-18.472 E-93.93830
G1 X-42.432 Y-17.928 E-93.21749
G1 X-44.052 Y-16.299 E-92.51426
G1 X-44.897 Y-15.212 E-91.79870
G1 X-45.408 Y-14.125 E-91.41800
G1 X-45.659 Y-13.039 E-91.00842
G1 X-45.69 Y-11.952 E-90.55929
G1 X-45.478 Y-10.866 E-89.07269
G1 X-45.253 Y-10.322 E-88.18272
G1 X-44.927 Y-9.779 E-87.40656
G1 X-44.494 Y-9.236 E-86.68512
G1 X-42.873 Y-7.606 E-85.98252
G1 X-42.029 Y-6.519 E-85.26621
G1 X-41.518 Y-5.433 E-84.88611
G1 X-41.267 Y-4.346 E-84.47654
G1 X-41.235 Y-3.26 E-84.02691
G1 X-41.448 Y-2.173 E-82.54077
G1 X-41.673 Y-1.63 E-81.65093
G1 X-41.999 Y-1.087 E-80.87418
G1 X-42.432 Y-.543 E-80.15337
G1 X-44.052 Y1.087 E-79.45014
G1 X-44.897 Y2.173 E-78.73458
G1 X-45.408 Y3.26 E-78.35388
G1 X-45.659 Y4.346 E-77.94431
G1 X-45.69 Y5.433 E-77.49518
G1 X-45.478 Y6.519 E-76.00857
G1 X-45.253 Y7.063 E-75.11861
G1 X-44.927 Y7.606 E-74.34245
G1 X-44.494 Y8.149 E-73.62101
G1 X-42.873 Y9.779 E-72.91841
G1 X-42.029 Y10.866 E-72.20210
G1 X-41.518 Y11.952 E-71.82200
G1 X-41.267 Y13.039 E-71.41187
G1 X-41.235 Y14.125 E-70.96274
G1 X-41.448 Y15.212 E-69.47660
G1 X-41.673 Y15.755 E-68.67993
G1 X-41.999 Y16.299 E-63.45603
G1 X-42.432 Y16.842 E-63.15855
G1 X-44.052 Y18.472 E-62.74898
G1 X-44.814 Y19.44 E-62.29935
G1 X-36.736 Y19.44 E-60.81366
G1 X-36.56 Y19.015 E-60.35045
G1 X-36.234 Y18.472 E-59.92259
G1 X-35.801 Y17.928 E-59.14557
G1 X-34.181 Y16.299 E-58.42476
G1 X-33.715 Y15.755 E-57.72153
G1 X-33.337 Y15.212 E-57.00597
G1 X-32.825 Y14.125 E-56.62503
G1 X-32.574 Y13.039 E-56.21546
G1 X-32.543 Y11.952 E-55.76633
G1 X-32.755 Y10.866 E-54.28019
G1 X-32.981 Y10.322 E-53.39022
G1 X-33.307 Y9.779 E-52.61379
G1 X-33.74 Y9.236 E-51.89250
G1 X-35.36 Y7.606 E-51.18990
G1 X-36.204 Y6.519 E-50.47371
G1 X-36.716 Y5.433 E-50.09336
G1 X-36.966 Y4.346 E-49.68378
G1 X-36.998 Y3.26 E-49.23416
G1 X-36.786 Y2.173 E-47.74802
G1 X-36.56 Y1.63 E-46.85856
G1 X-36.234 Y1.087 E-46.08155
G1 X-35.801 Y.543 E-45.36074
G1 X-34.181 Y-1.087 E-44.65751
G1 X-33.337 Y-2.173 E-43.94195
G1 X-32.825 Y-3.26 E-43.56101
G1 X-32.574 Y-4.346 E-43.15143
G1 X-32.543 Y-5.433 E-42.70230
G1 X-32.755 Y-6.519 E-41.21616
G1 X-32.981 Y-7.063 E-40.32620
G1 X-33.307 Y-7.606 E-39.54977
G1 X-33.74 Y-8.149 E-38.82848
G1 X-35.36 Y-9.779 E-38.12588
G1 X-36.204 Y-10.866 E-37.40969
G1 X-36.716 Y-11.952 E-37.02933
G1 X-36.966 Y-13.039 E-36.61920
G1 X-36.998 Y-14.125 E-36.17007
G1 X-36.786 Y-15.212 E-34.68393
G1 X-36.56 Y-15.755 E-33.88727
G1 X-36.234 Y-16.299 E-27.86859
G1 X-35.801 Y-16.842 E-27.57111
G1 X-34.181 Y-18.472 E-27.16154
G1 X-33.419 Y-19.44 E-26.71191
G1 X-24.112 Y-19.44 E-25.22622
G1 X-24.288 Y-19.015 E-24.33626
G1 X-24.614 Y-18.472 E-23.55924
G1 X-25.047 Y-17.928 E-22.83843
G1 X-26.667 Y-16.299 E-22.13520
G1 X-27.511 Y-15.212 E-21.41964
G1 X-28.023 Y-14.125 E-21.03870
G1 X-28.274 Y-13.039 E-20.62913
G1 X-28.305 Y-11.952 E-20.18000
G1 X-28.093 Y-10.866 E-18.69386
G1 X-27.867 Y-10.322 E-17.80389
G1 X-27.541 Y-9.779 E-17.02746
G1 X-27.108 Y-9.236 E-16.30617
G1 X-25.488 Y-7.606 E-15.60357
G1 X-24.644 Y-6.519 E-14.88726
G1 X-24.132 Y-5.433 E-14.50716
G1 X-23.882 Y-4.346 E-14.09759
G1 X-23.85 Y-3.26 E-13.64796
G1 X-24.063 Y-2.173 E-12.16182
G1 X-24.288 Y-1.63 E-11.27237
G1 X-24.614 Y-1.087 E-10.49535
G1 X-25.047 Y-.543 E-9.77454
G1 X-26.667 Y1.087 E-9.07131
G1 X-27.511 Y2.173 E-8.35575
G1 X-28.023 Y3.26 E-7.97481
G1 X-28.274 Y4.346 E-7.56524
G1 X-28.305 Y5.433 E-7.11611
G1 X-28.093 Y6.519 E-5.62997
G1 X-27.867 Y7.063 E-4.74000
G1 X-27.541 Y7.606 E-3.96357
G1 X-27.108 Y8.149 E-3.24228
G1 X-25.488 Y9.779 E-2.53968
G1 X-24.644 Y10.866 E-1.82337
G1 X-24.132 Y11.952 E-1.44327
G1 X-23.882 Y13.039 E-1.03314
G1 X-23.85 Y14.125 E-0.58401
G1 X-24.063 Y15.212 E0.90213
G1 X-24.288 Y15.755 E1.69879
G1 X-24.614 Y16.299 E6.92269
G1 X-25.047 Y16.842 E7.22017
G1 X-26.667 Y18.472 E7.62975
G1 X-27.429 Y19.44 E8.07937
G1 X-19.351 Y19.44 E9.56506
G1 X-19.175 Y19.015 E10.02828
G1 X-18.849 Y18.472 E10.45650
G1 X-18.416 Y17.928 E11.23324
G1 X-16.796 Y16.299 E11.95405
G1 X-16.33 Y15.755 E12.65728
G1 X-15.951 Y15.212 E13.37284
G1 X-15.44 Y14.125 E13.75378
G1 X-15.189 Y13.039 E14.16336
G1 X-15.158 Y11.952 E14.61249
G1 X-15.37 Y10.866 E16.09863
G1 X-15.596 Y10.322 E16.98859
G1 X-15.922 Y9.779 E17.76475
G1 X-16.355 Y9.236 E18.48619
G1 X-17.975 Y7.606 E19.18879
G1 X-18.819 Y6.519 E19.90510
G1 X-19.33 Y5.433 E20.28520
G1 X-19.581 Y4.346 E20.69478
G1 X-19.613 Y3.26 E21.14440
G1 X-19.4 Y2.173 E22.63054
G1 X-19.175 Y1.63 E23.52039
G1 X-18.849 Y1.087 E24.29713
G1 X-18.416 Y.543 E25.01794
G1 X-16.796 Y-1.087 E25.72117
G1 X-15.951 Y-2.173 E26.43673
G1 X-15.44 Y-3.26 E26.81767
G1 X-15.189 Y-4.346 E27.22725
G1 X-15.158 Y-5.433 E27.67638
G1 X-15.37 Y-6.519 E29.16252
G1 X-15.596 Y-7.063 E30.05248
G1 X-15.922 Y-7.606 E30.82864
G1 X-16.355 Y-8.149 E31.55008
G1 X-17.975 Y-9.779 E32.25268
G1 X-18.819 Y-10.866 E32.96899
G1 X-19.33 Y-11.952 E33.34909
G1 X-19.581 Y-13.039 E33.75922
G1 X-19.613 Y-14.125 E34.20835
G1 X-19.4 Y-15.212 E35.69449
G1 X-19.175 Y-15.755 E36.49116
G1 X-18.849 Y-16.299 E44.51692
G1 X-18.416 Y-16.842 E44.91388
G1 X-16.796 Y-18.472 E45.45998
G1 X-16.034 Y-19.44 E46.05948
G1 X-6.726 Y-19.44 E48.04040
G1 X-6.903 Y-19.015 E49.22702
G1 X-7.229 Y-18.472 E50.26304
G1 X-7.662 Y-17.928 E51.22392
G1 X-9.282 Y-16.299 E52.16158
G1 X-10.126 Y-15.212 E53.11566
G1 X-10.638 Y-14.125 E53.62358
G1 X-10.888 Y-13.039 E54.16968
G1 X-10.92 Y-11.952 E54.76852
G1 X-10.708 Y-10.866 E56.75004
G1 X-10.482 Y-10.322 E57.93666
G1 X-10.156 Y-9.779 E58.97190
G1 X-9.723 Y-9.236 E59.93362
G1 X-8.103 Y-7.606 E60.87042
G1 X-7.259 Y-6.519 E61.82534
G1 X-6.747 Y-5.433 E62.33248
G1 X-6.497 Y-4.346 E62.87858
G1 X-6.465 Y-3.26 E63.47808
G1 X-6.677 Y-2.173 E65.45960
G1 X-6.903 Y-1.63 E66.64554
G1 X-7.229 Y-1.087 E67.68156
G1 X-7.662 Y-.543 E68.64244
G1 X-9.282 Y1.087 E69.58010
G1 X-10.126 Y2.173 E70.53418
G1 X-10.638 Y3.26 E71.04210
G1 X-10.888 Y4.346 E71.58820
G1 X-10.92 Y5.433 E72.18704
G1 X-10.708 Y6.519 E74.16856
G1 X-10.482 Y7.063 E75.35518
G1 X-10.156 Y7.606 E76.39042
G1 X-9.723 Y8.149 E77.35214
G1 X-8.103 Y9.779 E78.28894
G1 X-7.259 Y10.866 E79.24386
G1 X-6.747 Y11.952 E79.75100
G1 X-6.497 Y13.039 E80.29784
G1 X-6.465 Y14.125 E80.89668
G1 X-6.677 Y15.212 E82.87820
G1 X-6.903 Y15.755 E83.94042
G1 X-7.229 Y16.299 E90.90562
G1 X-7.662 Y16.842 E91.30226
G1 X-9.282 Y18.472 E91.84836
G1 X-10.044 Y19.44 E92.44786
G1 X-1.966 Y19.44 E94.42878
G1 X-1.79 Y19.015 E95.04640
G1 X-1.464 Y18.472 E95.61736
G1 X-1.031 Y17.928 E96.65302
G1 X.589 Y16.299 E97.61410
G1 X1.055 Y15.755 E98.55174
G1 X1.434 Y15.212 E99.50582
G1 X1.945 Y14.125 E100.01342
G1 X2.196 Y13.039 E100.55952
G1 X2.227 Y11.952 E101.15836
G1 X2.015 Y10.866 E103.13988
G1 X1.79 Y10.322 E104.32702
G1 X1.464 Y9.779 E105.36190
G1 X1.031 Y9.236 E106.32382
G1 X-.589 Y7.606 E107.26060
G1 X-1.434 Y6.519 E108.21552
G1 X-1.945 Y5.433 E108.72232
G1 X-2.196 Y4.346 E109.26842
G1 X-2.227 Y3.26 E109.86792
G1 X-2.015 Y2.173 E111.84944
G1 X-1.79 Y1.63 E113.03590
G1 X-1.464 Y1.087 E114.07156
G1 X-1.031 Y.543 E115.03264
G1 X.589 Y-1.087 E115.97028
G1 X1.434 Y-2.173 E116.92436
G1 X1.945 Y-3.26 E117.43196
G1 X2.196 Y-4.346 E117.97806
G1 X2.227 Y-5.433 E118.57690
G1 X2.015 Y-6.519 E120.55842
G1 X1.79 Y-7.063 E121.74556
G1 X1.464 Y-7.606 E122.78044
G1 X1.031 Y-8.149 E123.74236
G1 X-.589 Y-9.779 E124.67914
G1 X-1.434 Y-10.866 E125.63406
G1 X-1.945 Y-11.952 E126.14086
G1 X-2.196 Y-13.039 E126.68770
G1 X-2.227 Y-14.125 E127.28654
G1 X-2.015 Y-15.212 E129.26806
G1 X-1.79 Y-15.755 E130.33028
G1 X-1.464 Y-16.299 E138.35604
G1 X-1.031 Y-16.842 E138.75300
G1 X.589 Y-18.472 E139.29910
G1 X1.351 Y-19.44 E139.89860
G1 X10.659 Y-19.44 E141.87952
G1 X10.482 Y-19.015 E143.06614
G1 X10.156 Y-18.472 E144.10216
G1 X9.723 Y-17.928 E145.06304
G1 X8.103 Y-16.299 E146.00070
G1 X7.259 Y-15.212 E146.95478
G1 X6.747 Y-14.125 E147.46270
G1 X6.497 Y-13.039 E148.00880
G1 X6.465 Y-11.952 E148.60764
G1 X6.677 Y-10.866 E150.58916
G1 X6.903 Y-10.322 E151.77578
G1 X7.229 Y-9.779 E152.81102
G1 X7.662 Y-9.236 E153.77274
G1 X9.282 Y-7.606 E154.70954
G1 X10.126 Y-6.519 E155.66446
G1 X10.638 Y-5.433 E156.17160
G1 X10.888 Y-4.346 E156.71770
G1 X10.92 Y-3.26 E157.31720
G1 X10.708 Y-2.173 E159.29872
G1 X10.482 Y-1.63 E160.48466
G1 X10.156 Y-1.087 E161.52068
G1 X9.723 Y-.543 E162.48156
G1 X8.103 Y1.087 E163.41922
G1 X7.259 Y2.173 E164.37330
G1 X6.747 Y3.26 E164.88122
G1 X6.497 Y4.346 E165.42732
G1 X6.465 Y5.433 E166.02616
G1 X6.677 Y6.519 E168.00768
G1 X6.903 Y7.063 E169.19430
G1 X7.229 Y7.606 E170.22954
G1 X7.662 Y8.149 E171.19126
G1 X9.282 Y9.779 E172.12806
G1 X10.126 Y10.866 E173.08298
G1 X10.638 Y11.952 E173.59012
G1 X10.888 Y13.039 E174.13696
G1 X10.92 Y14.125 E174.73580
G1 X10.708 Y15.212 E176.71732
G1 X10.482 Y15.755 E177.77954
G1 X10.156 Y16.299 E184.74474
G1 X9.723 Y16.842 E185.14170
G1 X8.103 Y18.472 E185.68780
G1 X7.341 Y19.44 E186.28730
G1 X15.419 Y19.44 E188.26822
G1 X15.596 Y19.015 E188.88584
G1 X15.922 Y18.472 E189.45632
G1 X16.355 Y17.928 E190.49198
G1 X17.975 Y16.299 E191.45306
G1 X18.441 Y15.755 E192.39072
G1 X18.819 Y15.212 E193.34496
G1 X19.33 Y14.125 E193.85256
G1 X19.581 Y13.039 E194.39866
G1 X19.613 Y11.952 E194.99750
G1 X19.4 Y10.866 E196.97902
G1 X19.175 Y10.322 E198.16564
G1 X18.849 Y9.779 E199.20088
G1 X18.416 Y9.236 E200.16280
G1 X16.796 Y7.606 E201.09958
G1 X15.952 Y6.519 E202.05450
G1 X15.44 Y5.433 E202.56164
G1 X15.189 Y4.346 E203.10774
G1 X15.158 Y3.26 E203.70724
G1 X15.37 Y2.173 E205.68876
G1 X15.596 Y1.63 E206.87470
G1 X15.922 Y1.087 E207.91036
G1 X16.355 Y.543 E208.87144
G1 X17.975 Y-1.087 E209.80910
G1 X18.819 Y-2.173 E210.76334
G1 X19.33 Y-3.26 E211.27094
G1 X19.581 Y-4.346 E211.81704
G1 X19.613 Y-5.433 E212.41588
G1 X19.4 Y-6.519 E214.39740
G1 X19.175 Y-7.063 E215.58402
G1 X18.849 Y-7.606 E216.61926
G1 X18.416 Y-8.149 E217.58118
G1 X16.796 Y-9.779 E218.51796
G1 X15.952 Y-10.866 E219.47288
G1 X15.44 Y-11.952 E219.98002
G1 X15.189 Y-13.039 E220.52686
G1 X15.158 Y-14.125 E221.12570
G1 X15.37 Y-15.212 E223.10722
G1 X15.596 Y-15.755 E224.16892
G1 X15.922 Y-16.299 E232.19468
G1 X16.355 Y-16.842 E232.59164
G1 X17.975 Y-18.472 E233.13774
G1 X18.736 Y-19.44 E233.73724
G1 X28.044 Y-19.44 E235.71816
G1 X27.867 Y-19.015 E236.90478
G1 X27.541 Y-18.472 E237.94080
G1 X27.108 Y-17.928 E238.90168
G1 X25.488 Y-16.299 E239.83934
G1 X24.644 Y-15.212 E240.79358
G1 X24.132 Y-14.125 E241.30118
G1 X23.882 Y-13.039 E241.84728
G1 X23.85 Y-11.952 E242.44612
G1 X24.063 Y-10.866 E244.42764
G1 X24.288 Y-10.322 E245.61426
G1 X24.614 Y-9.779 E246.64950
G1 X25.047 Y-9.236 E247.61142
G1 X26.667 Y-7.606 E248.54820
G1 X27.511 Y-6.519 E249.50312
G1 X28.023 Y-5.433 E250.01026
G1 X28.274 Y-4.346 E250.55636
G1 X28.305 Y-3.26 E251.15586
G1 X28.093 Y-2.173 E253.13738
G1 X27.867 Y-1.63 E254.32332
G1 X27.541 Y-1.087 E255.35934
G1 X27.108 Y-.543 E256.32022
G1 X25.488 Y1.087 E257.25788
G1 X24.644 Y2.173 E258.21212
G1 X24.132 Y3.26 E258.71972
G1 X23.882 Y4.346 E259.26582
G1 X23.85 Y5.433 E259.86466
G1 X24.063 Y6.519 E261.84618
G1 X24.288 Y7.063 E263.03280
G1 X24.614 Y7.606 E264.06804
G1 X25.047 Y8.149 E265.02996
G1 X26.667 Y9.779 E265.96674
G1 X27.511 Y10.866 E266.92166
G1 X28.023 Y11.952 E267.42880
G1 X28.274 Y13.039 E267.97564
G1 X28.305 Y14.125 E268.57448
G1 X28.093 Y15.212 E270.55600
G1 X27.867 Y15.755 E271.61822
G1 X27.541 Y16.299 E278.58342
G1 X27.108 Y16.842 E278.98038
G1 X25.488 Y18.472 E279.52648
G1 X24.726 Y19.44 E280.12598
G1 X32.804 Y19.44 E281.11644
G1 X32.981 Y19.015 E281.42525
G1 X33.307 Y18.472 E281.71049
G1 X33.74 Y17.928 E282.22850
G1 X35.36 Y16.299 E282.70894
G1 X35.826 Y15.755 E283.17777
G1 X36.204 Y15.212 E283.65481
G1 X36.716 Y14.125 E283.90877
G1 X36.966 Y13.039 E284.18182
G1 X36.998 Y11.952 E284.48124
G1 X36.786 Y10.866 E286.46276
G1 X36.56 Y10.322 E287.64938
G1 X36.234 Y9.779 E288.68462
G1 X35.801 Y9.236 E289.64634
G1 X34.181 Y7.606 E290.58314
G1 X33.337 Y6.519 E291.53806
G1 X32.825 Y5.433 E292.04520
G1 X32.575 Y4.346 E292.59130
G1 X32.543 Y3.26 E293.19080
G1 X32.755 Y2.173 E294.18156
G1 X32.981 Y1.63 E294.77453
G1 X33.307 Y1.087 E295.29254
G1 X33.74 Y.543 E295.77298
G1 X35.36 Y-1.087 E296.24180
G1 X36.204 Y-2.173 E296.71884
G1 X36.716 Y-3.26 E296.97280
G1 X36.966 Y-4.346 E297.24586
G1 X36.998 Y-5.433 E297.54528
G1 X36.786 Y-6.519 E299.52679
G1 X36.56 Y-7.063 E300.71341
G1 X36.234 Y-7.606 E301.74865
G1 X35.801 Y-8.149 E302.71037
G1 X34.181 Y-9.779 E303.64718
G1 X33.337 Y-10.866 E304.60210
G1 X32.825 Y-11.952 E305.10924
G1 X32.575 Y-13.039 E305.65607
G1 X32.543 Y-14.125 E306.25491
G1 X32.755 Y-15.212 E307.24568
G1 X32.981 Y-15.755 E307.77679
G1 X33.307 Y-16.299 E311.78924
G1 X33.74 Y-16.842 E311.98756
G1 X35.36 Y-18.472 E312.26061
G1 X36.122 Y-19.44 E312.56036
G1 X45.429 Y-19.44 E313.55112
G1 X45.253 Y-19.015 E314.14443
G1 X44.927 Y-18.472 E314.66226
G1 X44.494 Y-17.928 E315.14280
G1 X42.873 Y-16.299 E315.61162
G1 X42.029 Y-15.212 E316.08866
G1 X41.518 Y-14.125 E316.34246
G1 X41.267 Y-13.039 E316.61551
G1 X41.236 Y-11.952 E316.91493
G1 X41.448 Y-10.866 E317.90569
G1 X41.673 Y-10.322 E318.49926
G1 X41.999 Y-9.779 E319.01670
G1 X42.432 Y-9.236 E319.49766
G1 X44.052 Y-7.606 E319.96605
G1 X44.897 Y-6.519 E320.44351
G1 X45.408 Y-5.433 E320.69691
G1 X45.659 Y-4.346 E320.96996
G1 X45.69 Y-3.26 E321.26971
G1 X45.478 Y-2.173 E322.26078
G1 X45.253 Y-1.63 E322.85375
G1 X44.927 Y-1.087 E323.37158
G1 X44.494 Y-.543 E323.85212
G1 X42.873 Y1.087 E324.32094
G1 X42.029 Y2.173 E324.79798
G1 X41.518 Y3.26 E325.05178
G1 X41.267 Y4.346 E325.32483
G1 X41.236 Y5.433 E325.62425
G1 X41.448 Y6.519 E326.61501
G1 X41.673 Y7.063 E327.20858
G1 X41.999 Y7.606 E327.72602
G1 X42.432 Y8.149 E328.20698
G1 X44.052 Y9.779 E328.67537
G1 X44.897 Y10.866 E329.15283
G1 X45.408 Y11.952 E329.40623
G1 X45.659 Y13.039 E329.67965
G1 X45.69 Y14.125 E329.97907
G1 X45.478 Y15.212 E330.97014
G1 X45.253 Y15.755 E331.50099
G1 X44.927 Y16.299 E334.98316
G1 X44.494 Y16.842 E335.18164
G1 X42.873 Y18.472 E335.45469
G1 X42.112 Y19.44 E335.75444
G1 X50.189 Y19.44 E336.74490
G1 X50.366 Y19.015 E337.05371
G1 X50.692 Y18.472 E337.60407
G1 X51.125 Y17.928 E337.85689
G1 X52.745 Y16.299 E338.33733
G1 X53.211 Y15.755 E338.80616
G1 X53.882 Y14.669 E339.28320
G1 X54.101 Y14.125 E339.53716
G1 X54.351 Y13.039 E339.81021
G1 X54.383 Y11.952 E340.10963
G1 X54.171 Y10.866 E341.10039
G1 X53.945 Y10.322 E341.69370
G1 X53.619 Y9.779 E342.21132
G1 X53.186 Y9.236 E342.69218
G1 X51.566 Y7.606 E343.16058
G1 X50.722 Y6.519 E343.63804
G1 X50.21 Y5.433 E343.89161
G1 X49.96 Y4.346 E344.16466
G1 X49.928 Y3.26 E344.46441
G1 X50.14 Y2.173 E345.45517
