; generated by PrusaSlicer 2.9.0 on 2025-02-10 at 15:40:57 UTC

; 

; external perimeters extrusion width = 1.12mm
; perimeters extrusion width = 1.12mm
; infill extrusion width = 1.12mm
; solid infill extrusion width = 1.12mm
; top infill extrusion width = 1.00mm
; first layer extrusion width = 1.05mm

M190 S25 ; set bed temperature and wait for it to be reached
;TYPE:Custom
G28 H ; home all axes
G92 E0 ; zero extruder
M6
M220 S100
M221 S100
M104 S200 T0
M104 S160 T1

M109 S200 T0
M109 S160 T1
G21 ; set units to millimeters
G90 ; use absolute coordinates
M82 ; use absolute distances for extrusion
G92 E0
M107
;LAYER_CHANGE
;Z:0.5
;HEIGHT:0.5
G1 E0.00000 F2400
G92 E0
G1 Z.5 F7800
G1 X0 Y-25.471
G1 E0.89802 F2400
;TYPE:Skirt/Brim
;WIDTH:1.05
G1 F1500
G1 X60 Y-25.471 E1.79584
G1 X62.045 Y-25.075 E2.69375
G1 X63.793 Y-23.943 E3.68130
G1 X64.992 Y-22.24 E20.92616
G1 X65.471 Y-20 E21.82418
G1 X65.471 Y20 E22.72200
G1 X65.075 Y22.045 E23.61991
G1 X63.943 Y23.793 E24.60746
G1 X62.24 Y24.992 E76.34205
G1 X60 Y25.471 E77.24007
G1 X-60 Y25.471 E78.13789
G1 X-62.045 Y25.075 E79.03580
G1 X-63.793 Y23.943 E80.02335
G1 X-64.992 Y22.24 E97.26821
G1 X-65.471 Y20 E98.16623
G1 X-65.471 Y-20 E99.06405
G1 X-65.075 Y-22.045 E99.96196
G1 X-63.943 Y-23.793 E100.94951
G1 X-62.24 Y-24.992 E126.75214
G1 X-60 Y-25.471 E-98.24777
G1 X-.15 Y-25.471 E-97.95029
G1 E-97.54071 F2400
G92 E0
G1 X-.15 Y-25.471 F7800
G92 E0
G1 X-47.573 Y-19.44
G1 E-97.09109 F2400
;TYPE:Internal infill
G1 F1500
G1 X-41.497 Y-19.44 E-95.60540
G1 X-41.673 Y-19.015 E-94.71504
G1 X-41.999 Y-18.472 E-93.93830
G1 X-42.432 Y-17.928 E-93.21749
G1 X-44.052 Y-16.299 E-92.51426
G1 X-44.897 Y-15.212 E-91.79870
G1 X-45.408 Y-14.125 E-91.41800
G1 X-45.659 Y-13.039 E-91.00842
G1 X-45.69 Y-11.952 E-90.55929
G1 X-45.478 Y-10.866 E-89.07269
G1 X-45.253 Y-10.322 E-88.18272
G1 X-44.927 Y-9.779 E-87.40656
G1 X-44.494 Y-9.236 E-86.68512
G1 X-42.873 Y-7.606 E-85.98252
G1 X-42.029 Y-6.519 E-85.26621
G1 X-41.518 Y-5.433 E-84.88611
G1 X-41.267 Y-4.346 E-84.47654
G1 X-41.235 Y-3.26 E-84.02691
G1 X-41.448 Y-2.173 E-82.54077
G1 X-41.673 Y-1.63 E-81.65093
G1 X-41.999 Y-1.087 E-80.87418
G1 X-42.432 Y-.543 E-80.15337
G1 X-44.052 Y1.087 E-79.45014
G1 X-44.897 Y2.173 E-78.73458
G1 X-45.408 Y3.26 E-78.35388
G1 X-45.659 Y4.346 E-77.94431
G1 X-45.69 Y5.433 E-77.49518
G1 X-45.478 Y6.519 E-76.00857
G1 X-45.253 Y7.063 E-75.11861
G1 X-44.927 Y7.606 E-74.34245
G1 X-44.494 Y8.149 E-73.62101
G1 X-42.873 Y9.779 E-72.91841
G1 X-42.029 Y10.866 E-72.20210
G1 X-41.518 Y11.952 E-71.82200
G1 X-41.267 Y13.039 E-71.41187
G1 X-41.235 Y14.125 E-70.96274
G1 X-41.448 Y15.212 E-69.47660
G1 X-41.673 Y15.755 E-68.67993
G1 X-41.999 Y16.299 E-63.45603
G1 X-42.432 Y16.842 E-63.15855
G1 X-44.052 Y18.472 E-62.74898
G1 X-44.814 Y19.44 E-62.29935
G1 X-36.736 Y19.44 E-60.81366
G1 X-36.56 Y19.015 E-60.35045
G1 X-36.234 Y18.472 E-59.92259
G1 X-35.801 Y17.928 E-59.14557
G1 X-34.181 Y16.299 E-58.42476
G1 X-33.715 Y15.755 E-57.72153
G1 X-33.337 Y15.212 E-57.00597
G1 X-32.825 Y14.125 E-56.62503
G1 X-32.574 Y13.039 E-56.21546
G1 X-32.543 Y11.952 E-55.76633
G1 X-32.755 Y10.866 E-54.28019
G1 X-32.981 Y10.322 E-53.39022
G1 X-33.307 Y9.779 E-52.61379
G1 X-33.74 Y9.236 E-51.89250
G1 X-35.36 Y7.606 E-51.18990
G1 X-36.204 Y6.519 E-50.47371
G1 X-36.716 Y5.433 E-50.09336
G1 X-36.966 Y4.346 E-49.68378
G1 X-36.998 Y3.26 E-49.23416
G1 X-36.786 Y2.173 E-47.74802
G1 X-36.56 Y1.63 E-46.85856
G1 X-36.234 Y1.087 E-46.08155
G1 X-35.801 Y.543 E-45.36074
G1 X-34.181 Y-1.087 E-44.65751
G1 X-33.337 Y-2.173 E-43.94195
G1 X-32.825 Y-3.26 E-43.56101
G1 X-32.574 Y-4.346 E-43.15143
G1 X-32.543 Y-5.433 E-42.70230
G1 X-32.755 Y-6.519 E-41.21616
G1 X-32.981 Y-7.063 E-40.32620
G1 X-33.307 Y-7.606 E-39.54977
G1 X-33.74 Y-8.149 E-38.82848
G1 X-35.36 Y-9.779 E-38.12588
G1 X-36.204 Y-10.866 E-37.40969
G1 X-36.716 Y-11.952 E-37.02933
G1 X-36.966 Y-13.039 E-36.61920
G1 X-36.998 Y-14.125 E-36.17007
G1 X-36.786 Y-15.212 E-34.68393
G1 X-36.56 Y-15.755 E-33.88727
G1 X-36.234 Y-16.299 E-25.86237
G1 X-35.801 Y-16.842 E-25.46573
G1 X-34.181 Y-18.472 E-24.91963
G1 X-33.419 Y-19.44 E-24.61988
G1 X-24.112 Y-19.44 E-23.13419
G1 X-24.288 Y-19.015 E-22.24422
G1 X-24.614 Y-18.472 E-21.46721
G1 X-25.047 Y-17.928 E-20.74640
G1 X-26.667 Y-16.299 E-20.04317
G1 X-27.511 Y-15.212 E-19.32761
G1 X-28.023 Y-14.125 E-18.94667
G1 X-28.274 Y-13.039 E-18.53709
G1 X-28.305 Y-11.952 E-18.08796
G1 X-28.093 Y-10.866 E-17.09720
G1 X-27.867 Y-10.322 E-15.91058
G1 X-27.541 Y-9.779 E-14.87534
G1 X-27.108 Y-9.236 E-13.91362
G1 X-25.488 Y-7.606 E-12.97682
G1 X-24.644 Y-6.519 E-12.02174
G1 X-24.132 Y-5.433 E-11.51494
G1 X-23.882 Y-4.346 E-10.96884
G1 X-23.85 Y-3.26 E-10.66909
G1 X-24.063 Y-2.173 E-9.18295
G1 X-24.288 Y-1.63 E-8.29350
G1 X-24.614 Y-1.087 E-7.51648
G1 X-25.047 Y-.543 E-6.79567
G1 X-26.667 Y1.087 E-6.09244
G1 X-27.511 Y2.173 E-5.37688
G1 X-28.023 Y3.26 E-4.99594
G1 X-28.274 Y4.346 E-4.58637
G1 X-28.305 Y5.433 E-4.13724
G1 X-28.093 Y6.519 E-3.14648
G1 X-27.867 Y7.063 E-1.95986
G1 X-27.541 Y7.606 E-0.92462
G1 X-27.108 Y8.149 E0.03710
G1 X-25.488 Y9.779 E0.97390
G1 X-24.644 Y10.866 E1.92898
G1 X-24.132 Y11.952 E2.43578
G1 X-23.882 Y13.039 E2.98262
G1 X-23.85 Y14.125 E3.28204
G1 X-24.063 Y15.212 E4.76818
G1 X-24.288 Y15.755 E5.56485
G1 X-24.614 Y16.299 E12.53005
G1 X-25.047 Y16.842 E12.92669
G1 X-26.667 Y18.472 E13.47279
G1 X-27.429 Y19.44 E14.07229
G1 X-19.351 Y19.44 E16.05321
G1 X-19.175 Y19.015 E16.67083
G1 X-18.849 Y18.472 E17.24179
G1 X-18.416 Y17.928 E18.27745
G1 X-16.796 Y16.299 E19.23853
G1 X-16.33 Y15.755 E20.17617
G1 X-15.951 Y15.212 E21.13025
G1 X-15.44 Y14.125 E21.63817
G1 X-15.189 Y13.039 E22.18427
G1 X-15.158 Y11.952 E22.78311
G1 X-15.37 Y10.866 E24.76463
G1 X-15.596 Y10.322 E25.95125
G1 X-15.922 Y9.779 E26.98613
G1 X-16.355 Y9.236 E27.94805
G1 X-17.975 Y7.606 E28.88485
G1 X-18.819 Y6.519 E29.83993
G1 X-19.33 Y5.433 E30.34673
G1 X-19.581 Y4.346 E30.89283
G1 X-19.613 Y3.26 E31.49233
G1 X-19.4 Y2.173 E33.47385
G1 X-19.175 Y1.63 E34.66031
G1 X-18.849 Y1.087 E35.69597
G1 X-18.416 Y.543 E36.65705
G1 X-16.796 Y-1.087 E37.59469
G1 X-15.951 Y-2.173 E38.54877
G1 X-15.44 Y-3.26 E39.05669
G1 X-15.189 Y-4.346 E39.60279
G1 X-15.158 Y-5.433 E40.20163
G1 X-15.37 Y-6.519 E42.18315
G1 X-15.596 Y-7.063 E43.36977
G1 X-15.922 Y-7.606 E44.40465
G1 X-16.355 Y-8.149 E45.36657
G1 X-17.975 Y-9.779 E46.30337
G1 X-18.819 Y-10.866 E47.25845
G1 X-19.33 Y-11.952 E47.76525
G1 X-19.581 Y-13.039 E48.31209
G1 X-19.613 Y-14.125 E48.91093
G1 X-19.4 Y-15.212 E50.89245
G1 X-19.175 Y-15.755 E51.95467
G1 X-18.849 Y-16.299 E59.98043
G1 X-18.416 Y-16.842 E60.37739
G1 X-16.796 Y-18.472 E60.92349
G1 X-16.034 Y-19.44 E61.52299
G1 X-6.726 Y-19.44 E63.50391
G1 X-6.903 Y-19.015 E64.69053
G1 X-7.229 Y-18.472 E65.72655
G1 X-7.662 Y-17.928 E66.68743
G1 X-9.282 Y-16.299 E67.62509
G1 X-10.126 Y-15.212 E68.57917
G1 X-10.638 Y-14.125 E69.08709
G1 X-10.888 Y-13.039 E69.63319
G1 X-10.92 Y-11.952 E70.23203
G1 X-10.708 Y-10.866 E72.21355
G1 X-10.482 Y-10.322 E73.40017
G1 X-10.156 Y-9.779 E74.43541
G1 X-9.723 Y-9.236 E75.39713
G1 X-8.103 Y-7.606 E76.33393
G1 X-7.259 Y-6.519 E77.28885
G1 X-6.747 Y-5.433 E77.79599
G1 X-6.497 Y-4.346 E78.34209
G1 X-6.465 Y-3.26 E78.94159
G1 X-6.677 Y-2.173 E80.92311
G1 X-6.903 Y-1.63 E82.10905
G1 X-7.229 Y-1.087 E83.14507
G1 X-7.662 Y-.543 E84.10595
G1 X-9.282 Y1.087 E85.04361
G1 X-10.126 Y2.173 E85.99769
G1 X-10.638 Y3.26 E86.50561
G1 X-10.888 Y4.346 E87.05171
G1 X-10.92 Y5.433 E87.65055
G1 X-10.708 Y6.519 E89.63207
G1 X-10.482 Y7.063 E90.81869
G1 X-10.156 Y7.606 E91.85393
G1 X-9.723 Y8.149 E92.81565
G1 X-8.103 Y9.779 E93.75245
G1 X-7.259 Y10.866 E94.70737
G1 X-6.747 Y11.952 E95.21451
G1 X-6.497 Y13.039 E95.76135
G1 X-6.465 Y14.125 E96.36019
G1 X-6.677 Y15.212 E98.34171
G1 X-6.903 Y15.755 E99.40393
G1 X-7.229 Y16.299 E106.36913
G1 X-7.662 Y16.842 E106.76577
G1 X-9.282 Y18.472 E107.31187
G1 X-10.044 Y19.44 E107.91137
G1 X-1.966 Y19.44 E109.89229
G1 X-1.79 Y19.015 E110.50991
G1 X-1.464 Y18.472 E111.08087
G1 X-1.031 Y17.928 E112.11653
G1 X.589 Y16.299 E113.07761
G1 X1.055 Y15.755 E114.01525
G1 X1.434 Y15.212 E114.96933
G1 X1.945 Y14.125 E115.47693
G1 X2.196 Y13.039 E116.02303
G1 X2.227 Y11.952 E116.62187
G1 X2.015 Y10.866 E118.60339
G1 X1.79 Y10.322 E119.79053
G1 X1.464 Y9.779 E120.82541
G1 X1.031 Y9.236 E121.78733
G1 X-.589 Y7.606 E122.72411
G1 X-1.434 Y6.519 E123.67903
G1 X-1.945 Y5.433 E124.18583
G1 X-2.196 Y4.346 E124.73193
G1 X-2.227 Y3.26 E125.33143
G1 X-2.015 Y2.173 E127.31295
G1 X-1.79 Y1.63 E128.49941
G1 X-1.464 Y1.087 E129.53507
G1 X-1.031 Y.543 E130.49615
G1 X.589 Y-1.087 E131.43379
G1 X1.434 Y-2.173 E132.38787
G1 X1.945 Y-3.26 E132.89547
G1 X2.196 Y-4.346 E133.44157
G1 X2.227 Y-5.433 E134.04041
G1 X2.015 Y-6.519 E136.02193
G1 X1.79 Y-7.063 E137.20907
G1 X1.464 Y-7.606 E138.24395
G1 X1.031 Y-8.149 E139.20587
G1 X-.589 Y-9.779 E140.14265
G1 X-1.434 Y-10.866 E141.09757
G1 X-1.945 Y-11.952 E141.60437
G1 X-2.196 Y-13.039 E142.15121
G1 X-2.227 Y-14.125 E142.75005
G1 X-2.015 Y-15.212 E144.73157
G1 X-1.79 Y-15.755 E145.79379
G1 X-1.464 Y-16.299 E153.81955
G1 X-1.031 Y-16.842 E154.21651
G1 X.589 Y-18.472 E154.76261
G1 X1.351 Y-19.44 E155.36211
G1 X10.659 Y-19.44 E157.34303
G1 X10.482 Y-19.015 E158.52965
G1 X10.156 Y-18.472 E159.56567
G1 X9.723 Y-17.928 E160.52655
G1 X8.103 Y-16.299 E161.46421
G1 X7.259 Y-15.212 E162.41829
G1 X6.747 Y-14.125 E162.92621
G1 X6.497 Y-13.039 E163.47231
G1 X6.465 Y-11.952 E164.07115
G1 X6.677 Y-10.866 E166.05267
G1 X6.903 Y-10.322 E167.23929
G1 X7.229 Y-9.779 E168.27453
G1 X7.662 Y-9.236 E169.23625
G1 X9.282 Y-7.606 E170.17305
G1 X10.126 Y-6.519 E171.12797
G1 X10.638 Y-5.433 E171.63511
G1 X10.888 Y-4.346 E172.18121
G1 X10.92 Y-3.26 E172.78071
G1 X10.708 Y-2.173 E174.76223
G1 X10.482 Y-1.63 E175.94817
G1 X10.156 Y-1.087 E176.98419
G1 X9.723 Y-.543 E177.94507
G1 X8.103 Y1.087 E178.88273
G1 X7.259 Y2.173 E179.83681
G1 X6.747 Y3.26 E180.34473
G1 X6.497 Y4.346 E180.89083
G1 X6.465 Y5.433 E181.48967
G1 X6.677 Y6.519 E183.47119
G1 X6.903 Y7.063 E184.65781
G1 X7.229 Y7.606 E185.69305
G1 X7.662 Y8.149 E186.65477
G1 X9.282 Y9.779 E187.59157
G1 X10.126 Y10.866 E188.54649
G1 X10.638 Y11.952 E189.05363
G1 X10.888 Y13.039 E189.60047
G1 X10.92 Y14.125 E190.19931
G1 X10.708 Y15.212 E192.18083
G1 X10.482 Y15.755 E193.24305
G1 X10.156 Y16.299 E200.20825
G1 X9.723 Y16.842 E200.60521
G1 X8.103 Y18.472 E201.15131
G1 X7.341 Y19.44 E201.75081
G1 X15.419 Y19.44 E203.73173
G1 X15.596 Y19.015 E204.34935
G1 X15.922 Y18.472 E204.91983
G1 X16.355 Y17.928 E205.95549
G1 X17.975 Y16.299 E206.91657
G1 X18.441 Y15.755 E207.85423
G1 X18.819 Y15.212 E208.80847
G1 X19.33 Y14.125 E209.31607
G1 X19.581 Y13.039 E209.86217
G1 X19.613 Y11.952 E210.46101
G1 X19.4 Y10.866 E212.44253
G1 X19.175 Y10.322 E213.62915
G1 X18.849 Y9.779 E214.66439
G1 X18.416 Y9.236 E215.62631
G1 X16.796 Y7.606 E216.56309
G1 X15.952 Y6.519 E217.51801
G1 X15.44 Y5.433 E218.02515
G1 X15.189 Y4.346 E218.57125
G1 X15.158 Y3.26 E219.17075
G1 X15.37 Y2.173 E221.15227
G1 X15.596 Y1.63 E222.33821
G1 X15.922 Y1.087 E223.37387
G1 X16.355 Y.543 E224.33495
G1 X17.975 Y-1.087 E225.27261
G1 X18.819 Y-2.173 E226.22685
G1 X19.33 Y-3.26 E226.73445
G1 X19.581 Y-4.346 E227.28055
G1 X19.613 Y-5.433 E227.87939
G1 X19.4 Y-6.519 E229.86091
G1 X19.175 Y-7.063 E231.04753
G1 X18.849 Y-7.606 E232.08277
G1 X18.416 Y-8.149 E233.04469
G1 X16.796 Y-9.779 E233.98147
G1 X15.952 Y-10.866 E234.93639
G1 X15.44 Y-11.952 E235.44353
G1 X15.189 Y-13.039 E235.99037
G1 X15.158 Y-14.125 E236.58921
G1 X15.37 Y-15.212 E238.57073
G1 X15.596 Y-15.755 E239.63243
G1 X15.922 Y-16.299 E243.64531
G1 X16.355 Y-16.842 E243.84379
G1 X17.975 Y-18.472 E244.11684
G1 X18.736 Y-19.44 E244.41659
G1 X28.044 Y-19.44 E245.40705
G1 X27.867 Y-19.015 E246.00036
G1 X27.541 Y-18.472 E246.51837
G1 X27.108 Y-17.928 E246.99881
G1 X25.488 Y-16.299 E247.46764
G1 X24.644 Y-15.212 E247.94476
G1 X24.132 Y-14.125 E248.19856
G1 X23.882 Y-13.039 E248.47161
G1 X23.85 Y-11.952 E248.77103
G1 X24.063 Y-10.866 E249.76179
G1 X24.288 Y-10.322 E250.35510
G1 X24.614 Y-9.779 E250.87272
G1 X25.047 Y-9.236 E251.35368
G1 X26.667 Y-7.606 E251.82207
G1 X27.511 Y-6.519 E252.29953
G1 X28.023 Y-5.433 E252.55310
G1 X28.274 Y-4.346 E252.82615
G1 X28.305 Y-3.26 E253.12590
G1 X28.093 Y-2.173 E254.11666
G1 X27.867 Y-1.63 E254.70963
G1 X27.541 Y-1.087 E255.22764
G1 X27.108 Y-.543 E255.70808
G1 X25.488 Y1.087 E256.17691
G1 X24.644 Y2.173 E256.65403
G1 X24.132 Y3.26 E256.90783
G1 X23.882 Y4.346 E257.18088
G1 X23.85 Y5.433 E257.48030
G1 X24.063 Y6.519 E258.47106
G1 X24.288 Y7.063 E259.06437
G1 X24.614 Y7.606 E259.58199
G1 X25.047 Y8.149 E260.06295
G1 X26.667 Y9.779 E260.53134
G1 X27.511 Y10.866 E261.00879
G1 X28.023 Y11.952 E261.26236
G1 X28.274 Y13.039 E261.53578
G1 X28.305 Y14.125 E261.83520
G1 X28.093 Y15.212 E262.82596
G1 X27.867 Y15.755 E263.35708
G1 X27.541 Y16.299 E266.83967
G1 X27.108 Y16.842 E267.03816
G1 X25.488 Y18.472 E267.31120
G1 X24.726 Y19.44 E267.61095
G1 X32.804 Y19.44 E268.60141
G1 X32.981 Y19.015 E268.91022
G1 X33.307 Y18.472 E269.19547
G1 X33.74 Y17.928 E269.71348
G1 X35.36 Y16.299 E270.19392
G1 X35.826 Y15.755 E270.66274
G1 X36.204 Y15.212 E271.13978
G1 X36.716 Y14.125 E271.39374
G1 X36.966 Y13.039 E271.66679
G1 X36.998 Y11.952 E271.96621
G1 X36.786 Y10.866 E272.95697
G1 X36.56 Y10.322 E273.55028
G1 X36.234 Y9.779 E274.06790
G1 X35.801 Y9.236 E274.54876
G1 X34.181 Y7.606 E275.01716
G1 X33.337 Y6.519 E275.49462
G1 X32.825 Y5.433 E275.74819
G1 X32.575 Y4.346 E276.02124
G1 X32.543 Y3.26 E276.32099
G1 X32.755 Y2.173 E277.31175
G1 X32.981 Y1.63 E277.90472
G1 X33.307 Y1.087 E278.42273
G1 X33.74 Y.543 E278.90317
G1 X35.36 Y-1.087 E279.37200
G1 X36.204 Y-2.173 E279.84904
G1 X36.716 Y-3.26 E280.10300
G1 X36.966 Y-4.346 E280.37605
G1 X36.998 Y-5.433 E280.67547
G1 X36.786 Y-6.519 E281.66623
G1 X36.56 Y-7.063 E282.25954
G1 X36.234 Y-7.606 E282.77716
G1 X35.801 Y-8.149 E283.25802
G1 X34.181 Y-9.779 E283.72642
G1 X33.337 Y-10.866 E284.20388
G1 X32.825 Y-11.952 E284.45745
G1 X32.575 Y-13.039 E284.73087
G1 X32.543 Y-14.125 E285.03029
G1 X32.755 Y-15.212 E286.02105
G1 X32.981 Y-15.755 E286.55216
G1 X33.307 Y-16.299 E290.56461
G1 X33.74 Y-16.842 E290.76293
G1 X35.36 Y-18.472 E291.03598
G1 X36.122 Y-19.44 E291.33573
G1 X45.429 Y-19.44 E292.32649
G1 X45.253 Y-19.015 E292.91980
G1 X44.927 Y-18.472 E293.43763
G1 X44.494 Y-17.928 E293.91817
G1 X42.873 Y-16.299 E294.38699
G1 X42.029 Y-15.212 E294.86403
G1 X41.518 Y-14.125 E295.11783
G1 X41.267 Y-13.039 E295.39088
G1 X41.236 Y-11.952 E295.69030
G1 X41.448 Y-10.866 E296.68106
G1 X41.673 Y-10.322 E297.27463
G1 X41.999 Y-9.779 E297.79207
G1 X42.432 Y-9.236 E298.27303
G1 X44.052 Y-7.606 E298.74142
G1 X44.897 Y-6.519 E299.21888
G1 X45.408 Y-5.433 E299.47228
G1 X45.659 Y-4.346 E299.74533
G1 X45.69 Y-3.26 E300.04508
G1 X45.478 Y-2.173 E301.03616
G1 X45.253 Y-1.63 E301.62913
G1 X44.927 Y-1.087 E302.14696
G1 X44.494 Y-.543 E302.62750
G1 X42.873 Y1.087 E303.09632
G1 X42.029 Y2.173 E303.57336
G1 X41.518 Y3.26 E303.82716
G1 X41.267 Y4.346 E304.10021
G1 X41.236 Y5.433 E304.39963
G1 X41.448 Y6.519 E305.39039
G1 X41.673 Y7.063 E305.98396
G1 X41.999 Y7.606 E306.50140
G1 X42.432 Y8.149 E306.98235
G1 X44.052 Y9.779 E307.45074
G1 X44.897 Y10.866 E307.92820
G1 X45.408 Y11.952 E308.18160
G1 X45.659 Y13.039 E308.45502
G1 X45.69 Y14.125 E308.75444
G1 X45.478 Y15.212 E309.74551
G1 X45.253 Y15.755 E310.27636
G1 X44.927 Y16.299 E313.75853
G1 X44.494 Y16.842 E313.95701
G1 X42.873 Y18.472 E314.23006
G1 X42.112 Y19.44 E314.52981
G1 X50.189 Y19.44 E315.52027
G1 X50.366 Y19.015 E315.82908
G1 X50.692 Y18.472 E316.37944
G1 X51.125 Y17.928 E316.63226
G1 X52.745 Y16.299 E317.11270
G1 X53.211 Y15.755 E317.58153
G1 X53.882 Y14.669 E318.05857
G1 X54.101 Y14.125 E318.31253
G1 X54.351 Y13.039 E318.58558
G1 X54.383 Y11.952 E318.88500
G1 X54.171 Y10.866 E319.87577
G1 X53.945 Y10.322 E320.46907
G1 X53.619 Y9.779 E320.98669
G1 X53.186 Y9.236 E321.46755
G1 X51.566 Y7.606 E321.93595
G1 X50.722 Y6.519 E322.41341
G1 X50.21 Y5.433 E322.66698
G1 X49.96 Y4.346 E322.94003
G1 X49.928 Y3.26 E323.23978
G1 X50.14 Y2.173 E324.23054
