; generated by PrusaSlicer 2.9.0 on 2025-02-10 at 15:40:57 UTC

; 

; external perimeters extrusion width = 1.12mm
; perimeters extrusion width = 1.12mm
; infill extrusion width = 1.12mm
; solid infill extrusion width = 1.12mm
; top infill extrusion width = 1.00mm
; first layer extrusion width = 1.05mm

M190 S25 ; set bed temperature and wait for it to be reached
;TYPE:Custom
G28 H ; home all axes
G92 E0 ; zero extruder
M6
M220 S100
M221 S100
M104 S200 T0
M104 S160 T1

M109 S200 T0
M109 S160 T1
G21 ; set units to millimeters
G90 ; use absolute coordinates
M82 ; use absolute distances for extrusion
G92 E0
M107
;LAYER_CHANGE
;Z:0.5
;HEIGHT:0.5
G1 E27.86729 F2400
G92 E0
G1 Z.5 F7800
G1 X0 Y-25.471
G1 E28.76531 F2400
;TYPE:Skirt/Brim
;WIDTH:1.05
G1 F1500
G1 X60 Y-25.471 E29.66313
G1 X62.045 Y-25.075 E30.56104
G1 X63.793 Y-23.943 E31.54859
G1 X64.992 Y-22.24 E48.79345
G1 X65.471 Y-20 E49.69147
G1 X65.471 Y20 E50.58929
G1 X65.075 Y22.045 E51.48720
G1 X63.943 Y23.793 E52.47475
G1 X62.24 Y24.992 E104.20934
G1 X60 Y25.471 E105.10736
G1 X-60 Y25.471 E106.00518
G1 X-62.045 Y25.075 E106.90309
G1 X-63.793 Y23.943 E107.89064
G1 X-64.992 Y22.24 E125.13550
G1 X-65.471 Y20 E126.03352
G1 X-65.471 Y-20 E126.93134
G1 X-65.075 Y-22.045 E127.82925
G1 X-63.943 Y-23.793 E128.81680
G1 X-62.24 Y-24.992 E154.61943
G1 X-60 Y-25.471 E9.23898
G1 X-.15 Y-25.471 E9.63562
G1 E10.18172 F2400
G92 E0
G1 X-.15 Y-25.471 F7800
G92 E0
G1 X-47.573 Y-19.44
G1 E10.78122 F2400
;TYPE:Internal infill
G1 F1500
G1 X-41.497 Y-19.44 E12.76214
G1 X-41.673 Y-19.015 E13.94928
G1 X-41.999 Y-18.472 E14.98494
G1 X-42.432 Y-17.928 E15.94602
G1 X-44.052 Y-16.299 E16.88366
G1 X-44.897 Y-15.212 E17.83774
G1 X-45.408 Y-14.125 E18.34534
G1 X-45.659 Y-13.039 E18.89144
G1 X-45.69 Y-11.952 E19.49028
G1 X-45.478 Y-10.866 E21.47242
G1 X-45.253 Y-10.322 E22.65904
G1 X-44.927 Y-9.779 E23.69392
G1 X-44.494 Y-9.236 E24.65584
G1 X-42.873 Y-7.606 E25.59264
G1 X-42.029 Y-6.519 E26.54772
G1 X-41.518 Y-5.433 E27.05452
G1 X-41.267 Y-4.346 E27.60062
G1 X-41.235 Y-3.26 E28.20012
G1 X-41.448 Y-2.173 E30.18164
G1 X-41.673 Y-1.63 E31.36810
G1 X-41.999 Y-1.087 E32.40376
G1 X-42.432 Y-.543 E33.36484
G1 X-44.052 Y1.087 E34.30248
G1 X-44.897 Y2.173 E35.25656
G1 X-45.408 Y3.26 E35.76416
G1 X-45.659 Y4.346 E36.31026
G1 X-45.69 Y5.433 E36.90910
G1 X-45.478 Y6.519 E38.89124
G1 X-45.253 Y7.063 E40.07786
G1 X-44.927 Y7.606 E41.11274
G1 X-44.494 Y8.149 E42.07466
G1 X-42.873 Y9.779 E43.01146
G1 X-42.029 Y10.866 E43.96654
G1 X-41.518 Y11.952 E44.47334
G1 X-41.267 Y13.039 E45.02018
G1 X-41.235 Y14.125 E45.61902
G1 X-41.448 Y15.212 E47.60054
G1 X-41.673 Y15.755 E48.66276
G1 X-41.999 Y16.299 E55.62796
G1 X-42.432 Y16.842 E56.02460
G1 X-44.052 Y18.472 E56.57070
G1 X-44.814 Y19.44 E57.17020
G1 X-36.736 Y19.44 E59.15112
G1 X-36.56 Y19.015 E59.76874
G1 X-36.234 Y18.472 E60.33922
G1 X-35.801 Y17.928 E61.37524
G1 X-34.181 Y16.299 E62.33632
G1 X-33.715 Y15.755 E63.27396
G1 X-33.337 Y15.212 E64.22804
G1 X-32.825 Y14.125 E64.73596
G1 X-32.574 Y13.039 E65.28206
G1 X-32.543 Y11.952 E65.88090
G1 X-32.755 Y10.866 E67.86242
G1 X-32.981 Y10.322 E69.04904
G1 X-33.307 Y9.779 E70.08428
G1 X-33.74 Y9.236 E71.04600
G1 X-35.36 Y7.606 E71.98280
G1 X-36.204 Y6.519 E72.93772
G1 X-36.716 Y5.433 E73.44486
G1 X-36.966 Y4.346 E73.99096
G1 X-36.998 Y3.26 E74.59046
G1 X-36.786 Y2.173 E76.57198
G1 X-36.56 Y1.63 E77.75792
G1 X-36.234 Y1.087 E78.79394
G1 X-35.801 Y.543 E79.75502
G1 X-34.181 Y-1.087 E80.69266
G1 X-33.337 Y-2.173 E81.64674
G1 X-32.825 Y-3.26 E82.15466
G1 X-32.574 Y-4.346 E82.70076
G1 X-32.543 Y-5.433 E83.29960
G1 X-32.755 Y-6.519 E85.28112
G1 X-32.981 Y-7.063 E86.46774
G1 X-33.307 Y-7.606 E87.50298
G1 X-33.74 Y-8.149 E88.46470
G1 X-35.36 Y-9.779 E89.40150
G1 X-36.204 Y-10.866 E90.35642
G1 X-36.716 Y-11.952 E90.86356
G1 X-36.966 Y-13.039 E91.41040
G1 X-36.998 Y-14.125 E92.00924
G1 X-36.786 Y-15.212 E93.99076
G1 X-36.56 Y-15.755 E95.05298
G1 X-36.234 Y-16.299 E103.07788
G1 X-35.801 Y-16.842 E103.47452
G1 X-34.181 Y-18.472 E104.02062
G1 X-33.419 Y-19.44 E104.62012
G1 X-24.112 Y-19.44 E106.60104
G1 X-24.288 Y-19.015 E107.78766
G1 X-24.614 Y-18.472 E108.82368
G1 X-25.047 Y-17.928 E109.78476
G1 X-26.667 Y-16.299 E110.72240
G1 X-27.511 Y-15.212 E111.67648
G1 X-28.023 Y-14.125 E112.18440
G1 X-28.274 Y-13.039 E112.73050
G1 X-28.305 Y-11.952 E113.32934
G1 X-28.093 Y-10.866 E115.31086
G1 X-27.867 Y-10.322 E116.49748
G1 X-27.541 Y-9.779 E117.53272
G1 X-27.108 Y-9.236 E118.49444
G1 X-25.488 Y-7.606 E119.43124
G1 X-24.644 Y-6.519 E120.38632
G1 X-24.132 Y-5.433 E120.89312
G1 X-23.882 Y-4.346 E121.43922
G1 X-23.85 Y-3.26 E122.03872
G1 X-24.063 Y-2.173 E124.02024
G1 X-24.288 Y-1.63 E125.20618
G1 X-24.614 Y-1.087 E126.24220
G1 X-25.047 Y-.543 E127.20328
G1 X-26.667 Y1.087 E128.14092
G1 X-27.511 Y2.173 E129.09500
G1 X-28.023 Y3.26 E129.60292
G1 X-28.274 Y4.346 E130.14902
G1 X-28.305 Y5.433 E130.74786
G1 X-28.093 Y6.519 E132.72938
G1 X-27.867 Y7.063 E133.91600
G1 X-27.541 Y7.606 E134.95124
G1 X-27.108 Y8.149 E135.91296
G1 X-25.488 Y9.779 E136.84976
G1 X-24.644 Y10.866 E137.80484
G1 X-24.132 Y11.952 E138.31164
G1 X-23.882 Y13.039 E138.85848
G1 X-23.85 Y14.125 E139.45732
G1 X-24.063 Y15.212 E141.43884
G1 X-24.288 Y15.755 E142.50106
G1 X-24.614 Y16.299 E224.19939
G1 X-25.047 Y16.842 E224.79435
G1 X-26.667 Y18.472 E225.61350
G1 X-27.429 Y19.44 E226.51275
G1 X-19.351 Y19.44 E229.48413
G1 X-19.175 Y19.015 E230.41056
G1 X-18.849 Y18.472 E231.26700
G1 X-18.416 Y17.928 E232.82049
G1 X-16.796 Y16.299 E234.26211
G1 X-16.33 Y15.755 E235.66857
G1 X-15.951 Y15.212 E237.09969
G1 X-15.44 Y14.125 E237.86157
G1 X-15.189 Y13.039 E238.68072
G1 X-15.158 Y11.952 E239.57898
G1 X-15.37 Y10.866 E242.55126
G1 X-15.596 Y10.322 E244.33119
G1 X-15.922 Y9.779 E245.88351
G1 X-16.355 Y9.236 E247.32639
G1 X-17.975 Y7.606 E248.73159
G1 X-18.819 Y6.519 E250.16421
G1 X-19.33 Y5.433 E250.92441
G1 X-19.581 Y4.346 E251.74356
G1 X-19.613 Y3.26 E252.64281
G1 X-19.4 Y2.173 E255.61509
G1 X-19.175 Y1.63 E257.39478
G1 X-18.849 Y1.087 E258.94827
G1 X-18.416 Y.543 E260.38989
G1 X-16.796 Y-1.087 E261.79635
G1 X-15.951 Y-2.173 E263.22747
G1 X-15.44 Y-3.26 E263.98935
G1 X-15.189 Y-4.346 E264.80850
G1 X-15.158 Y-5.433 E265.70676
G1 X-15.37 Y-6.519 E268.67904
G1 X-15.596 Y-7.063 E270.45897
G1 X-15.922 Y-7.606 E272.01129
G1 X-16.355 Y-8.149 E273.45417
G1 X-17.975 Y-9.779 E274.85937
G1 X-18.819 Y-10.866 E276.29199
G1 X-19.33 Y-11.952 E277.05219
G1 X-19.581 Y-13.039 E277.87245
G1 X-19.613 Y-14.125 E278.77071
G1 X-19.4 Y-15.212 E281.74299
G1 X-19.175 Y-15.755 E283.33632
G1 X-18.849 Y-16.299 E295.37496
G1 X-18.416 Y-16.842 E295.97040
G1 X-16.796 Y-18.472 E296.78955
G1 X-16.034 Y-19.44 E297.68880
G1 X-6.726 Y-19.44 E300.66018
G1 X-6.903 Y-19.015 E302.44011
G1 X-7.229 Y-18.472 E303.99414
G1 X-7.662 Y-17.928 E305.43546
G1 X-9.282 Y-16.299 E306.84195
G1 X-10.126 Y-15.212 E308.27307
G1 X-10.638 Y-14.125 E309.03495
G1 X-10.888 Y-13.039 E309.85410
G1 X-10.92 Y-11.952 E310.75236
G1 X-10.708 Y-10.866 E313.72464
G1 X-10.482 Y-10.322 E315.50457
G1 X-10.156 Y-9.779 E317.05743
G1 X-9.723 Y-9.236 E318.50001
G1 X-8.103 Y-7.606 E319.90521
G1 X-7.259 Y-6.519 E321.33759
G1 X-6.747 Y-5.433 E322.09830
G1 X-6.497 Y-4.346 E322.91745
G1 X-6.465 Y-3.26 E323.81670
G1 X-6.677 Y-2.173 E326.78898
G1 X-6.903 Y-1.63 E328.56789
G1 X-7.229 Y-1.087 E330.12192
G1 X-7.662 Y-.543 E331.56324
G1 X-9.282 Y1.087 E332.96973
G1 X-10.126 Y2.173 E334.40085
G1 X-10.638 Y3.26 E335.16273
G1 X-10.888 Y4.346 E335.98188
G1 X-10.92 Y5.433 E336.88014
G1 X-10.708 Y6.519 E339.85242
G1 X-10.482 Y7.063 E341.63235
G1 X-10.156 Y7.606 E343.18521
G1 X-9.723 Y8.149 E344.62779
G1 X-8.103 Y9.779 E346.03299
G1 X-7.259 Y10.866 E347.46537
G1 X-6.747 Y11.952 E348.22608
G1 X-6.497 Y13.039 E349.04634
G1 X-6.465 Y14.125 E349.94460
G1 X-6.677 Y15.212 E352.91688
G1 X-6.903 Y15.755 E354.51021
G1 X-7.229 Y16.299 E364.95801
G1 X-7.662 Y16.842 E365.55297
G1 X-9.282 Y18.472 E366.37212
G1 X-10.044 Y19.44 E367.27137
G1 X-1.966 Y19.44 E370.24275
G1 X-1.79 Y19.015 E371.16918
G1 X-1.464 Y18.472 E372.02562
G1 X-1.031 Y17.928 E373.57911
G1 X.589 Y16.299 E375.02073
G1 X1.055 Y15.755 E376.42719
G1 X1.434 Y15.212 E377.85831
G1 X1.945 Y14.125 E378.61971
G1 X2.196 Y13.039 E379.43886
G1 X2.227 Y11.952 E380.33712
G1 X2.015 Y10.866 E383.30940
G1 X1.79 Y10.322 E385.09011
G1 X1.464 Y9.779 E386.64243
G1 X1.031 Y9.236 E388.08531
G1 X-.589 Y7.606 E389.49048
G1 X-1.434 Y6.519 E390.92286
G1 X-1.945 Y5.433 E391.68306
G1 X-2.196 Y4.346 E392.50221
G1 X-2.227 Y3.26 E393.40146
G1 X-2.015 Y2.173 E396.37374
G1 X-1.79 Y1.63 E398.15343
G1 X-1.464 Y1.087 E399.70692
G1 X-1.031 Y.543 E401.14854
G1 X.589 Y-1.087 E402.55500
G1 X1.434 Y-2.173 E403.98612
G1 X1.945 Y-3.26 E404.74752
G1 X2.196 Y-4.346 E405.56667
G1 X2.227 Y-5.433 E406.46493
G1 X2.015 Y-6.519 E409.43721
G1 X1.79 Y-7.063 E411.21792
G1 X1.464 Y-7.606 E412.77024
G1 X1.031 Y-8.149 E414.21312
G1 X-.589 Y-9.779 E415.61829
G1 X-1.434 Y-10.866 E417.05067
G1 X-1.945 Y-11.952 E417.81087
G1 X-2.196 Y-13.039 E418.63113
G1 X-2.227 Y-14.125 E419.52939
G1 X-2.015 Y-15.212 E422.50167
G1 X-1.79 Y-15.755 E424.09500
G1 X-1.464 Y-16.299 E436.13364
G1 X-1.031 Y-16.842 E436.72908
G1 X.589 Y-18.472 E437.54823
G1 X1.351 Y-19.44 E438.44748
G1 X10.659 Y-19.44 E441.41886
G1 X10.482 Y-19.015 E443.19879
G1 X10.156 Y-18.472 E444.75282
G1 X9.723 Y-17.928 E446.19414
G1 X8.103 Y-16.299 E447.60063
G1 X7.259 Y-15.212 E449.03175
G1 X6.747 Y-14.125 E449.79363
G1 X6.497 Y-13.039 E450.61278
G1 X6.465 Y-11.952 E451.51104
G1 X6.677 Y-10.866 E454.48332
G1 X6.903 Y-10.322 E456.26325
G1 X7.229 Y-9.779 E457.81611
G1 X7.662 Y-9.236 E459.25869
G1 X9.282 Y-7.606 E460.66389
G1 X10.126 Y-6.519 E462.09627
G1 X10.638 Y-5.433 E462.85698
G1 X10.888 Y-4.346 E463.67613
G1 X10.92 Y-3.26 E464.57538
G1 X10.708 Y-2.173 E467.54766
G1 X10.482 Y-1.63 E469.32657
G1 X10.156 Y-1.087 E470.88060
G1 X9.723 Y-.543 E472.32192
G1 X8.103 Y1.087 E473.72841
G1 X7.259 Y2.173 E475.15953
G1 X6.747 Y3.26 E475.92141
G1 X6.497 Y4.346 E476.74056
G1 X6.465 Y5.433 E477.63882
G1 X6.677 Y6.519 E480.61110
G1 X6.903 Y7.063 E482.39103
G1 X7.229 Y7.606 E483.94389
G1 X7.662 Y8.149 E485.38647
G1 X9.282 Y9.779 E486.79167
G1 X10.126 Y10.866 E488.22405
G1 X10.638 Y11.952 E488.98476
G1 X10.888 Y13.039 E489.80502
G1 X10.92 Y14.125 E490.70328
G1 X10.708 Y15.212 E493.67556
G1 X10.482 Y15.755 E495.26889
G1 X10.156 Y16.299 E505.71669
G1 X9.723 Y16.842 E506.31213
G1 X8.103 Y18.472 E507.13128
G1 X7.341 Y19.44 E508.03053
G1 X15.419 Y19.44 E511.00191
G1 X15.596 Y19.015 E511.92834
G1 X15.922 Y18.472 E512.78406
G1 X16.355 Y17.928 E514.33755
G1 X17.975 Y16.299 E171.92639
G1 X18.441 Y15.755 E172.39522
G1 X18.819 Y15.212 E518.61702
G1 X19.33 Y14.125 E519.37842
G1 X19.581 Y13.039 E520.19757
G1 X19.613 Y11.952 E521.09583
G1 X19.4 Y10.866 E524.06811
G1 X19.175 Y10.322 E525.84804
G1 X18.849 Y9.779 E527.40090
G1 X18.416 Y9.236 E528.84378
G1 X16.796 Y7.606 E530.24895
G1 X15.952 Y6.519 E531.68133
G1 X15.44 Y5.433 E532.44204
G1 X15.189 Y4.346 E533.26119
G1 X15.158 Y3.26 E534.16044
G1 X15.37 Y2.173 E537.13272
G1 X15.596 Y1.63 E538.91163
G1 X15.922 Y1.087 E540.46512
G1 X16.355 Y.543 E180.63558
G1 X17.975 Y-1.087 E181.10441
G1 X18.819 Y-2.173 E544.74459
G1 X19.33 Y-3.26 E545.50599
G1 X19.581 Y-4.346 E546.32514
G1 X19.613 Y-5.433 E547.22340
G1 X19.4 Y-6.519 E550.19568
G1 X19.175 Y-7.063 E551.97561
G1 X18.849 Y-7.606 E553.52847
G1 X18.416 Y-8.149 E554.97135
G1 X16.796 Y-9.779 E556.37652
G1 X15.952 Y-10.866 E557.80890
G1 X15.44 Y-11.952 E558.56961
G1 X15.189 Y-13.039 E559.38987
G1 X15.158 Y-14.125 E560.28813
G1 X15.37 Y-15.212 E563.26041
G1 X15.596 Y-15.755 E564.85296
G1 X15.922 Y-16.299 E192.29720
G1 X16.355 Y-16.842 E192.49568
G1 X17.975 Y-18.472 E192.76873
G1 X18.736 Y-19.44 E193.06848
G1 X28.044 Y-19.44 E194.05894
G1 X27.867 Y-19.015 E194.65225
G1 X27.541 Y-18.472 E195.17026
G1 X27.108 Y-17.928 E195.65070
G1 X25.488 Y-16.299 E196.11953
G1 X24.644 Y-15.212 E196.59665
G1 X24.132 Y-14.125 E196.85045
G1 X23.882 Y-13.039 E197.12350
G1 X23.85 Y-11.952 E197.42292
G1 X24.063 Y-10.866 E198.41368
G1 X24.288 Y-10.322 E199.00699
G1 X24.614 Y-9.779 E199.52461
G1 X25.047 Y-9.236 E200.00557
G1 X26.667 Y-7.606 E200.47396
G1 X27.511 Y-6.519 E200.95142
G1 X28.023 Y-5.433 E201.20499
G1 X28.274 Y-4.346 E201.47804
G1 X28.305 Y-3.26 E201.77779
G1 X28.093 Y-2.173 E202.76855
G1 X27.867 Y-1.63 E203.36152
G1 X27.541 Y-1.087 E203.87953
G1 X27.108 Y-.543 E204.35997
G1 X25.488 Y1.087 E204.82880
G1 X24.644 Y2.173 E205.30592
G1 X24.132 Y3.26 E205.55972
G1 X23.882 Y4.346 E205.83277
G1 X23.85 Y5.433 E206.13219
G1 X24.063 Y6.519 E207.12295
G1 X24.288 Y7.063 E207.71626
G1 X24.614 Y7.606 E208.23388
G1 X25.047 Y8.149 E208.71484
G1 X26.667 Y9.779 E209.18323
G1 X27.511 Y10.866 E209.66069
G1 X28.023 Y11.952 E209.91426
G1 X28.274 Y13.039 E210.18768
G1 X28.305 Y14.125 E210.48710
G1 X28.093 Y15.212 E211.47786
G1 X27.867 Y15.755 E212.00897
G1 X27.541 Y16.299 E215.49157
G1 X27.108 Y16.842 E215.69005
G1 X25.488 Y18.472 E215.96310
G1 X24.726 Y19.44 E216.26285
G1 X32.804 Y19.44 E217.25331
G1 X32.981 Y19.015 E217.56212
G1 X33.307 Y18.472 E217.84736
G1 X33.74 Y17.928 E218.36537
G1 X35.36 Y16.299 E218.84581
G1 X35.826 Y15.755 E219.31464
G1 X36.204 Y15.212 E219.79168
G1 X36.716 Y14.125 E220.04564
G1 X36.966 Y13.039 E220.31869
G1 X36.998 Y11.952 E220.61811
G1 X36.786 Y10.866 E221.60887
G1 X36.56 Y10.322 E222.20218
G1 X36.234 Y9.779 E222.71980
G1 X35.801 Y9.236 E223.20066
G1 X34.181 Y7.606 E223.66906
G1 X33.337 Y6.519 E224.14652
G1 X32.825 Y5.433 E224.40009
G1 X32.575 Y4.346 E224.67314
G1 X32.543 Y3.26 E224.97289
G1 X32.755 Y2.173 E225.96365
G1 X32.981 Y1.63 E226.55662
G1 X33.307 Y1.087 E227.07463
G1 X33.74 Y.543 E227.55507
G1 X35.36 Y-1.087 E228.02390
G1 X36.204 Y-2.173 E228.50094
G1 X36.716 Y-3.26 E228.75490
G1 X36.966 Y-4.346 E229.02795
G1 X36.998 Y-5.433 E229.32737
G1 X36.786 Y-6.519 E230.31813
G1 X36.56 Y-7.063 E230.91144
G1 X36.234 Y-7.606 E231.42906
G1 X35.801 Y-8.149 E231.90992
G1 X34.181 Y-9.779 E232.37832
G1 X33.337 Y-10.866 E232.85578
G1 X32.825 Y-11.952 E233.10935
G1 X32.575 Y-13.039 E233.38277
G1 X32.543 Y-14.125 E233.68219
G1 X32.755 Y-15.212 E234.67295
G1 X32.981 Y-15.755 E235.20406
G1 X33.307 Y-16.299 E239.21651
G1 X33.74 Y-16.842 E239.41483
G1 X35.36 Y-18.472 E239.68788
G1 X36.122 Y-19.44 E239.98763
G1 X45.429 Y-19.44 E240.97839
G1 X45.253 Y-19.015 E241.57170
G1 X44.927 Y-18.472 E242.08953
G1 X44.494 Y-17.928 E242.57007
G1 X42.873 Y-16.299 E243.03889
G1 X42.029 Y-15.212 E243.51593
G1 X41.518 Y-14.125 E243.76973
G1 X41.267 Y-13.039 E244.04278
G1 X41.236 Y-11.952 E244.34220
G1 X41.448 Y-10.866 E245.33296
G1 X41.673 Y-10.322 E245.92653
G1 X41.999 Y-9.779 E246.44397
G1 X42.432 Y-9.236 E246.92493
G1 X44.052 Y-7.606 E247.39332
G1 X44.897 Y-6.519 E247.87078
G1 X45.408 Y-5.433 E248.12418
G1 X45.659 Y-4.346 E248.39723
G1 X45.69 Y-3.26 E248.69698
G1 X45.478 Y-2.173 E249.68805
G1 X45.253 Y-1.63 E250.28102
G1 X44.927 Y-1.087 E250.79885
G1 X44.494 Y-.543 E251.27939
G1 X42.873 Y1.087 E251.74821
G1 X42.029 Y2.173 E252.22525
G1 X41.518 Y3.26 E252.47905
G1 X41.267 Y4.346 E252.75210
G1 X41.236 Y5.433 E253.05152
G1 X41.448 Y6.519 E254.04228
G1 X41.673 Y7.063 E254.63585
G1 X41.999 Y7.606 E255.15329
G1 X42.432 Y8.149 E255.63425
G1 X44.052 Y9.779 E256.10264
G1 X44.897 Y10.866 E256.58010
G1 X45.408 Y11.952 E256.83350
G1 X45.659 Y13.039 E257.10692
G1 X45.69 Y14.125 E257.40634
G1 X45.478 Y15.212 E258.39741
G1 X45.253 Y15.755 E258.92826
G1 X44.927 Y16.299 E262.41043
G1 X44.494 Y16.842 E262.60891
G1 X42.873 Y18.472 E262.88196
G1 X42.112 Y19.44 E263.18171
G1 X50.189 Y19.44 E264.17217
G1 X50.366 Y19.015 E264.48098
G1 X50.692 Y18.472 E265.03134
G1 X51.125 Y17.928 E265.28416
G1 X52.745 Y16.299 E265.76460
G1 X53.211 Y15.755 E266.23343
G1 X53.882 Y14.669 E266.71047
G1 X54.101 Y14.125 E266.96443
G1 X54.351 Y13.039 E267.23748
G1 X54.383 Y11.952 E267.53690
G1 X54.171 Y10.866 E268.52766
G1 X53.945 Y10.322 E269.12097
G1 X53.619 Y9.779 E269.63859
G1 X53.186 Y9.236 E270.11945
G1 X51.566 Y7.606 E270.58785
G1 X50.722 Y6.519 E271.06531
G1 X50.21 Y5.433 E271.31888
G1 X49.96 Y4.346 E271.59193
G1 X49.928 Y3.26 E271.89168
