; generated by PrusaSlicer 2.9.0 on 2025-02-10 at 15:40:57 UTC

; 

; external perimeters extrusion width = 1.12mm
; perimeters extrusion width = 1.12mm
; infill extrusion width = 1.12mm
; solid infill extrusion width = 1.12mm
; top infill extrusion width = 1.00mm
; first layer extrusion width = 1.05mm

M190 S25 ; set bed temperature and wait for it to be reached
;TYPE:Custom
G28 H ; home all axes
G92 E0 ; zero extruder
M6
M220 S100
M221 S100
M104 S200 T0
M104 S160 T1

M109 S200 T0
M109 S160 T1
G21 ; set units to millimeters
G90 ; use absolute coordinates
M82 ; use absolute distances for extrusion
G92 E0
M107
;LAYER_CHANGE
;Z:0.5
;HEIGHT:0.5
G1 E27.86729 F2400
G92 E0
G1 Z.5 F7800
G1 X0 Y-25.471
G1 E28.76531 F2400
;TYPE:Skirt/Brim
;WIDTH:1.05
G1 F1500
G1 X60 Y-25.471 E29.66313
G1 X62.045 Y-25.075 E30.56104
G1 X63.793 Y-23.943 E31.54859
G1 X64.992 Y-22.24 E48.79345
G1 X65.471 Y-20 E49.69147
G1 X65.471 Y20 E50.58929
G1 X65.075 Y22.045 E51.48720
G1 X63.943 Y23.793 E52.47475
G1 X62.24 Y24.992 E104.20934
G1 X60 Y25.471 E105.10736
G1 X-60 Y25.471 E106.00518
G1 X-62.045 Y25.075 E106.90309
G1 X-63.793 Y23.943 E107.89064
G1 X-64.992 Y22.24 E125.13550
G1 X-65.471 Y20 E126.03352
G1 X-65.471 Y-20 E126.93134
G1 X-65.075 Y-22.045 E127.82925
G1 X-63.943 Y-23.793 E128.81680
G1 X-62.24 Y-24.992 E154.61943
G1 X-60 Y-25.471 E4.61949
G1 X-.15 Y-25.471 E4.81781
G1 E5.09086 F2400
G92 E0
G1 X-.15 Y-25.471 F7800
G92 E0
G1 X-47.573 Y-19.44
G1 E5.39061 F2400
;TYPE:Internal infill
G1 F1500
G1 X-41.497 Y-19.44 E6.38107
G1 X-41.673 Y-19.015 E6.97464
G1 X-41.999 Y-18.472 E7.49247
G1 X-42.432 Y-17.928 E7.97301
G1 X-44.052 Y-16.299 E8.44183
G1 X-44.897 Y-15.212 E8.91887
G1 X-45.408 Y-14.125 E9.17267
G1 X-45.659 Y-13.039 E9.44572
G1 X-45.69 Y-11.952 E9.74514
G1 X-45.478 Y-10.866 E10.73621
G1 X-45.253 Y-10.322 E11.32952
G1 X-44.927 Y-9.779 E11.84696
G1 X-44.494 Y-9.236 E12.32792
G1 X-42.873 Y-7.606 E12.79632
G1 X-42.029 Y-6.519 E13.27386
G1 X-41.518 Y-5.433 E13.52726
G1 X-41.267 Y-4.346 E13.80031
G1 X-41.235 Y-3.26 E14.10006
G1 X-41.448 Y-2.173 E15.09082
G1 X-41.673 Y-1.63 E15.68405
G1 X-41.999 Y-1.087 E16.20188
G1 X-42.432 Y-.543 E16.68242
G1 X-44.052 Y1.087 E17.15124
G1 X-44.897 Y2.173 E17.62828
G1 X-45.408 Y3.26 E17.88208
G1 X-45.659 Y4.346 E18.15513
G1 X-45.69 Y5.433 E18.45455
G1 X-45.478 Y6.519 E19.44562
G1 X-45.253 Y7.063 E20.03893
G1 X-44.927 Y7.606 E20.55637
G1 X-44.494 Y8.149 E21.03733
G1 X-42.873 Y9.779 E21.50573
G1 X-42.029 Y10.866 E21.98327
G1 X-41.518 Y11.952 E22.23667
G1 X-41.267 Y13.039 E22.51009
G1 X-41.235 Y14.125 E22.80951
G1 X-41.448 Y15.212 E23.80027
G1 X-41.673 Y15.755 E24.33138
G1 X-41.999 Y16.299 E27.81398
G1 X-42.432 Y16.842 E28.01230
G1 X-44.052 Y18.472 E28.28535
G1 X-44.814 Y19.44 E28.58510
G1 X-36.736 Y19.44 E29.57556
G1 X-36.56 Y19.015 E29.88437
G1 X-36.234 Y18.472 E30.16961
G1 X-35.801 Y17.928 E30.68762
G1 X-34.181 Y16.299 E31.16816
G1 X-33.715 Y15.755 E31.63698
G1 X-33.337 Y15.212 E32.11402
G1 X-32.825 Y14.125 E32.36798
G1 X-32.574 Y13.039 E32.64103
G1 X-32.543 Y11.952 E32.94045
G1 X-32.755 Y10.866 E33.93121
G1 X-32.981 Y10.322 E34.52452
G1 X-33.307 Y9.779 E35.04214
G1 X-33.74 Y9.236 E35.52300
G1 X-35.36 Y7.606 E35.99140
G1 X-36.204 Y6.519 E36.46886
G1 X-36.716 Y5.433 E36.72243
G1 X-36.966 Y4.346 E36.99548
G1 X-36.998 Y3.26 E37.29523
G1 X-36.786 Y2.173 E38.28599
G1 X-36.56 Y1.63 E38.87896
G1 X-36.234 Y1.087 E39.39697
G1 X-35.801 Y.543 E39.87751
G1 X-34.181 Y-1.087 E40.34633
G1 X-33.337 Y-2.173 E40.82337
G1 X-32.825 Y-3.26 E41.07733
G1 X-32.574 Y-4.346 E41.35038
G1 X-32.543 Y-5.433 E41.64980
G1 X-32.755 Y-6.519 E42.64056
G1 X-32.981 Y-7.063 E43.23387
G1 X-33.307 Y-7.606 E43.75149
G1 X-33.74 Y-8.149 E44.23235
G1 X-35.36 Y-9.779 E44.70075
G1 X-36.204 Y-10.866 E45.17821
G1 X-36.716 Y-11.952 E45.43178
G1 X-36.966 Y-13.039 E45.70520
G1 X-36.998 Y-14.125 E46.00462
G1 X-36.786 Y-15.212 E46.99538
G1 X-36.56 Y-15.755 E47.52649
G1 X-36.234 Y-16.299 E103.07788
G1 X-35.801 Y-16.842 E103.47452
G1 X-34.181 Y-18.472 E104.02062
G1 X-33.419 Y-19.44 E104.62012
G1 X-24.112 Y-19.44 E106.60104
G1 X-24.288 Y-19.015 E107.78766
G1 X-24.614 Y-18.472 E54.41184
G1 X-25.047 Y-17.928 E54.89238
G1 X-26.667 Y-16.299 E55.36120
G1 X-27.511 Y-15.212 E55.83824
G1 X-28.023 Y-14.125 E56.09220
G1 X-28.274 Y-13.039 E112.73050
G1 X-28.305 Y-11.952 E113.32934
G1 X-28.093 Y-10.866 E115.31086
G1 X-27.867 Y-10.322 E116.49748
G1 X-27.541 Y-9.779 E117.53272
G1 X-27.108 Y-9.236 E118.49444
G1 X-25.488 Y-7.606 E119.43124
G1 X-24.644 Y-6.519 E120.38632
G1 X-24.132 Y-5.433 E120.89312
G1 X-23.882 Y-4.346 E121.43922
G1 X-23.85 Y-3.26 E122.03872
G1 X-24.063 Y-2.173 E124.02024
G1 X-24.288 Y-1.63 E125.20618
G1 X-24.614 Y-1.087 E63.12110
G1 X-25.047 Y-.543 E63.60164
G1 X-26.667 Y1.087 E64.07046
G1 X-27.511 Y2.173 E64.54750
G1 X-28.023 Y3.26 E64.80146
G1 X-28.274 Y4.346 E130.14902
G1 X-28.305 Y5.433 E130.74786
G1 X-28.093 Y6.519 E132.72938
G1 X-27.867 Y7.063 E133.91600
G1 X-27.541 Y7.606 E134.95124
G1 X-27.108 Y8.149 E135.91296
G1 X-25.488 Y9.779 E136.84976
G1 X-24.644 Y10.866 E137.80484
G1 X-24.132 Y11.952 E138.31164
G1 X-23.882 Y13.039 E138.85848
G1 X-23.85 Y14.125 E139.45732
G1 X-24.063 Y15.212 E141.43884
G1 X-24.288 Y15.755 E142.50106
G1 X-24.614 Y16.299 E149.46626
G1 X-25.047 Y16.842 E149.86290
G1 X-26.667 Y18.472 E150.40900
G1 X-27.429 Y19.44 E151.00850
G1 X-19.351 Y19.44 E152.98942
G1 X-19.175 Y19.015 E153.60704
G1 X-18.849 Y18.472 E154.17800
G1 X-18.416 Y17.928 E155.21366
G1 X-16.796 Y16.299 E156.17474
G1 X-16.33 Y15.755 E157.11238
G1 X-15.951 Y15.212 E158.06646
G1 X-15.44 Y14.125 E158.57438
G1 X-15.189 Y13.039 E159.12048
G1 X-15.158 Y11.952 E159.71932
G1 X-15.37 Y10.866 E161.70084
G1 X-15.596 Y10.322 E162.88746
G1 X-15.922 Y9.779 E163.92234
G1 X-16.355 Y9.236 E164.88426
G1 X-17.975 Y7.606 E165.82106
G1 X-18.819 Y6.519 E166.77614
G1 X-19.33 Y5.433 E167.28294
G1 X-19.581 Y4.346 E167.82904
G1 X-19.613 Y3.26 E168.42854
G1 X-19.4 Y2.173 E170.41006
G1 X-19.175 Y1.63 E171.59652
G1 X-18.849 Y1.087 E172.63218
G1 X-18.416 Y.543 E173.59326
G1 X-16.796 Y-1.087 E174.53090
G1 X-15.951 Y-2.173 E175.48498
G1 X-15.44 Y-3.26 E175.99290
G1 X-15.189 Y-4.346 E176.53900
G1 X-15.158 Y-5.433 E177.13784
G1 X-15.37 Y-6.519 E179.11936
G1 X-15.596 Y-7.063 E180.30598
G1 X-15.922 Y-7.606 E181.34086
G1 X-16.355 Y-8.149 E182.30278
G1 X-17.975 Y-9.779 E183.23958
G1 X-18.819 Y-10.866 E184.19466
G1 X-19.33 Y-11.952 E184.70146
G1 X-19.581 Y-13.039 E185.24830
G1 X-19.613 Y-14.125 E185.84714
G1 X-19.4 Y-15.212 E187.82866
G1 X-19.175 Y-15.755 E188.89088
G1 X-18.849 Y-16.299 E196.91664
G1 X-18.416 Y-16.842 E197.31360
G1 X-16.796 Y-18.472 E197.85970
G1 X-16.034 Y-19.44 E198.45920
G1 X-6.726 Y-19.44 E200.44012
G1 X-6.903 Y-19.015 E201.62674
G1 X-7.229 Y-18.472 E202.66276
G1 X-7.662 Y-17.928 E203.62364
G1 X-9.282 Y-16.299 E204.56130
G1 X-10.126 Y-15.212 E205.51538
G1 X-10.638 Y-14.125 E206.02330
G1 X-10.888 Y-13.039 E206.56940
G1 X-10.92 Y-11.952 E207.16824
G1 X-10.708 Y-10.866 E209.14976
G1 X-10.482 Y-10.322 E210.33638
G1 X-10.156 Y-9.779 E211.37162
G1 X-9.723 Y-9.236 E212.33334
G1 X-8.103 Y-7.606 E213.27014
G1 X-7.259 Y-6.519 E214.22506
G1 X-6.747 Y-5.433 E214.73220
G1 X-6.497 Y-4.346 E215.27830
G1 X-6.465 Y-3.26 E215.87780
G1 X-6.677 Y-2.173 E217.85932
G1 X-6.903 Y-1.63 E219.04526
G1 X-7.229 Y-1.087 E220.08128
G1 X-7.662 Y-.543 E221.04216
G1 X-9.282 Y1.087 E221.97982
G1 X-10.126 Y2.173 E222.93390
G1 X-10.638 Y3.26 E223.44182
G1 X-10.888 Y4.346 E223.98792
G1 X-10.92 Y5.433 E224.58676
G1 X-10.708 Y6.519 E226.56828
G1 X-10.482 Y7.063 E227.75490
G1 X-10.156 Y7.606 E228.79014
G1 X-9.723 Y8.149 E229.75186
G1 X-8.103 Y9.779 E230.68866
G1 X-7.259 Y10.866 E231.64358
G1 X-6.747 Y11.952 E232.15072
G1 X-6.497 Y13.039 E232.69756
G1 X-6.465 Y14.125 E233.29640
G1 X-6.677 Y15.212 E235.27792
G1 X-6.903 Y15.755 E236.34014
G1 X-7.229 Y16.299 E243.30534
G1 X-7.662 Y16.842 E243.70198
G1 X-9.282 Y18.472 E244.24808
G1 X-10.044 Y19.44 E244.84758
G1 X-1.966 Y19.44 E246.82850
G1 X-1.79 Y19.015 E247.44612
G1 X-1.464 Y18.472 E248.01708
G1 X-1.031 Y17.928 E249.05274
G1 X.589 Y16.299 E250.01382
G1 X1.055 Y15.755 E250.95146
G1 X1.434 Y15.212 E251.90554
G1 X1.945 Y14.125 E252.41314
G1 X2.196 Y13.039 E252.95924
G1 X2.227 Y11.952 E253.55808
G1 X2.015 Y10.866 E255.53960
G1 X1.79 Y10.322 E256.72674
G1 X1.464 Y9.779 E257.76162
G1 X1.031 Y9.236 E258.72354
G1 X-.589 Y7.606 E259.66032
G1 X-1.434 Y6.519 E260.61524
G1 X-1.945 Y5.433 E261.12204
G1 X-2.196 Y4.346 E261.66814
G1 X-2.227 Y3.26 E262.26764
G1 X-2.015 Y2.173 E264.24916
G1 X-1.79 Y1.63 E265.43562
G1 X-1.464 Y1.087 E266.47128
G1 X-1.031 Y.543 E267.43236
G1 X.589 Y-1.087 E268.37000
G1 X1.434 Y-2.173 E269.32408
G1 X1.945 Y-3.26 E269.83168
G1 X2.196 Y-4.346 E270.37778
G1 X2.227 Y-5.433 E270.97662
G1 X2.015 Y-6.519 E272.95814
G1 X1.79 Y-7.063 E274.14528
G1 X1.464 Y-7.606 E275.18016
G1 X1.031 Y-8.149 E276.14208
G1 X-.589 Y-9.779 E277.07886
G1 X-1.434 Y-10.866 E278.03378
G1 X-1.945 Y-11.952 E278.54058
G1 X-2.196 Y-13.039 E279.08742
G1 X-2.227 Y-14.125 E279.68626
G1 X-2.015 Y-15.212 E281.66778
G1 X-1.79 Y-15.755 E282.73000
G1 X-1.464 Y-16.299 E290.75576
G1 X-1.031 Y-16.842 E291.15272
G1 X.589 Y-18.472 E291.69882
G1 X1.351 Y-19.44 E292.29832
G1 X10.659 Y-19.44 E294.27924
G1 X10.482 Y-19.015 E295.46586
G1 X10.156 Y-18.472 E296.50188
G1 X9.723 Y-17.928 E297.46276
G1 X8.103 Y-16.299 E298.40042
G1 X7.259 Y-15.212 E299.35450
G1 X6.747 Y-14.125 E299.86242
G1 X6.497 Y-13.039 E300.40852
G1 X6.465 Y-11.952 E301.00736
G1 X6.677 Y-10.866 E302.98888
G1 X6.903 Y-10.322 E304.17550
G1 X7.229 Y-9.779 E305.21074
G1 X7.662 Y-9.236 E306.17246
G1 X9.282 Y-7.606 E307.10926
G1 X10.126 Y-6.519 E308.06418
G1 X10.638 Y-5.433 E308.57132
G1 X10.888 Y-4.346 E309.11742
G1 X10.92 Y-3.26 E309.71692
G1 X10.708 Y-2.173 E311.69844
G1 X10.482 Y-1.63 E312.88438
G1 X10.156 Y-1.087 E313.92040
G1 X9.723 Y-.543 E314.88128
G1 X8.103 Y1.087 E315.81894
G1 X7.259 Y2.173 E316.77302
G1 X6.747 Y3.26 E317.28094
G1 X6.497 Y4.346 E317.82704
G1 X6.465 Y5.433 E318.42588
G1 X6.677 Y6.519 E320.40740
G1 X6.903 Y7.063 E321.59402
G1 X7.229 Y7.606 E322.62926
G1 X7.662 Y8.149 E323.59098
G1 X9.282 Y9.779 E324.52778
G1 X10.126 Y10.866 E325.48270
G1 X10.638 Y11.952 E325.98984
G1 X10.888 Y13.039 E326.53668
G1 X10.92 Y14.125 E327.13552
G1 X10.708 Y15.212 E329.11704
G1 X10.482 Y15.755 E330.17926
G1 X10.156 Y16.299 E505.71669
G1 X9.723 Y16.842 E506.31213
G1 X8.103 Y18.472 E507.13128
G1 X7.341 Y19.44 E508.03053
G1 X15.419 Y19.44 E511.00191
G1 X15.596 Y19.015 E511.92834
G1 X15.922 Y18.472 E512.78406
G1 X16.355 Y17.928 E514.33755
G1 X17.975 Y16.299 E515.77917
G1 X18.441 Y15.755 E517.18566
G1 X18.819 Y15.212 E518.61702
G1 X19.33 Y14.125 E519.37842
G1 X19.581 Y13.039 E520.19757
G1 X19.613 Y11.952 E521.09583
G1 X19.4 Y10.866 E524.06811
G1 X19.175 Y10.322 E525.84804
G1 X18.849 Y9.779 E527.40090
G1 X18.416 Y9.236 E528.84378
G1 X16.796 Y7.606 E530.24895
G1 X15.952 Y6.519 E531.68133
G1 X15.44 Y5.433 E532.44204
G1 X15.189 Y4.346 E533.26119
G1 X15.158 Y3.26 E534.16044
G1 X15.37 Y2.173 E537.13272
G1 X15.596 Y1.63 E538.91163
G1 X15.922 Y1.087 E540.46512
G1 X16.355 Y.543 E541.90674
G1 X17.975 Y-1.087 E543.31323
G1 X18.819 Y-2.173 E544.74459
G1 X19.33 Y-3.26 E545.50599
G1 X19.581 Y-4.346 E546.32514
G1 X19.613 Y-5.433 E547.22340
G1 X19.4 Y-6.519 E550.19568
G1 X19.175 Y-7.063 E551.97561
G1 X18.849 Y-7.606 E553.52847
G1 X18.416 Y-8.149 E554.97135
G1 X16.796 Y-9.779 E556.37652
G1 X15.952 Y-10.866 E557.80890
G1 X15.44 Y-11.952 E558.56961
G1 X15.189 Y-13.039 E559.38987
G1 X15.158 Y-14.125 E560.28813
G1 X15.37 Y-15.212 E563.26041
G1 X15.596 Y-15.755 E564.85296
G1 X15.922 Y-16.299 E576.89160
G1 X16.355 Y-16.842 E577.48704
G1 X17.975 Y-18.472 E578.30619
G1 X18.736 Y-19.44 E579.20544
G1 X28.044 Y-19.44 E582.17682
G1 X27.867 Y-19.015 E583.95675
G1 X27.541 Y-18.472 E585.51078
G1 X27.108 Y-17.928 E586.95210
G1 X25.488 Y-16.299 E588.35859
G1 X24.644 Y-15.212 E589.78995
G1 X24.132 Y-14.125 E590.55135
G1 X23.882 Y-13.039 E591.37050
G1 X23.85 Y-11.952 E592.26876
G1 X24.063 Y-10.866 E595.24104
G1 X24.288 Y-10.322 E597.02097
G1 X24.614 Y-9.779 E598.57383
G1 X25.047 Y-9.236 E600.01671
G1 X26.667 Y-7.606 E601.42188
G1 X27.511 Y-6.519 E602.85426
G1 X28.023 Y-5.433 E603.61497
G1 X28.274 Y-4.346 E604.43412
G1 X28.305 Y-3.26 E605.33337
G1 X28.093 Y-2.173 E608.30565
G1 X27.867 Y-1.63 E610.08456
G1 X27.541 Y-1.087 E611.63859
G1 X27.108 Y-.543 E613.07991
G1 X25.488 Y1.087 E614.48640
G1 X24.644 Y2.173 E615.91776
G1 X24.132 Y3.26 E616.67916
G1 X23.882 Y4.346 E617.49831
G1 X23.85 Y5.433 E618.39657
G1 X24.063 Y6.519 E621.36885
G1 X24.288 Y7.063 E623.14878
G1 X24.614 Y7.606 E624.70164
G1 X25.047 Y8.149 E626.14452
G1 X26.667 Y9.779 E627.54969
G1 X27.511 Y10.866 E628.98207
G1 X28.023 Y11.952 E629.74278
G1 X28.274 Y13.039 E630.56304
G1 X28.305 Y14.125 E631.46130
G1 X28.093 Y15.212 E634.43358
G1 X27.867 Y15.755 E636.02691
G1 X27.541 Y16.299 E646.47471
G1 X27.108 Y16.842 E647.07015
G1 X25.488 Y18.472 E647.88930
G1 X24.726 Y19.44 E648.78855
G1 X32.804 Y19.44 E651.75993
G1 X32.981 Y19.015 E652.68636
G1 X33.307 Y18.472 E653.54208
G1 X33.74 Y17.928 E655.09611
G1 X35.36 Y16.299 E656.53743
G1 X35.826 Y15.755 E657.94392
G1 X36.204 Y15.212 E659.37504
G1 X36.716 Y14.125 E660.13692
G1 X36.966 Y13.039 E660.95607
G1 X36.998 Y11.952 E661.85433
G1 X36.786 Y10.866 E664.82661
G1 X36.56 Y10.322 E666.60654
G1 X36.234 Y9.779 E668.15940
G1 X35.801 Y9.236 E669.60198
G1 X34.181 Y7.606 E671.00718
G1 X33.337 Y6.519 E672.43956
G1 X32.825 Y5.433 E673.20027
G1 X32.575 Y4.346 E674.01942
G1 X32.543 Y3.26 E674.91867
G1 X32.755 Y2.173 E677.89095
G1 X32.981 Y1.63 E679.66986
G1 X33.307 Y1.087 E681.22389
G1 X33.74 Y.543 E682.66521
G1 X35.36 Y-1.087 E684.07170
G1 X36.204 Y-2.173 E685.50282
G1 X36.716 Y-3.26 E686.26470
G1 X36.966 Y-4.346 E687.08385
G1 X36.998 Y-5.433 E687.98211
G1 X36.786 Y-6.519 E690.95439
G1 X36.56 Y-7.063 E692.73432
G1 X36.234 Y-7.606 E694.28718
G1 X35.801 Y-8.149 E695.72976
G1 X34.181 Y-9.779 E697.13496
G1 X33.337 Y-10.866 E698.56734
G1 X32.825 Y-11.952 E699.32805
G1 X32.575 Y-13.039 E700.14831
G1 X32.543 Y-14.125 E701.04657
G1 X32.755 Y-15.212 E704.01885
G1 X32.981 Y-15.755 E705.61218
G1 X33.307 Y-16.299 E717.64953
G1 X33.74 Y-16.842 E718.24449
G1 X35.36 Y-18.472 E719.06364
G1 X36.122 Y-19.44 E719.96289
G1 X45.429 Y-19.44 E722.93517
G1 X45.253 Y-19.015 E724.71510
G1 X44.927 Y-18.472 E726.26859
G1 X44.494 Y-17.928 E727.71021
G1 X42.873 Y-16.299 E729.11667
G1 X42.029 Y-15.212 E730.54779
G1 X41.518 Y-14.125 E731.30919
G1 X41.267 Y-13.039 E732.12834
G1 X41.236 Y-11.952 E733.02660
G1 X41.448 Y-10.866 E735.99888
G1 X41.673 Y-10.322 E737.77959
G1 X41.999 Y-9.779 E739.33191
G1 X42.432 Y-9.236 E740.77479
G1 X44.052 Y-7.606 E742.17996
G1 X44.897 Y-6.519 E743.61234
G1 X45.408 Y-5.433 E744.37254
G1 X45.659 Y-4.346 E745.19169
G1 X45.69 Y-3.26 E746.09094
G1 X45.478 Y-2.173 E749.06415
G1 X45.253 Y-1.63 E750.84306
G1 X44.927 Y-1.087 E752.39655
G1 X44.494 Y-.543 E753.83817
G1 X42.873 Y1.087 E755.24463
G1 X42.029 Y2.173 E756.67575
G1 X41.518 Y3.26 E757.43715
G1 X41.267 Y4.346 E758.25630
G1 X41.236 Y5.433 E759.15456
G1 X41.448 Y6.519 E762.12684
G1 X41.673 Y7.063 E763.90755
G1 X41.999 Y7.606 E765.45987
G1 X42.432 Y8.149 E766.90275
G1 X44.052 Y9.779 E768.30792
G1 X44.897 Y10.866 E769.74030
G1 X45.408 Y11.952 E770.50050
G1 X45.659 Y13.039 E771.32076
G1 X45.69 Y14.125 E772.21902
G1 X45.478 Y15.212 E775.19223
G1 X45.253 Y15.755 E776.78478
G1 X44.927 Y16.299 E787.23129
G1 X44.494 Y16.842 E787.82673
G1 X42.873 Y18.472 E788.64588
G1 X42.112 Y19.44 E789.54513
G1 X50.189 Y19.44 E792.51651
G1 X50.366 Y19.015 E793.44294
G1 X50.692 Y18.472 E795.09402
G1 X51.125 Y17.928 E795.85248
G1 X52.745 Y16.299 E797.29380
G1 X53.211 Y15.755 E798.70029
G1 X53.882 Y14.669 E800.13141
G1 X54.101 Y14.125 E800.89329
G1 X54.351 Y13.039 E801.71244
G1 X54.383 Y11.952 E802.61070
G1 X54.171 Y10.866 E805.58298
G1 X53.945 Y10.322 E807.36291
G1 X53.619 Y9.779 E808.91577
G1 X53.186 Y9.236 E810.35835
G1 X51.566 Y7.606 E811.76355
G1 X50.722 Y6.519 E813.19593
G1 X50.21 Y5.433 E813.95664
G1 X49.96 Y4.346 E814.77579
G1 X49.928 Y3.26 E815.67504
G1 X50.14 Y2.173 E818.64732
