; generated by PrusaSlicer 2.9.0 on 2025-02-10 at 15:40:57 UTC

; 

; external perimeters extrusion width = 1.12mm
; perimeters extrusion width = 1.12mm
; infill extrusion width = 1.12mm
; solid infill extrusion width = 1.12mm
; top infill extrusion width = 1.00mm
; first layer extrusion width = 1.05mm

M190 S25 ; set bed temperature and wait for it to be reached
;TYPE:Custom
G28 H ; home all axes
G92 E0 ; zero extruder
M6
M220 S100
M221 S100
M104 S200 T0
M104 S160 T1

M109 S200 T0
M109 S160 T1
G21 ; set units to millimeters
G90 ; use absolute coordinates
M82 ; use absolute distances for extrusion
G92 E0
M107
;LAYER_CHANGE
;Z:0.5
;HEIGHT:0.5
G1 E0.00000 F2400
G92 E0
G1 Z.5 F7800
G1 X0 Y-25.471
G1 E0.89802 F2400
;TYPE:Skirt/Brim
;WIDTH:1.05
G1 F1500
G1 X60 Y-25.471 E1.79584
G1 X62.045 Y-25.075 E2.69375
G1 X63.793 Y-23.943 E3.68130
G1 X64.992 Y-22.24 E20.92616
G1 X65.471 Y-20 E21.82418
G1 X65.471 Y20 E22.72200
G1 X65.075 Y22.045 E23.61991
G1 X63.943 Y23.793 E24.60746
G1 X62.24 Y24.992 E76.34205
G1 X60 Y25.471 E77.24007
G1 X-60 Y25.471 E78.13789
G1 X-62.045 Y25.075 E79.03580
G1 X-63.793 Y23.943 E80.02335
G1 X-64.992 Y22.24 E97.26821
G1 X-65.471 Y20 E98.16623
G1 X-65.471 Y-20 E99.06405
G1 X-65.075 Y-22.045 E99.96196
G1 X-63.943 Y-23.793 E100.94951
G1 X-62.24 Y-24.992 E126.75214
G1 X-60 Y-25.471 E-98.24777
G1 X-.15 Y-25.471 E-97.95029
G1 E-97.54071 F2400
G92 E0
G1 X-.15 Y-25.471 F7800
G92 E0
G1 X-47.573 Y-19.44
G1 E-97.09109 F2400
;TYPE:Internal infill
G1 F1500
G1 X-41.497 Y-19.44 E-95.60540
G1 X-41.673 Y-19.015 E-94.71504
G1 X-41.999 Y-18.472 E-93.93830
G1 X-42.432 Y-17.928 E-93.21749
G1 X-44.052 Y-16.299 E-92.51426
G1 X-44.897 Y-15.212 E-91.79870
G1 X-45.408 Y-14.125 E-91.41800
G1 X-45.659 Y-13.039 E-91.00842
G1 X-45.69 Y-11.952 E-90.55929
G1 X-45.478 Y-10.866 E-89.07269
G1 X-45.253 Y-10.322 E-88.18272
G1 X-44.927 Y-9.779 E-87.40656
G1 X-44.494 Y-9.236 E-86.68512
G1 X-42.873 Y-7.606 E-85.98252
G1 X-42.029 Y-6.519 E-85.26621
G1 X-41.518 Y-5.433 E-84.88611
G1 X-41.267 Y-4.346 E-84.47654
G1 X-41.235 Y-3.26 E-84.02691
G1 X-41.448 Y-2.173 E-82.54077
G1 X-41.673 Y-1.63 E-81.65093
G1 X-41.999 Y-1.087 E-80.87418
G1 X-42.432 Y-.543 E-80.15337
G1 X-44.052 Y1.087 E-79.45014
G1 X-44.897 Y2.173 E-78.73458
G1 X-45.408 Y3.26 E-78.35388
G1 X-45.659 Y4.346 E-77.94431
G1 X-45.69 Y5.433 E-77.49518
G1 X-45.478 Y6.519 E-76.00857
G1 X-45.253 Y7.063 E-75.11861
G1 X-44.927 Y7.606 E-74.34245
G1 X-44.494 Y8.149 E-73.62101
G1 X-42.873 Y9.779 E-72.91841
G1 X-42.029 Y10.866 E-72.20210
G1 X-41.518 Y11.952 E-71.82200
G1 X-41.267 Y13.039 E-71.41187
G1 X-41.235 Y14.125 E-70.96274
G1 X-41.448 Y15.212 E-69.47660
G1 X-41.673 Y15.755 E-68.67993
G1 X-41.999 Y16.299 E-63.45603
G1 X-42.432 Y16.842 E-63.15855
G1 X-44.052 Y18.472 E-62.74898
G1 X-44.814 Y19.44 E-62.29935
G1 X-36.736 Y19.44 E-60.81366
G1 X-36.56 Y19.015 E-60.35045
G1 X-36.234 Y18.472 E-59.92259
G1 X-35.801 Y17.928 E-59.14557
G1 X-34.181 Y16.299 E-58.42476
G1 X-33.715 Y15.755 E-57.72153
G1 X-33.337 Y15.212 E-57.00597
G1 X-32.825 Y14.125 E-56.62503
G1 X-32.574 Y13.039 E-56.21546
G1 X-32.543 Y11.952 E-55.76633
G1 X-32.755 Y10.866 E-54.28019
G1 X-32.981 Y10.322 E-53.39022
G1 X-33.307 Y9.779 E-52.61379
G1 X-33.74 Y9.236 E-51.89250
G1 X-35.36 Y7.606 E-51.18990
G1 X-36.204 Y6.519 E-50.47371
G1 X-36.716 Y5.433 E-50.09336
G1 X-36.966 Y4.346 E-49.68378
G1 X-36.998 Y3.26 E-49.23416
G1 X-36.786 Y2.173 E-47.74802
G1 X-36.56 Y1.63 E-46.85856
G1 X-36.234 Y1.087 E-46.08155
G1 X-35.801 Y.543 E-45.36074
G1 X-34.181 Y-1.087 E-44.65751
G1 X-33.337 Y-2.173 E-43.94195
G1 X-32.825 Y-3.26 E-43.56101
G1 X-32.574 Y-4.346 E-43.15143
G1 X-32.543 Y-5.433 E-42.70230
G1 X-32.755 Y-6.519 E-41.21616
G1 X-32.981 Y-7.063 E-40.32620
G1 X-33.307 Y-7.606 E-39.54977
G1 X-33.74 Y-8.149 E-38.82848
G1 X-35.36 Y-9.779 E-38.12588
G1 X-36.204 Y-10.866 E-37.40969
G1 X-36.716 Y-11.952 E-37.02933
G1 X-36.966 Y-13.039 E-36.61920
G1 X-36.998 Y-14.125 E-36.17007
G1 X-36.786 Y-15.212 E-34.68393
G1 X-36.56 Y-15.755 E-33.88727
G1 X-36.234 Y-16.299 E-29.87482
G1 X-35.801 Y-16.842 E-29.67650
G1 X-34.181 Y-18.472 E-29.40345
G1 X-33.419 Y-19.44 E-29.10370
G1 X-24.112 Y-19.44 E-28.11324
G1 X-24.288 Y-19.015 E-27.51993
G1 X-24.614 Y-18.472 E-27.00192
G1 X-25.047 Y-17.928 E-26.52138
G1 X-26.667 Y-16.299 E-26.05256
G1 X-27.511 Y-15.212 E-25.57552
G1 X-28.023 Y-14.125 E-25.32156
G1 X-28.274 Y-13.039 E-25.04851
G1 X-28.305 Y-11.952 E-24.74909
G1 X-28.093 Y-10.866 E-23.75833
G1 X-27.867 Y-10.322 E-23.16502
G1 X-27.541 Y-9.779 E-22.64740
G1 X-27.108 Y-9.236 E-22.16654
G1 X-25.488 Y-7.606 E-21.69814
G1 X-24.644 Y-6.519 E-21.22060
G1 X-24.132 Y-5.433 E-20.96720
G1 X-23.882 Y-4.346 E-20.69415
G1 X-23.85 Y-3.26 E-20.39440
G1 X-24.063 Y-2.173 E-19.40364
G1 X-24.288 Y-1.63 E-18.81067
G1 X-24.614 Y-1.087 E-18.29266
G1 X-25.047 Y-.543 E-17.81212
G1 X-26.667 Y1.087 E-17.34330
G1 X-27.511 Y2.173 E-16.86626
G1 X-28.023 Y3.26 E-16.61230
G1 X-28.274 Y4.346 E-16.33925
G1 X-28.305 Y5.433 E-16.03983
G1 X-28.093 Y6.519 E-15.04907
G1 X-27.867 Y7.063 E-14.45576
G1 X-27.541 Y7.606 E-13.93814
G1 X-27.108 Y8.149 E-13.45728
G1 X-25.488 Y9.779 E-12.98888
G1 X-24.644 Y10.866 E-12.51134
G1 X-24.132 Y11.952 E-12.25794
G1 X-23.882 Y13.039 E-11.98452
G1 X-23.85 Y14.125 E-11.68510
G1 X-24.063 Y15.212 E-10.69434
G1 X-24.288 Y15.755 E-10.16323
G1 X-24.614 Y16.299 E-6.68063
G1 X-25.047 Y16.842 E-6.48231
G1 X-26.667 Y18.472 E-6.20926
G1 X-27.429 Y19.44 E-5.90951
G1 X-19.351 Y19.44 E-4.91905
G1 X-19.175 Y19.015 E-4.61024
G1 X-18.849 Y18.472 E-4.32476
G1 X-18.416 Y17.928 E-3.80693
G1 X-16.796 Y16.299 E-3.32639
G1 X-16.33 Y15.755 E-2.85757
G1 X-15.951 Y15.212 E-2.38053
G1 X-15.44 Y14.125 E-2.12657
G1 X-15.189 Y13.039 E-1.85352
G1 X-15.158 Y11.952 E-1.55410
G1 X-15.37 Y10.866 E-0.56334
G1 X-15.596 Y10.322 E0.02997
G1 X-15.922 Y9.779 E0.54741
G1 X-16.355 Y9.236 E1.02837
G1 X-17.975 Y7.606 E1.49677
G1 X-18.819 Y6.519 E1.97431
G1 X-19.33 Y5.433 E2.22771
G1 X-19.581 Y4.346 E2.50076
G1 X-19.613 Y3.26 E2.80051
G1 X-19.4 Y2.173 E3.79127
G1 X-19.175 Y1.63 E4.38450
G1 X-18.849 Y1.087 E4.90233
G1 X-18.416 Y.543 E5.38287
G1 X-16.796 Y-1.087 E5.85169
G1 X-15.951 Y-2.173 E6.32873
G1 X-15.44 Y-3.26 E6.58269
G1 X-15.189 Y-4.346 E6.85574
G1 X-15.158 Y-5.433 E7.15516
G1 X-15.37 Y-6.519 E8.14592
G1 X-15.596 Y-7.063 E8.73923
G1 X-15.922 Y-7.606 E9.25667
G1 X-16.355 Y-8.149 E9.73763
G1 X-17.975 Y-9.779 E10.20603
G1 X-18.819 Y-10.866 E10.68357
G1 X-19.33 Y-11.952 E10.93697
G1 X-19.581 Y-13.039 E11.21039
G1 X-19.613 Y-14.125 E11.50981
G1 X-19.4 Y-15.212 E12.50057
G1 X-19.175 Y-15.755 E13.03168
G1 X-18.849 Y-16.299 E17.04456
G1 X-18.416 Y-16.842 E17.24304
G1 X-16.796 Y-18.472 E17.51609
G1 X-16.034 Y-19.44 E17.81584
G1 X-6.726 Y-19.44 E18.80630
G1 X-6.903 Y-19.015 E19.39961
G1 X-7.229 Y-18.472 E19.91762
G1 X-7.662 Y-17.928 E20.39806
G1 X-9.282 Y-16.299 E20.86689
G1 X-10.126 Y-15.212 E21.34393
G1 X-10.638 Y-14.125 E21.59789
G1 X-10.888 Y-13.039 E21.87094
G1 X-10.92 Y-11.952 E22.17036
G1 X-10.708 Y-10.866 E23.16112
G1 X-10.482 Y-10.322 E23.75443
G1 X-10.156 Y-9.779 E24.27205
G1 X-9.723 Y-9.236 E24.75291
G1 X-8.103 Y-7.606 E25.22131
G1 X-7.259 Y-6.519 E25.69877
G1 X-6.747 Y-5.433 E25.95234
G1 X-6.497 Y-4.346 E26.22539
G1 X-6.465 Y-3.26 E26.52514
G1 X-6.677 Y-2.173 E27.51590
G1 X-6.903 Y-1.63 E28.10887
G1 X-7.229 Y-1.087 E28.62688
G1 X-7.662 Y-.543 E29.10732
G1 X-9.282 Y1.087 E29.57615
G1 X-10.126 Y2.173 E30.05319
G1 X-10.638 Y3.26 E30.30715
G1 X-10.888 Y4.346 E30.58020
G1 X-10.92 Y5.433 E30.87962
G1 X-10.708 Y6.519 E31.87038
G1 X-10.482 Y7.063 E32.46369
G1 X-10.156 Y7.606 E32.98131
G1 X-9.723 Y8.149 E33.46217
G1 X-8.103 Y9.779 E33.93057
G1 X-7.259 Y10.866 E34.40803
G1 X-6.747 Y11.952 E34.66160
G1 X-6.497 Y13.039 E34.93502
G1 X-6.465 Y14.125 E35.23444
G1 X-6.677 Y15.212 E36.22520
G1 X-6.903 Y15.755 E36.75631
G1 X-7.229 Y16.299 E40.23891
G1 X-7.662 Y16.842 E40.43723
G1 X-9.282 Y18.472 E40.71028
G1 X-10.044 Y19.44 E41.01003
G1 X-1.966 Y19.44 E42.00049
G1 X-1.79 Y19.015 E42.30930
G1 X-1.464 Y18.472 E42.59478
G1 X-1.031 Y17.928 E43.11261
G1 X.589 Y16.299 E43.59315
G1 X1.055 Y15.755 E44.06197
G1 X1.434 Y15.212 E44.53901
G1 X1.945 Y14.125 E44.79281
G1 X2.196 Y13.039 E45.06586
G1 X2.227 Y11.952 E45.36528
G1 X2.015 Y10.866 E46.35604
G1 X1.79 Y10.322 E46.94961
G1 X1.464 Y9.779 E47.46705
G1 X1.031 Y9.236 E47.94801
G1 X-.589 Y7.606 E48.41640
G1 X-1.434 Y6.519 E48.89386
G1 X-1.945 Y5.433 E49.14726
G1 X-2.196 Y4.346 E49.42031
G1 X-2.227 Y3.26 E49.72006
G1 X-2.015 Y2.173 E50.71082
G1 X-1.79 Y1.63 E51.30405
G1 X-1.464 Y1.087 E51.82188
G1 X-1.031 Y.543 E52.30242
G1 X.589 Y-1.087 E52.77124
G1 X1.434 Y-2.173 E53.24828
G1 X1.945 Y-3.26 E53.50208
G1 X2.196 Y-4.346 E53.77513
G1 X2.227 Y-5.433 E54.07455
G1 X2.015 Y-6.519 E55.06531
G1 X1.79 Y-7.063 E55.65888
G1 X1.464 Y-7.606 E56.17632
G1 X1.031 Y-8.149 E56.65728
G1 X-.589 Y-9.779 E57.12567
G1 X-1.434 Y-10.866 E57.60313
G1 X-1.945 Y-11.952 E57.85653
G1 X-2.196 Y-13.039 E58.12995
G1 X-2.227 Y-14.125 E58.42937
G1 X-2.015 Y-15.212 E59.42013
G1 X-1.79 Y-15.755 E59.95124
G1 X-1.464 Y-16.299 E71.98988
G1 X-1.031 Y-16.842 E72.58532
G1 X.589 Y-18.472 E73.40447
G1 X1.351 Y-19.44 E74.30372
G1 X10.659 Y-19.44 E77.27510
G1 X10.482 Y-19.015 E79.05503
G1 X10.156 Y-18.472 E80.60906
G1 X9.723 Y-17.928 E82.05038
G1 X8.103 Y-16.299 E83.45687
G1 X7.259 Y-15.212 E84.88799
G1 X6.747 Y-14.125 E85.64987
G1 X6.497 Y-13.039 E86.46902
G1 X6.465 Y-11.952 E87.36728
G1 X6.677 Y-10.866 E90.33956
G1 X6.903 Y-10.322 E92.11949
G1 X7.229 Y-9.779 E93.67235
G1 X7.662 Y-9.236 E95.11493
G1 X9.282 Y-7.606 E96.52013
G1 X10.126 Y-6.519 E97.95251
G1 X10.638 Y-5.433 E98.71322
G1 X10.888 Y-4.346 E99.53237
G1 X10.92 Y-3.26 E100.43162
G1 X10.708 Y-2.173 E103.40390
G1 X10.482 Y-1.63 E105.18281
G1 X10.156 Y-1.087 E106.73684
G1 X9.723 Y-.543 E108.17816
G1 X8.103 Y1.087 E109.58465
G1 X7.259 Y2.173 E111.01577
G1 X6.747 Y3.26 E111.77765
G1 X6.497 Y4.346 E112.59680
G1 X6.465 Y5.433 E113.49506
G1 X6.677 Y6.519 E116.46734
G1 X6.903 Y7.063 E118.24727
G1 X7.229 Y7.606 E119.80013
G1 X7.662 Y8.149 E121.24271
G1 X9.282 Y9.779 E122.64791
G1 X10.126 Y10.866 E124.08029
G1 X10.638 Y11.952 E124.84100
G1 X10.888 Y13.039 E125.66126
G1 X10.92 Y14.125 E126.55952
G1 X10.708 Y15.212 E129.53180
G1 X10.482 Y15.755 E131.12513
G1 X10.156 Y16.299 E141.57293
G1 X9.723 Y16.842 E142.16837
G1 X8.103 Y18.472 E142.98752
G1 X7.341 Y19.44 E143.88677
G1 X15.419 Y19.44 E146.85815
G1 X15.596 Y19.015 E147.78458
G1 X15.922 Y18.472 E148.64030
G1 X16.355 Y17.928 E150.19379
G1 X17.975 Y16.299 E151.63541
G1 X18.441 Y15.755 E153.04190
G1 X18.819 Y15.212 E154.47326
G1 X19.33 Y14.125 E155.23466
G1 X19.581 Y13.039 E156.05381
G1 X19.613 Y11.952 E156.95207
G1 X19.4 Y10.866 E159.92435
G1 X19.175 Y10.322 E161.70428
G1 X18.849 Y9.779 E163.25714
G1 X18.416 Y9.236 E164.70002
G1 X16.796 Y7.606 E166.10519
G1 X15.952 Y6.519 E167.53757
G1 X15.44 Y5.433 E168.29828
G1 X15.189 Y4.346 E169.11743
G1 X15.158 Y3.26 E170.01668
G1 X15.37 Y2.173 E172.98896
G1 X15.596 Y1.63 E174.76787
G1 X15.922 Y1.087 E176.32136
G1 X16.355 Y.543 E177.76298
G1 X17.975 Y-1.087 E179.16947
G1 X18.819 Y-2.173 E180.60083
G1 X19.33 Y-3.26 E181.36223
G1 X19.581 Y-4.346 E182.18138
G1 X19.613 Y-5.433 E183.07964
G1 X19.4 Y-6.519 E186.05192
G1 X19.175 Y-7.063 E187.83185
G1 X18.849 Y-7.606 E189.38471
G1 X18.416 Y-8.149 E190.82759
G1 X16.796 Y-9.779 E192.23276
G1 X15.952 Y-10.866 E193.66514
G1 X15.44 Y-11.952 E194.42585
G1 X15.189 Y-13.039 E195.24611
G1 X15.158 Y-14.125 E196.14437
G1 X15.37 Y-15.212 E199.11665
G1 X15.596 Y-15.755 E200.70920
G1 X15.922 Y-16.299 E212.74784
G1 X16.355 Y-16.842 E213.34328
G1 X17.975 Y-18.472 E214.16243
G1 X18.736 Y-19.44 E215.06168
G1 X28.044 Y-19.44 E218.03306
G1 X27.867 Y-19.015 E219.81299
G1 X27.541 Y-18.472 E221.36702
G1 X27.108 Y-17.928 E222.80834
G1 X25.488 Y-16.299 E224.21483
G1 X24.644 Y-15.212 E225.64619
G1 X24.132 Y-14.125 E226.40759
G1 X23.882 Y-13.039 E227.22674
G1 X23.85 Y-11.952 E228.12500
G1 X24.063 Y-10.866 E231.09728
G1 X24.288 Y-10.322 E232.87721
G1 X24.614 Y-9.779 E234.43007
G1 X25.047 Y-9.236 E235.87295
G1 X26.667 Y-7.606 E237.27812
G1 X27.511 Y-6.519 E238.71050
G1 X28.023 Y-5.433 E239.47121
G1 X28.274 Y-4.346 E240.29036
G1 X28.305 Y-3.26 E241.18961
G1 X28.093 Y-2.173 E244.16189
G1 X27.867 Y-1.63 E245.94080
G1 X27.541 Y-1.087 E247.49483
G1 X27.108 Y-.543 E248.93615
G1 X25.488 Y1.087 E250.34264
G1 X24.644 Y2.173 E251.77400
G1 X24.132 Y3.26 E252.53540
G1 X23.882 Y4.346 E253.35455
G1 X23.85 Y5.433 E254.25281
G1 X24.063 Y6.519 E257.22509
G1 X24.288 Y7.063 E259.00502
G1 X24.614 Y7.606 E260.55788
G1 X25.047 Y8.149 E262.00076
G1 X26.667 Y9.779 E263.40593
G1 X27.511 Y10.866 E264.83831
G1 X28.023 Y11.952 E265.59902
G1 X28.274 Y13.039 E266.41928
G1 X28.305 Y14.125 E267.31754
G1 X28.093 Y15.212 E270.28982
G1 X27.867 Y15.755 E271.88315
G1 X27.541 Y16.299 E282.33095
G1 X27.108 Y16.842 E282.92639
G1 X25.488 Y18.472 E283.74554
G1 X24.726 Y19.44 E284.64479
G1 X32.804 Y19.44 E287.61617
G1 X32.981 Y19.015 E288.54260
G1 X33.307 Y18.472 E289.39832
G1 X33.74 Y17.928 E290.95235
G1 X35.36 Y16.299 E292.39367
G1 X35.826 Y15.755 E293.80016
G1 X36.204 Y15.212 E295.23128
G1 X36.716 Y14.125 E295.99316
G1 X36.966 Y13.039 E296.81231
G1 X36.998 Y11.952 E297.71057
G1 X36.786 Y10.866 E300.68285
G1 X36.56 Y10.322 E302.46278
G1 X36.234 Y9.779 E304.01564
G1 X35.801 Y9.236 E305.45822
G1 X34.181 Y7.606 E306.86342
G1 X33.337 Y6.519 E308.29580
G1 X32.825 Y5.433 E309.05651
G1 X32.575 Y4.346 E309.87566
G1 X32.543 Y3.26 E310.77491
G1 X32.755 Y2.173 E313.74719
G1 X32.981 Y1.63 E315.52610
G1 X33.307 Y1.087 E317.08013
G1 X33.74 Y.543 E318.52145
G1 X35.36 Y-1.087 E319.92794
G1 X36.204 Y-2.173 E321.35906
G1 X36.716 Y-3.26 E322.12094
G1 X36.966 Y-4.346 E322.94009
G1 X36.998 Y-5.433 E323.83835
G1 X36.786 Y-6.519 E326.81063
G1 X36.56 Y-7.063 E328.59056
G1 X36.234 Y-7.606 E330.14342
G1 X35.801 Y-8.149 E331.58600
G1 X34.181 Y-9.779 E332.99120
G1 X33.337 Y-10.866 E334.42358
G1 X32.825 Y-11.952 E335.18429
G1 X32.575 Y-13.039 E336.00455
G1 X32.543 Y-14.125 E336.90281
G1 X32.755 Y-15.212 E339.87509
G1 X32.981 Y-15.755 E341.46842
G1 X33.307 Y-16.299 E345.48087
G1 X33.74 Y-16.842 E345.67919
G1 X35.36 Y-18.472 E346.49834
G1 X36.122 Y-19.44 E347.39759
G1 X45.429 Y-19.44 E350.36987
G1 X45.253 Y-19.015 E352.14980
G1 X44.927 Y-18.472 E353.70329
G1 X44.494 Y-17.928 E355.14491
G1 X42.873 Y-16.299 E356.55137
G1 X42.029 Y-15.212 E357.98249
G1 X41.518 Y-14.125 E358.74389
G1 X41.267 Y-13.039 E359.56304
G1 X41.236 Y-11.952 E360.46130
G1 X41.448 Y-10.866 E363.43358
G1 X41.673 Y-10.322 E365.21429
G1 X41.999 Y-9.779 E365.73173
G1 X42.432 Y-9.236 E366.21269
G1 X44.052 Y-7.606 E366.68108
G1 X44.897 Y-6.519 E367.15854
G1 X45.408 Y-5.433 E367.41194
G1 X45.659 Y-4.346 E368.23109
G1 X45.69 Y-3.26 E369.13034
G1 X45.478 Y-2.173 E372.10355
G1 X45.253 Y-1.63 E373.88246
G1 X44.927 Y-1.087 E375.43595
G1 X44.494 Y-.543 E376.87757
G1 X42.873 Y1.087 E378.28403
G1 X42.029 Y2.173 E379.71515
G1 X41.518 Y3.26 E380.47655
G1 X41.267 Y4.346 E381.29570
G1 X41.236 Y5.433 E382.19396
G1 X41.448 Y6.519 E385.16624
G1 X41.673 Y7.063 E386.94695
G1 X41.999 Y7.606 E387.46439
G1 X42.432 Y8.149 E387.94535
G1 X44.052 Y9.779 E388.41374
G1 X44.897 Y10.866 E388.89120
G1 X45.408 Y11.952 E389.14460
G1 X45.659 Y13.039 E389.96486
G1 X45.69 Y14.125 E390.86312
G1 X45.478 Y15.212 E393.83633
G1 X45.253 Y15.755 E395.42888
G1 X44.927 Y16.299 E398.91105
G1 X44.494 Y16.842 E399.10953
G1 X42.873 Y18.472 E399.38258
G1 X42.112 Y19.44 E399.68233
G1 X50.189 Y19.44 E400.67279
G1 X50.366 Y19.015 E400.98160
G1 X50.692 Y18.472 E401.53196
G1 X51.125 Y17.928 E401.78478
G1 X52.745 Y16.299 E402.26522
G1 X53.211 Y15.755 E402.73405
G1 X53.882 Y14.669 E403.21109
G1 X54.101 Y14.125 E403.46505
G1 X54.351 Y13.039 E403.73810
G1 X54.383 Y11.952 E404.03752
G1 X54.171 Y10.866 E405.02828
G1 X53.945 Y10.322 E405.62159
G1 X53.619 Y9.779 E406.13921
G1 X53.186 Y9.236 E406.62007
G1 X51.566 Y7.606 E407.08847
G1 X50.722 Y6.519 E407.56593
G1 X50.21 Y5.433 E407.81950
G1 X49.96 Y4.346 E408.09255
G1 X49.928 Y3.26 E408.39230
G1 X50.14 Y2.173 E409.38306
G1 X50.366 Y1.63 E409.69155
G1 X50.692 Y1.087 E410.24191
