; generated by PrusaSlicer 2.9.0 on 2025-02-10 at 15:40:57 UTC

; 

; external perimeters extrusion width = 1.12mm
; perimeters extrusion width = 1.12mm
; infill extrusion width = 1.12mm
; solid infill extrusion width = 1.12mm
; top infill extrusion width = 1.00mm
; first layer extrusion width = 1.05mm

M190 S25 ; set bed temperature and wait for it to be reached
;TYPE:Custom
G28 H ; home all axes
G92 E0 ; zero extruder
M6
M220 S100
M221 S100
M104 S200 T0
M104 S160 T1

M109 S200 T0
M109 S160 T1
G21 ; set units to millimeters
G90 ; use absolute coordinates
M82 ; use absolute distances for extrusion
G92 E0
M107
;LAYER_CHANGE
;Z:0.5
;HEIGHT:0.5
G1 E0.00000 F2400
G92 E0
G1 Z.5 F7800
G1 X0 Y-25.471
G1 E0.89802 F2400
;TYPE:Skirt/Brim
;WIDTH:1.05
G1 F1500
G1 X60 Y-25.471 E1.79584
G1 X62.045 Y-25.075 E2.69375
G1 X63.793 Y-23.943 E3.68130
G1 X64.992 Y-22.24 E20.92616
G1 X65.471 Y-20 E21.82418
G1 X65.471 Y20 E22.72200
G1 X65.075 Y22.045 E23.61991
G1 X63.943 Y23.793 E24.60746
G1 X62.24 Y24.992 E76.34205
G1 X60 Y25.471 E77.24007
G1 X-60 Y25.471 E78.13789
G1 X-62.045 Y25.075 E79.03580
G1 X-63.793 Y23.943 E80.02335
G1 X-64.992 Y22.24 E97.26821
G1 X-65.471 Y20 E98.16623
G1 X-65.471 Y-20 E99.06405
G1 X-65.075 Y-22.045 E99.96196
G1 X-63.943 Y-23.793 E100.94951
G1 X-62.24 Y-24.992 E126.75214
G1 X-60 Y-25.471 E-173.24774
G1 X-.15 Y-25.471 E-172.85110
G1 E-172.30500 F2400
G92 E0
G1 X-.15 Y-25.471 F7800
G92 E0
G1 X-47.573 Y-19.44
G1 E-171.70550 F2400
;TYPE:Internal infill
G1 F1500
G1 X-41.497 Y-19.44 E-169.72458
G1 X-41.673 Y-19.015 E-168.53744
G1 X-41.999 Y-18.472 E-167.50178
G1 X-42.432 Y-17.928 E-166.54070
G1 X-44.052 Y-16.299 E-165.60306
G1 X-44.897 Y-15.212 E-164.64898
G1 X-45.408 Y-14.125 E-164.14138
G1 X-45.659 Y-13.039 E-163.59528
G1 X-45.69 Y-11.952 E-162.99644
G1 X-45.478 Y-10.866 E-161.01430
G1 X-45.253 Y-10.322 E-159.82768
G1 X-44.927 Y-9.779 E-158.79280
G1 X-44.494 Y-9.236 E-157.83088
G1 X-42.873 Y-7.606 E-156.89408
G1 X-42.029 Y-6.519 E-155.93900
G1 X-41.518 Y-5.433 E-155.43220
G1 X-41.267 Y-4.346 E-154.88610
G1 X-41.235 Y-3.26 E-154.28660
G1 X-41.448 Y-2.173 E-152.30508
G1 X-41.673 Y-1.63 E-151.11862
G1 X-41.999 Y-1.087 E-150.08296
G1 X-42.432 Y-.543 E-149.12188
G1 X-44.052 Y1.087 E-148.18424
G1 X-44.897 Y2.173 E-147.23016
G1 X-45.408 Y3.26 E-146.72256
G1 X-45.659 Y4.346 E-146.17646
G1 X-45.69 Y5.433 E-145.57762
G1 X-45.478 Y6.519 E-143.59548
G1 X-45.253 Y7.063 E-142.40886
G1 X-44.927 Y7.606 E-141.37398
G1 X-44.494 Y8.149 E-140.41206
G1 X-42.873 Y9.779 E-139.47526
G1 X-42.029 Y10.866 E-138.52018
G1 X-41.518 Y11.952 E-138.01338
G1 X-41.267 Y13.039 E-137.46654
G1 X-41.235 Y14.125 E-136.86770
G1 X-41.448 Y15.212 E-134.88618
G1 X-41.673 Y15.755 E-133.82396
G1 X-41.999 Y16.299 E-126.85876
G1 X-42.432 Y16.842 E-126.46212
G1 X-44.052 Y18.472 E-125.91602
G1 X-44.814 Y19.44 E-125.31652
G1 X-36.736 Y19.44 E-123.33560
G1 X-36.56 Y19.015 E-122.71798
G1 X-36.234 Y18.472 E-122.14750
G1 X-35.801 Y17.928 E-121.11148
G1 X-34.181 Y16.299 E-120.15040
G1 X-33.715 Y15.755 E-119.21276
G1 X-33.337 Y15.212 E-118.25868
G1 X-32.825 Y14.125 E-117.75076
G1 X-32.574 Y13.039 E-117.20466
G1 X-32.543 Y11.952 E-116.60582
G1 X-32.755 Y10.866 E-114.62430
G1 X-32.981 Y10.322 E-113.43768
G1 X-33.307 Y9.779 E-112.40244
G1 X-33.74 Y9.236 E-111.44072
G1 X-35.36 Y7.606 E-110.50392
G1 X-36.204 Y6.519 E-109.54900
G1 X-36.716 Y5.433 E-109.04186
G1 X-36.966 Y4.346 E-108.49576
G1 X-36.998 Y3.26 E-107.89626
G1 X-36.786 Y2.173 E-105.91474
G1 X-36.56 Y1.63 E-104.72880
G1 X-36.234 Y1.087 E-103.69278
G1 X-35.801 Y.543 E-102.73170
G1 X-34.181 Y-1.087 E-101.79406
G1 X-33.337 Y-2.173 E-100.83998
G1 X-32.825 Y-3.26 E-100.33206
G1 X-32.574 Y-4.346 E-99.78596
G1 X-32.543 Y-5.433 E-99.18712
G1 X-32.755 Y-6.519 E-97.20560
G1 X-32.981 Y-7.063 E-96.01898
G1 X-33.307 Y-7.606 E-94.98374
G1 X-33.74 Y-8.149 E-94.02202
G1 X-35.36 Y-9.779 E-93.08522
G1 X-36.204 Y-10.866 E-92.13030
G1 X-36.716 Y-11.952 E-91.62316
G1 X-36.966 Y-13.039 E-91.07632
G1 X-36.998 Y-14.125 E-90.47748
G1 X-36.786 Y-15.212 E-88.49596
G1 X-36.56 Y-15.755 E-87.43374
G1 X-36.234 Y-16.299 E-79.40884
G1 X-35.801 Y-16.842 E-79.01220
G1 X-34.181 Y-18.472 E-78.46610
G1 X-33.419 Y-19.44 E-77.86660
G1 X-24.112 Y-19.44 E-75.88568
G1 X-24.288 Y-19.015 E-74.69906
G1 X-24.614 Y-18.472 E-73.66304
G1 X-25.047 Y-17.928 E-72.70196
G1 X-26.667 Y-16.299 E-71.76432
G1 X-27.511 Y-15.212 E-70.81024
G1 X-28.023 Y-14.125 E-70.30232
G1 X-28.274 Y-13.039 E-69.75622
G1 X-28.305 Y-11.952 E-69.15738
G1 X-28.093 Y-10.866 E-67.17586
G1 X-27.867 Y-10.322 E-65.98924
G1 X-27.541 Y-9.779 E-64.95400
G1 X-27.108 Y-9.236 E-63.99228
G1 X-25.488 Y-7.606 E-63.05548
G1 X-24.644 Y-6.519 E-62.10040
G1 X-24.132 Y-5.433 E-61.59360
G1 X-23.882 Y-4.346 E-61.04750
G1 X-23.85 Y-3.26 E-60.44800
G1 X-24.063 Y-2.173 E-58.46648
G1 X-24.288 Y-1.63 E-57.28054
G1 X-24.614 Y-1.087 E-56.24452
G1 X-25.047 Y-.543 E-55.28344
G1 X-26.667 Y1.087 E-54.34580
G1 X-27.511 Y2.173 E-53.39172
G1 X-28.023 Y3.26 E-52.88380
G1 X-28.274 Y4.346 E-52.33770
G1 X-28.305 Y5.433 E-51.73886
G1 X-28.093 Y6.519 E-49.75734
G1 X-27.867 Y7.063 E-48.57072
G1 X-27.541 Y7.606 E-47.53548
G1 X-27.108 Y8.149 E-46.57376
G1 X-25.488 Y9.779 E-45.63696
G1 X-24.644 Y10.866 E-44.68188
G1 X-24.132 Y11.952 E-44.17508
G1 X-23.882 Y13.039 E-43.62824
G1 X-23.85 Y14.125 E-43.02940
G1 X-24.063 Y15.212 E-41.04788
G1 X-24.288 Y15.755 E-39.98566
G1 X-24.614 Y16.299 E-33.02046
G1 X-25.047 Y16.842 E-32.62382
G1 X-26.667 Y18.472 E-32.07772
G1 X-27.429 Y19.44 E-31.47822
G1 X-19.351 Y19.44 E-29.49730
G1 X-19.175 Y19.015 E-28.87968
G1 X-18.849 Y18.472 E-28.30872
G1 X-18.416 Y17.928 E-27.27306
G1 X-16.796 Y16.299 E-26.31198
G1 X-16.33 Y15.755 E-25.37434
G1 X-15.951 Y15.212 E-24.42026
G1 X-15.44 Y14.125 E-23.91234
G1 X-15.189 Y13.039 E-23.36624
G1 X-15.158 Y11.952 E-22.76740
G1 X-15.37 Y10.866 E-20.78588
G1 X-15.596 Y10.322 E-19.59926
G1 X-15.922 Y9.779 E-18.56438
G1 X-16.355 Y9.236 E-17.60246
G1 X-17.975 Y7.606 E-16.66566
G1 X-18.819 Y6.519 E-15.71058
G1 X-19.33 Y5.433 E-15.20378
G1 X-19.581 Y4.346 E-14.65768
G1 X-19.613 Y3.26 E-14.05818
G1 X-19.4 Y2.173 E-12.07666
G1 X-19.175 Y1.63 E-10.89020
G1 X-18.849 Y1.087 E-9.85454
G1 X-18.416 Y.543 E-8.89346
G1 X-16.796 Y-1.087 E-7.95582
G1 X-15.951 Y-2.173 E-7.00174
G1 X-15.44 Y-3.26 E-6.49382
G1 X-15.189 Y-4.346 E-5.94772
G1 X-15.158 Y-5.433 E-5.34888
G1 X-15.37 Y-6.519 E-3.36736
G1 X-15.596 Y-7.063 E-2.18074
G1 X-15.922 Y-7.606 E-1.14586
G1 X-16.355 Y-8.149 E-0.18394
G1 X-17.975 Y-9.779 E0.75286
G1 X-18.819 Y-10.866 E1.70794
G1 X-19.33 Y-11.952 E2.21474
G1 X-19.581 Y-13.039 E2.76158
G1 X-19.613 Y-14.125 E3.36042
G1 X-19.4 Y-15.212 E5.34194
G1 X-19.175 Y-15.755 E6.40416
G1 X-18.849 Y-16.299 E18.44280
G1 X-18.416 Y-16.842 E19.03824
G1 X-16.796 Y-18.472 E19.85739
G1 X-16.034 Y-19.44 E20.45689
G1 X-6.726 Y-19.44 E22.43781
G1 X-6.903 Y-19.015 E23.62443
G1 X-7.229 Y-18.472 E24.66045
G1 X-7.662 Y-17.928 E25.62133
G1 X-9.282 Y-16.299 E26.55899
G1 X-10.126 Y-15.212 E27.51307
G1 X-10.638 Y-14.125 E28.02099
G1 X-10.888 Y-13.039 E28.56709
G1 X-10.92 Y-11.952 E29.16593
G1 X-10.708 Y-10.866 E31.14745
G1 X-10.482 Y-10.322 E32.92738
G1 X-10.156 Y-9.779 E34.48024
G1 X-9.723 Y-9.236 E35.92282
G1 X-8.103 Y-7.606 E37.32802
G1 X-7.259 Y-6.519 E38.76040
G1 X-6.747 Y-5.433 E39.52111
G1 X-6.497 Y-4.346 E40.34026
G1 X-6.465 Y-3.26 E40.93976
G1 X-6.677 Y-2.173 E42.92128
G1 X-6.903 Y-1.63 E44.10722
G1 X-7.229 Y-1.087 E45.14324
G1 X-7.662 Y-.543 E46.10412
G1 X-9.282 Y1.087 E47.04178
G1 X-10.126 Y2.173 E47.99586
G1 X-10.638 Y3.26 E48.50378
G1 X-10.888 Y4.346 E49.04988
G1 X-10.92 Y5.433 E49.64872
G1 X-10.708 Y6.519 E51.63024
G1 X-10.482 Y7.063 E53.41017
G1 X-10.156 Y7.606 E54.96303
G1 X-9.723 Y8.149 E56.40561
G1 X-8.103 Y9.779 E57.81081
G1 X-7.259 Y10.866 E59.24319
G1 X-6.747 Y11.952 E60.00390
G1 X-6.497 Y13.039 E60.82416
G1 X-6.465 Y14.125 E61.42300
G1 X-6.677 Y15.212 E63.40452
G1 X-6.903 Y15.755 E64.46674
G1 X-7.229 Y16.299 E74.91454
G1 X-7.662 Y16.842 E75.50950
G1 X-9.282 Y18.472 E76.32865
G1 X-10.044 Y19.44 E77.22790
G1 X-1.966 Y19.44 E80.19928
G1 X-1.79 Y19.015 E81.12571
G1 X-1.464 Y18.472 E81.98215
G1 X-1.031 Y17.928 E83.53564
G1 X.589 Y16.299 E84.97726
G1 X1.055 Y15.755 E86.38372
G1 X1.434 Y15.212 E87.81484
G1 X1.945 Y14.125 E88.57624
G1 X2.196 Y13.039 E89.39539
G1 X2.227 Y11.952 E90.29365
G1 X2.015 Y10.866 E93.26593
G1 X1.79 Y10.322 E95.04664
G1 X1.464 Y9.779 E96.59896
G1 X1.031 Y9.236 E98.04184
G1 X-.589 Y7.606 E99.44701
G1 X-1.434 Y6.519 E100.87939
G1 X-1.945 Y5.433 E101.63959
G1 X-2.196 Y4.346 E102.45874
G1 X-2.227 Y3.26 E103.35799
G1 X-2.015 Y2.173 E106.33027
G1 X-1.79 Y1.63 E108.10996
G1 X-1.464 Y1.087 E109.66345
G1 X-1.031 Y.543 E111.10507
G1 X.589 Y-1.087 E112.51153
G1 X1.434 Y-2.173 E113.94265
G1 X1.945 Y-3.26 E114.70405
G1 X2.196 Y-4.346 E115.52320
G1 X2.227 Y-5.433 E116.42146
G1 X2.015 Y-6.519 E119.39374
G1 X1.79 Y-7.063 E121.17445
G1 X1.464 Y-7.606 E122.72677
G1 X1.031 Y-8.149 E124.16965
G1 X-.589 Y-9.779 E125.57482
G1 X-1.434 Y-10.866 E127.00720
G1 X-1.945 Y-11.952 E127.76740
G1 X-2.196 Y-13.039 E128.58766
G1 X-2.227 Y-14.125 E129.48592
G1 X-2.015 Y-15.212 E132.45820
G1 X-1.79 Y-15.755 E134.05153
G1 X-1.464 Y-16.299 E146.09017
G1 X-1.031 Y-16.842 E146.68561
G1 X.589 Y-18.472 E147.50476
G1 X1.351 Y-19.44 E148.40401
G1 X10.659 Y-19.44 E151.37539
G1 X10.482 Y-19.015 E153.15532
G1 X10.156 Y-18.472 E154.70935
G1 X9.723 Y-17.928 E156.15067
G1 X8.103 Y-16.299 E157.55716
G1 X7.259 Y-15.212 E158.98828
G1 X6.747 Y-14.125 E159.75016
G1 X6.497 Y-13.039 E160.56931
G1 X6.465 Y-11.952 E161.46757
G1 X6.677 Y-10.866 E164.43985
G1 X6.903 Y-10.322 E166.21978
G1 X7.229 Y-9.779 E167.77264
G1 X7.662 Y-9.236 E169.21522
G1 X9.282 Y-7.606 E170.62042
G1 X10.126 Y-6.519 E172.05280
G1 X10.638 Y-5.433 E172.81351
G1 X10.888 Y-4.346 E173.63266
G1 X10.92 Y-3.26 E174.53191
G1 X10.708 Y-2.173 E177.50419
G1 X10.482 Y-1.63 E179.28310
G1 X10.156 Y-1.087 E180.83713
G1 X9.723 Y-.543 E182.27845
G1 X8.103 Y1.087 E183.68494
G1 X7.259 Y2.173 E185.11606
G1 X6.747 Y3.26 E185.87794
G1 X6.497 Y4.346 E186.69709
G1 X6.465 Y5.433 E187.59535
G1 X6.677 Y6.519 E190.56763
G1 X6.903 Y7.063 E192.34756
G1 X7.229 Y7.606 E193.90042
G1 X7.662 Y8.149 E195.34300
G1 X9.282 Y9.779 E196.74820
G1 X10.126 Y10.866 E198.18058
G1 X10.638 Y11.952 E198.94129
G1 X10.888 Y13.039 E199.76155
G1 X10.92 Y14.125 E200.65981
G1 X10.708 Y15.212 E203.63209
G1 X10.482 Y15.755 E205.22542
G1 X10.156 Y16.299 E215.67322
G1 X9.723 Y16.842 E216.26866
G1 X8.103 Y18.472 E217.08781
G1 X7.341 Y19.44 E217.98706
G1 X15.419 Y19.44 E220.95844
G1 X15.596 Y19.015 E221.88487
G1 X15.922 Y18.472 E222.74059
G1 X16.355 Y17.928 E224.29408
G1 X17.975 Y16.299 E225.73570
G1 X18.441 Y15.755 E227.14219
G1 X18.819 Y15.212 E228.57355
G1 X19.33 Y14.125 E229.33495
G1 X19.581 Y13.039 E230.15410
G1 X19.613 Y11.952 E231.05236
G1 X19.4 Y10.866 E234.02464
G1 X19.175 Y10.322 E235.80457
G1 X18.849 Y9.779 E237.35743
G1 X18.416 Y9.236 E238.80031
G1 X16.796 Y7.606 E240.20548
G1 X15.952 Y6.519 E241.63786
G1 X15.44 Y5.433 E242.39857
G1 X15.189 Y4.346 E243.21772
G1 X15.158 Y3.26 E244.11697
G1 X15.37 Y2.173 E247.08925
G1 X15.596 Y1.63 E248.86816
G1 X15.922 Y1.087 E250.42165
G1 X16.355 Y.543 E251.86327
G1 X17.975 Y-1.087 E253.26976
G1 X18.819 Y-2.173 E254.70112
G1 X19.33 Y-3.26 E255.46252
G1 X19.581 Y-4.346 E256.28167
G1 X19.613 Y-5.433 E257.17993
G1 X19.4 Y-6.519 E260.15221
G1 X19.175 Y-7.063 E261.93214
G1 X18.849 Y-7.606 E263.48500
G1 X18.416 Y-8.149 E264.92788
G1 X16.796 Y-9.779 E266.33305
G1 X15.952 Y-10.866 E267.76543
G1 X15.44 Y-11.952 E268.52614
G1 X15.189 Y-13.039 E269.34640
G1 X15.158 Y-14.125 E270.24466
G1 X15.37 Y-15.212 E273.21694
G1 X15.596 Y-15.755 E274.80949
G1 X15.922 Y-16.299 E286.84813
G1 X16.355 Y-16.842 E287.44357
G1 X17.975 Y-18.472 E288.26272
G1 X18.736 Y-19.44 E289.16197
G1 X28.044 Y-19.44 E292.13335
G1 X27.867 Y-19.015 E293.91328
G1 X27.541 Y-18.472 E295.46731
G1 X27.108 Y-17.928 E296.90863
G1 X25.488 Y-16.299 E298.31512
G1 X24.644 Y-15.212 E299.74648
G1 X24.132 Y-14.125 E300.50788
G1 X23.882 Y-13.039 E301.32703
G1 X23.85 Y-11.952 E302.22529
G1 X24.063 Y-10.866 E305.19757
G1 X24.288 Y-10.322 E306.97750
G1 X24.614 Y-9.779 E308.53036
G1 X25.047 Y-9.236 E309.97324
G1 X26.667 Y-7.606 E311.37841
G1 X27.511 Y-6.519 E312.81079
G1 X28.023 Y-5.433 E313.57150
G1 X28.274 Y-4.346 E314.39065
G1 X28.305 Y-3.26 E315.28990
G1 X28.093 Y-2.173 E318.26218
G1 X27.867 Y-1.63 E320.04109
G1 X27.541 Y-1.087 E321.59512
G1 X27.108 Y-.543 E323.03644
G1 X25.488 Y1.087 E324.44293
G1 X24.644 Y2.173 E325.87429
G1 X24.132 Y3.26 E326.63569
G1 X23.882 Y4.346 E327.45484
G1 X23.85 Y5.433 E328.35310
G1 X24.063 Y6.519 E331.32538
G1 X24.288 Y7.063 E333.10531
G1 X24.614 Y7.606 E334.65817
G1 X25.047 Y8.149 E336.10105
G1 X26.667 Y9.779 E337.50622
G1 X27.511 Y10.866 E338.93860
G1 X28.023 Y11.952 E339.69931
G1 X28.274 Y13.039 E340.51957
G1 X28.305 Y14.125 E341.41783
G1 X28.093 Y15.212 E344.39011
G1 X27.867 Y15.755 E345.98344
G1 X27.541 Y16.299 E349.46604
G1 X27.108 Y16.842 E349.66452
G1 X25.488 Y18.472 E349.93757
G1 X24.726 Y19.44 E350.23732
G1 X32.804 Y19.44 E351.22778
G1 X32.981 Y19.015 E351.53659
G1 X33.307 Y18.472 E351.82183
G1 X33.74 Y17.928 E352.33984
G1 X35.36 Y16.299 E352.82028
G1 X35.826 Y15.755 E353.28911
G1 X36.204 Y15.212 E353.76615
G1 X36.716 Y14.125 E354.02011
G1 X36.966 Y13.039 E354.29316
G1 X36.998 Y11.952 E354.59258
G1 X36.786 Y10.866 E355.58334
G1 X36.56 Y10.322 E356.17665
G1 X36.234 Y9.779 E356.69427
G1 X35.801 Y9.236 E357.17513
G1 X34.181 Y7.606 E357.64353
G1 X33.337 Y6.519 E358.12099
G1 X32.825 Y5.433 E358.37456
G1 X32.575 Y4.346 E358.64761
G1 X32.543 Y3.26 E358.94736
G1 X32.755 Y2.173 E359.93812
G1 X32.981 Y1.63 E360.53109
G1 X33.307 Y1.087 E361.04910
G1 X33.74 Y.543 E361.52954
G1 X35.36 Y-1.087 E361.99837
G1 X36.204 Y-2.173 E362.47541
G1 X36.716 Y-3.26 E362.72937
G1 X36.966 Y-4.346 E363.00242
G1 X36.998 Y-5.433 E363.30184
G1 X36.786 Y-6.519 E364.29260
G1 X36.56 Y-7.063 E364.88591
G1 X36.234 Y-7.606 E365.40353
G1 X35.801 Y-8.149 E365.88439
G1 X34.181 Y-9.779 E366.35279
G1 X33.337 Y-10.866 E366.83025
G1 X32.825 Y-11.952 E367.08382
G1 X32.575 Y-13.039 E367.35724
G1 X32.543 Y-14.125 E367.65666
G1 X32.755 Y-15.212 E368.64742
G1 X32.981 Y-15.755 E369.17853
G1 X33.307 Y-16.299 E373.19098
G1 X33.74 Y-16.842 E373.38930
G1 X35.36 Y-18.472 E373.66235
G1 X36.122 Y-19.44 E373.96210
G1 X45.429 Y-19.44 E374.95286
G1 X45.253 Y-19.015 E375.54617
G1 X44.927 Y-18.472 E376.06400
G1 X44.494 Y-17.928 E376.54454
G1 X42.873 Y-16.299 E377.01336
G1 X42.029 Y-15.212 E377.49040
G1 X41.518 Y-14.125 E377.74420
G1 X41.267 Y-13.039 E378.01725
G1 X41.236 Y-11.952 E378.31667
G1 X41.448 Y-10.866 E379.30743
G1 X41.673 Y-10.322 E379.90100
G1 X41.999 Y-9.779 E380.41844
G1 X42.432 Y-9.236 E380.89940
G1 X44.052 Y-7.606 E381.36779
G1 X44.897 Y-6.519 E381.84525
G1 X45.408 Y-5.433 E382.09865
G1 X45.659 Y-4.346 E382.37170
G1 X45.69 Y-3.26 E382.67145
G1 X45.478 Y-2.173 E383.66252
G1 X45.253 Y-1.63 E384.25549
G1 X44.927 Y-1.087 E384.77332
G1 X44.494 Y-.543 E385.25386
G1 X42.873 Y1.087 E385.72268
G1 X42.029 Y2.173 E386.19972
G1 X41.518 Y3.26 E386.45352
G1 X41.267 Y4.346 E386.72657
G1 X41.236 Y5.433 E387.02599
G1 X41.448 Y6.519 E388.01675
G1 X41.673 Y7.063 E388.61032
G1 X41.999 Y7.606 E389.12776
G1 X42.432 Y8.149 E389.60872
G1 X44.052 Y9.779 E390.07711
G1 X44.897 Y10.866 E390.55457
G1 X45.408 Y11.952 E390.80797
G1 X45.659 Y13.039 E391.08139
G1 X45.69 Y14.125 E391.38081
G1 X45.478 Y15.212 E392.37188
G1 X45.253 Y15.755 E392.90273
G1 X44.927 Y16.299 E396.38490
G1 X44.494 Y16.842 E396.58338
G1 X42.873 Y18.472 E396.85643
G1 X42.112 Y19.44 E397.15618
G1 X50.189 Y19.44 E398.14664
G1 X50.366 Y19.015 E398.45545
G1 X50.692 Y18.472 E399.00581
G1 X51.125 Y17.928 E399.25863
G1 X52.745 Y16.299 E399.73907
G1 X53.211 Y15.755 E400.20790
G1 X53.882 Y14.669 E400.68494
G1 X54.101 Y14.125 E400.93890
G1 X54.351 Y13.039 E401.21195
G1 X54.383 Y11.952 E401.51137
G1 X54.171 Y10.866 E402.50213
G1 X53.945 Y10.322 E403.09544
G1 X53.619 Y9.779 E403.61306
G1 X53.186 Y9.236 E404.09392
G1 X51.566 Y7.606 E404.56232
G1 X50.722 Y6.519 E405.03978
G1 X50.21 Y5.433 E405.29335
